P3
 256	 256
 255
125	125	125	
255	255	255	
255	255	255	
255	255	255	
255	255	255	
255	255	255	
255	255	255	
255	255	255	
255	255	255	
255	255	255	
255	255	255	
255	255	255	
255	255	255	
255	255	255	
255	255	255	
255	255	255	
255	255	255	
255	255	255	
255	255	255	
255	255	255	
255	255	255	
255	255	255	
255	255	255	
255	255	255	
255	255	255	
255	255	255	
255	255	255	
255	255	255	
255	255	255	
255	255	255	
255	255	255	
255	255	255	
255	255	255	
255	255	255	
255	255	255	
255	255	255	
255	255	255	
255	255	255	
255	255	255	
255	255	255	
255	255	255	
255	255	255	
255	255	255	
255	255	255	
255	255	255	
255	255	255	
255	255	255	
255	255	255	
255	255	255	
255	255	255	
255	255	255	
255	255	255	
255	255	255	
255	255	255	
255	255	255	
255	255	255	
255	255	255	
255	255	255	
255	255	255	
255	255	255	
255	255	255	
255	255	255	
255	255	255	
255	255	255	
255	255	255	
255	255	255	
255	255	255	
255	255	255	
255	255	255	
255	255	255	
255	255	255	
255	255	255	
255	255	255	
255	255	255	
255	255	255	
255	255	255	
255	255	255	
255	255	255	
255	255	255	
255	255	255	
255	255	255	
255	255	255	
255	255	255	
255	255	255	
255	255	255	
255	255	255	
255	255	255	
255	255	255	
255	255	255	
255	255	255	
255	255	255	
255	255	255	
255	255	255	
255	255	255	
255	255	255	
255	255	255	
255	255	255	
255	255	255	
255	255	255	
255	255	255	
255	255	255	
255	255	255	
255	255	255	
255	255	255	
255	255	255	
255	255	255	
255	255	255	
255	255	255	
255	255	255	
255	255	255	
255	255	255	
255	255	255	
255	255	255	
255	255	255	
255	255	255	
255	255	255	
255	255	255	
255	255	255	
255	255	255	
255	255	255	
255	255	255	
255	255	255	
255	255	255	
255	255	255	
255	255	255	
255	255	255	
255	255	255	
255	255	255	
255	255	255	
255	255	255	
255	255	255	
255	255	255	
255	255	255	
255	255	255	
255	255	255	
255	255	255	
255	255	255	
255	255	255	
255	255	255	
255	255	255	
255	255	255	
255	255	255	
255	255	255	
255	255	255	
255	255	255	
255	255	255	
255	255	255	
255	255	255	
255	255	255	
255	255	255	
255	255	255	
255	255	255	
255	255	255	
255	255	255	
255	255	255	
255	255	255	
255	255	255	
255	255	255	
255	255	255	
255	255	255	
255	255	255	
255	255	255	
255	255	255	
255	255	255	
255	255	255	
255	255	255	
255	255	255	
255	255	255	
255	255	255	
255	255	255	
255	255	255	
255	255	255	
255	255	255	
255	255	255	
255	255	255	
255	255	255	
255	255	255	
255	255	255	
255	255	255	
255	255	255	
255	255	255	
255	255	255	
255	255	255	
255	255	255	
255	255	255	
255	255	255	
255	255	255	
255	255	255	
255	255	255	
255	255	255	
255	255	255	
255	255	255	
255	255	255	
255	255	255	
255	255	255	
255	255	255	
255	255	255	
255	255	255	
255	255	255	
255	255	255	
255	255	255	
255	255	255	
255	255	255	
255	255	255	
255	255	255	
255	255	255	
255	255	255	
255	255	255	
255	255	255	
255	255	255	
255	255	255	
255	255	255	
255	255	255	
255	255	255	
255	255	255	
255	255	255	
255	255	255	
255	255	255	
255	255	255	
255	255	255	
255	255	255	
255	255	255	
255	255	255	
255	255	255	
255	255	255	
255	255	255	
255	255	255	
255	255	255	
255	255	255	
255	255	255	
255	255	255	
255	255	255	
255	255	255	
255	255	255	
255	255	255	
255	255	255	
255	255	255	
255	255	255	
255	255	255	
255	255	255	
255	255	255	
255	255	255	
255	255	255	
255	255	255	
255	255	255	
255	255	255	
255	255	255	
255	255	255	
255	255	255	
255	255	255	
255	255	255	
255	255	255	
255	255	255	
255	255	255	
255	255	255	
255	255	255	
125	125	125	
255	255	255	
255	255	255	
255	255	255	
255	255	255	
255	255	255	
255	255	255	
255	255	255	
255	255	255	
255	255	255	
255	255	255	
255	255	255	
255	255	255	
255	255	255	
255	255	255	
255	255	255	
255	255	255	
255	255	255	
255	255	255	
255	255	255	
255	255	255	
255	255	255	
255	255	255	
255	255	255	
255	255	255	
255	255	255	
255	255	255	
255	255	255	
255	255	255	
255	255	255	
255	255	255	
255	255	255	
255	255	255	
255	255	255	
255	255	255	
255	255	255	
255	255	255	
255	255	255	
255	255	255	
255	255	255	
255	255	255	
255	255	255	
255	255	255	
255	255	255	
255	255	255	
255	255	255	
255	255	255	
255	255	255	
255	255	255	
255	255	255	
255	255	255	
255	255	255	
255	255	255	
255	255	255	
255	255	255	
255	255	255	
255	255	255	
255	255	255	
255	255	255	
255	255	255	
255	255	255	
255	255	255	
255	255	255	
255	255	255	
255	255	255	
255	255	255	
255	255	255	
255	255	255	
255	255	255	
255	255	255	
255	255	255	
255	255	255	
255	255	255	
255	255	255	
255	255	255	
255	255	255	
255	255	255	
255	255	255	
255	255	255	
255	255	255	
255	255	255	
255	255	255	
255	255	255	
255	255	255	
255	255	255	
255	255	255	
255	255	255	
255	255	255	
255	255	255	
255	255	255	
255	255	255	
255	255	255	
255	255	255	
255	255	255	
255	255	255	
255	255	255	
255	255	255	
255	255	255	
255	255	255	
255	255	255	
255	255	255	
255	255	255	
255	255	255	
255	255	255	
255	255	255	
255	255	255	
255	255	255	
255	255	255	
255	255	255	
255	255	255	
255	255	255	
255	255	255	
255	255	255	
255	255	255	
255	255	255	
255	255	255	
255	255	255	
255	255	255	
255	255	255	
255	255	255	
255	255	255	
255	255	255	
255	255	255	
255	255	255	
255	255	255	
255	255	255	
255	255	255	
255	255	255	
255	255	255	
255	255	255	
255	255	255	
255	255	255	
255	255	255	
255	255	255	
255	255	255	
255	255	255	
255	255	255	
255	255	255	
255	255	255	
255	255	255	
255	255	255	
255	255	255	
255	255	255	
255	255	255	
255	255	255	
255	255	255	
255	255	255	
255	255	255	
255	255	255	
255	255	255	
255	255	255	
255	255	255	
255	255	255	
255	255	255	
255	255	255	
255	255	255	
255	255	255	
255	255	255	
255	255	255	
255	255	255	
255	255	255	
255	255	255	
255	255	255	
255	255	255	
255	255	255	
255	255	255	
255	255	255	
255	255	255	
255	255	255	
255	255	255	
255	255	255	
255	255	255	
255	255	255	
255	255	255	
255	255	255	
255	255	255	
255	255	255	
255	255	255	
255	255	255	
255	255	255	
255	255	255	
255	255	255	
255	255	255	
255	255	255	
255	255	255	
255	255	255	
255	255	255	
255	255	255	
255	255	255	
255	255	255	
255	255	255	
255	255	255	
255	255	255	
255	255	255	
255	255	255	
255	255	255	
255	255	255	
255	255	255	
255	255	255	
255	255	255	
255	255	255	
255	255	255	
255	255	255	
255	255	255	
255	255	255	
255	255	255	
255	255	255	
255	255	255	
255	255	255	
255	255	255	
255	255	255	
255	255	255	
255	255	255	
255	255	255	
255	255	255	
255	255	255	
255	255	255	
255	255	255	
255	255	255	
255	255	255	
255	255	255	
255	255	255	
255	255	255	
255	255	255	
255	255	255	
255	255	255	
255	255	255	
255	255	255	
255	255	255	
255	255	255	
255	255	255	
255	255	255	
255	255	255	
255	255	255	
255	255	255	
255	255	255	
255	255	255	
255	255	255	
255	255	255	
255	255	255	
255	255	255	
255	255	255	
255	255	255	
255	255	255	
255	255	255	
255	255	255	
255	255	255	
255	255	255	
255	255	255	
255	255	255	
255	255	255	
255	255	255	
255	255	255	
255	255	255	
255	255	255	
255	255	255	
125	125	125	
255	255	255	
255	255	255	
255	255	255	
255	255	255	
255	255	255	
255	255	255	
255	255	255	
255	255	255	
255	255	255	
255	255	255	
255	255	255	
255	255	255	
255	255	255	
255	255	255	
255	255	255	
255	255	255	
255	255	255	
255	255	255	
255	255	255	
255	255	255	
255	255	255	
255	255	255	
255	255	255	
255	255	255	
255	255	255	
255	255	255	
255	255	255	
255	255	255	
255	255	255	
255	255	255	
255	255	255	
255	255	255	
255	255	255	
255	255	255	
255	255	255	
255	255	255	
255	255	255	
255	255	255	
255	255	255	
255	255	255	
255	255	255	
255	255	255	
255	255	255	
255	255	255	
255	255	255	
255	255	255	
255	255	255	
255	255	255	
255	255	255	
255	255	255	
255	255	255	
255	255	255	
255	255	255	
255	255	255	
255	255	255	
255	255	255	
255	255	255	
255	255	255	
255	255	255	
255	255	255	
255	255	255	
255	255	255	
255	255	255	
255	255	255	
255	255	255	
255	255	255	
255	255	255	
255	255	255	
255	255	255	
255	255	255	
255	255	255	
255	255	255	
255	255	255	
255	255	255	
255	255	255	
255	255	255	
255	255	255	
255	255	255	
255	255	255	
255	255	255	
255	255	255	
255	255	255	
255	255	255	
255	255	255	
255	255	255	
255	255	255	
255	255	255	
255	255	255	
255	255	255	
255	255	255	
255	255	255	
255	255	255	
255	255	255	
255	255	255	
255	255	255	
255	255	255	
255	255	255	
255	255	255	
255	255	255	
255	255	255	
255	255	255	
255	255	255	
255	255	255	
255	255	255	
255	255	255	
255	255	255	
255	255	255	
255	255	255	
255	255	255	
255	255	255	
255	255	255	
255	255	255	
255	255	255	
255	255	255	
255	255	255	
255	255	255	
255	255	255	
255	255	255	
255	255	255	
255	255	255	
255	255	255	
255	255	255	
255	255	255	
255	255	255	
255	255	255	
255	255	255	
255	255	255	
255	255	255	
255	255	255	
255	255	255	
255	255	255	
255	255	255	
255	255	255	
255	255	255	
255	255	255	
255	255	255	
255	255	255	
255	255	255	
255	255	255	
255	255	255	
255	255	255	
255	255	255	
255	255	255	
255	255	255	
255	255	255	
255	255	255	
255	255	255	
255	255	255	
255	255	255	
255	255	255	
255	255	255	
255	255	255	
255	255	255	
255	255	255	
255	255	255	
255	255	255	
255	255	255	
255	255	255	
255	255	255	
255	255	255	
255	255	255	
255	255	255	
255	255	255	
255	255	255	
255	255	255	
255	255	255	
255	255	255	
255	255	255	
255	255	255	
255	255	255	
255	255	255	
255	255	255	
255	255	255	
255	255	255	
255	255	255	
255	255	255	
255	255	255	
255	255	255	
255	255	255	
255	255	255	
255	255	255	
255	255	255	
255	255	255	
255	255	255	
255	255	255	
255	255	255	
255	255	255	
255	255	255	
255	255	255	
255	255	255	
255	255	255	
255	255	255	
255	255	255	
255	255	255	
255	255	255	
255	255	255	
255	255	255	
255	255	255	
255	255	255	
255	255	255	
255	255	255	
255	255	255	
255	255	255	
255	255	255	
255	255	255	
255	255	255	
255	255	255	
255	255	255	
255	255	255	
255	255	255	
255	255	255	
255	255	255	
255	255	255	
255	255	255	
255	255	255	
255	255	255	
255	255	255	
255	255	255	
255	255	255	
255	255	255	
255	255	255	
255	255	255	
255	255	255	
255	255	255	
255	255	255	
255	255	255	
255	255	255	
255	255	255	
255	255	255	
255	255	255	
255	255	255	
255	255	255	
255	255	255	
255	255	255	
255	255	255	
255	255	255	
255	255	255	
255	255	255	
255	255	255	
255	255	255	
255	255	255	
255	255	255	
255	255	255	
255	255	255	
255	255	255	
255	255	255	
255	255	255	
255	255	255	
255	255	255	
255	255	255	
255	255	255	
255	255	255	
255	255	255	
255	255	255	
255	255	255	
125	125	125	
255	255	255	
255	255	255	
255	255	255	
255	255	255	
255	255	255	
255	255	255	
255	255	255	
255	255	255	
255	255	255	
255	255	255	
255	255	255	
255	255	255	
255	255	255	
255	255	255	
255	255	255	
255	255	255	
255	255	255	
255	255	255	
255	255	255	
255	255	255	
255	255	255	
255	255	255	
255	255	255	
255	255	255	
255	255	255	
255	255	255	
255	255	255	
255	255	255	
255	255	255	
255	255	255	
255	255	255	
255	255	255	
255	255	255	
255	255	255	
255	255	255	
255	255	255	
255	255	255	
255	255	255	
255	255	255	
255	255	255	
255	255	255	
255	255	255	
255	255	255	
255	255	255	
255	255	255	
255	255	255	
255	255	255	
255	255	255	
255	255	255	
255	255	255	
255	255	255	
255	255	255	
255	255	255	
255	255	255	
255	255	255	
255	255	255	
255	255	255	
255	255	255	
255	255	255	
255	255	255	
255	255	255	
255	255	255	
255	255	255	
255	255	255	
255	255	255	
255	255	255	
255	255	255	
255	255	255	
255	255	255	
255	255	255	
255	255	255	
255	255	255	
255	255	255	
255	255	255	
255	255	255	
255	255	255	
255	255	255	
255	255	255	
255	255	255	
255	255	255	
255	255	255	
255	255	255	
255	255	255	
255	255	255	
255	255	255	
255	255	255	
255	255	255	
255	255	255	
255	255	255	
255	255	255	
255	255	255	
255	255	255	
255	255	255	
255	255	255	
255	255	255	
255	255	255	
255	255	255	
255	255	255	
255	255	255	
255	255	255	
255	255	255	
255	255	255	
255	255	255	
255	255	255	
255	255	255	
255	255	255	
255	255	255	
255	255	255	
255	255	255	
255	255	255	
255	255	255	
255	255	255	
255	255	255	
255	255	255	
255	255	255	
255	255	255	
255	255	255	
255	255	255	
255	255	255	
255	255	255	
255	255	255	
255	255	255	
255	255	255	
255	255	255	
255	255	255	
255	255	255	
255	255	255	
255	255	255	
255	255	255	
255	255	255	
255	255	255	
255	255	255	
255	255	255	
255	255	255	
255	255	255	
255	255	255	
255	255	255	
255	255	255	
255	255	255	
255	255	255	
255	255	255	
255	255	255	
255	255	255	
255	255	255	
255	255	255	
255	255	255	
255	255	255	
255	255	255	
255	255	255	
255	255	255	
255	255	255	
255	255	255	
255	255	255	
255	255	255	
255	255	255	
255	255	255	
255	255	255	
255	255	255	
255	255	255	
255	255	255	
255	255	255	
255	255	255	
255	255	255	
255	255	255	
255	255	255	
255	255	255	
255	255	255	
255	255	255	
255	255	255	
255	255	255	
255	255	255	
255	255	255	
255	255	255	
255	255	255	
255	255	255	
255	255	255	
255	255	255	
255	255	255	
255	255	255	
255	255	255	
255	255	255	
255	255	255	
255	255	255	
255	255	255	
255	255	255	
255	255	255	
255	255	255	
255	255	255	
255	255	255	
255	255	255	
255	255	255	
255	255	255	
255	255	255	
255	255	255	
255	255	255	
255	255	255	
255	255	255	
255	255	255	
255	255	255	
255	255	255	
255	255	255	
255	255	255	
255	255	255	
255	255	255	
255	255	255	
255	255	255	
255	255	255	
255	255	255	
255	255	255	
255	255	255	
255	255	255	
255	255	255	
255	255	255	
255	255	255	
255	255	255	
255	255	255	
255	255	255	
255	255	255	
255	255	255	
255	255	255	
255	255	255	
255	255	255	
255	255	255	
255	255	255	
255	255	255	
255	255	255	
255	255	255	
255	255	255	
255	255	255	
255	255	255	
255	255	255	
255	255	255	
255	255	255	
255	255	255	
255	255	255	
255	255	255	
255	255	255	
255	255	255	
255	255	255	
255	255	255	
255	255	255	
255	255	255	
255	255	255	
255	255	255	
255	255	255	
255	255	255	
255	255	255	
255	255	255	
255	255	255	
255	255	255	
255	255	255	
255	255	255	
255	255	255	
255	255	255	
255	255	255	
125	125	125	
255	255	255	
255	255	255	
255	255	255	
255	255	255	
255	255	255	
255	255	255	
255	255	255	
255	255	255	
255	255	255	
255	255	255	
255	255	255	
255	255	255	
255	255	255	
255	255	255	
255	255	255	
255	255	255	
255	255	255	
255	255	255	
255	255	255	
255	255	255	
255	255	255	
255	255	255	
255	255	255	
255	255	255	
255	255	255	
255	255	255	
255	255	255	
255	255	255	
255	255	255	
255	255	255	
255	255	255	
255	255	255	
255	255	255	
255	255	255	
255	255	255	
255	255	255	
255	255	255	
255	255	255	
255	255	255	
255	255	255	
255	255	255	
255	255	255	
255	255	255	
255	255	255	
255	255	255	
255	255	255	
255	255	255	
255	255	255	
255	255	255	
255	255	255	
255	255	255	
255	255	255	
255	255	255	
255	255	255	
255	255	255	
255	255	255	
255	255	255	
255	255	255	
255	255	255	
255	255	255	
255	255	255	
255	255	255	
255	255	255	
255	255	255	
255	255	255	
255	255	255	
255	255	255	
255	255	255	
255	255	255	
255	255	255	
255	255	255	
255	255	255	
255	255	255	
255	255	255	
255	255	255	
255	255	255	
255	255	255	
255	255	255	
255	255	255	
255	255	255	
255	255	255	
255	255	255	
255	255	255	
255	255	255	
255	255	255	
255	255	255	
255	255	255	
255	255	255	
255	255	255	
255	255	255	
255	255	255	
255	255	255	
255	255	255	
255	255	255	
255	255	255	
255	255	255	
255	255	255	
255	255	255	
255	255	255	
255	255	255	
255	255	255	
255	255	255	
255	255	255	
255	255	255	
255	255	255	
255	255	255	
255	255	255	
255	255	255	
255	255	255	
255	255	255	
255	255	255	
255	255	255	
255	255	255	
255	255	255	
255	255	255	
255	255	255	
255	255	255	
255	255	255	
255	255	255	
255	255	255	
255	255	255	
255	255	255	
255	255	255	
255	255	255	
255	255	255	
255	255	255	
255	255	255	
255	255	255	
255	255	255	
255	255	255	
255	255	255	
255	255	255	
255	255	255	
255	255	255	
255	255	255	
255	255	255	
255	255	255	
255	255	255	
255	255	255	
255	255	255	
255	255	255	
255	255	255	
255	255	255	
255	255	255	
255	255	255	
255	255	255	
255	255	255	
255	255	255	
255	255	255	
255	255	255	
255	255	255	
255	255	255	
255	255	255	
255	255	255	
255	255	255	
255	255	255	
255	255	255	
255	255	255	
255	255	255	
255	255	255	
255	255	255	
255	255	255	
255	255	255	
255	255	255	
255	255	255	
255	255	255	
255	255	255	
255	255	255	
255	255	255	
255	255	255	
255	255	255	
255	255	255	
255	255	255	
255	255	255	
255	255	255	
255	255	255	
255	255	255	
255	255	255	
255	255	255	
255	255	255	
255	255	255	
255	255	255	
255	255	255	
255	255	255	
255	255	255	
255	255	255	
255	255	255	
255	255	255	
255	255	255	
255	255	255	
255	255	255	
255	255	255	
255	255	255	
255	255	255	
255	255	255	
255	255	255	
255	255	255	
255	255	255	
255	255	255	
255	255	255	
255	255	255	
255	255	255	
255	255	255	
255	255	255	
255	255	255	
255	255	255	
255	255	255	
255	255	255	
255	255	255	
255	255	255	
255	255	255	
255	255	255	
255	255	255	
255	255	255	
255	255	255	
255	255	255	
255	255	255	
255	255	255	
255	255	255	
255	255	255	
255	255	255	
255	255	255	
255	255	255	
255	255	255	
255	255	255	
255	255	255	
255	255	255	
255	255	255	
255	255	255	
255	255	255	
255	255	255	
255	255	255	
255	255	255	
255	255	255	
255	255	255	
255	255	255	
255	255	255	
255	255	255	
255	255	255	
255	255	255	
255	255	255	
255	255	255	
255	255	255	
255	255	255	
255	255	255	
255	255	255	
255	255	255	
255	255	255	
255	255	255	
255	255	255	
255	255	255	
255	255	255	
255	255	255	
255	255	255	
255	255	255	
125	125	125	
255	255	255	
255	255	255	
255	255	255	
255	255	255	
255	255	255	
255	255	255	
255	255	255	
255	255	255	
255	255	255	
255	255	255	
255	255	255	
255	255	255	
255	255	255	
255	255	255	
255	255	255	
255	255	255	
255	255	255	
255	255	255	
255	255	255	
255	255	255	
255	255	255	
255	255	255	
255	255	255	
255	255	255	
255	255	255	
255	255	255	
255	255	255	
255	255	255	
255	255	255	
255	255	255	
255	255	255	
255	255	255	
255	255	255	
255	255	255	
255	255	255	
255	255	255	
255	255	255	
255	255	255	
255	255	255	
255	255	255	
255	255	255	
255	255	255	
255	255	255	
255	255	255	
255	255	255	
255	255	255	
255	255	255	
255	255	255	
255	255	255	
255	255	255	
255	255	255	
255	255	255	
255	255	255	
255	255	255	
255	255	255	
255	255	255	
255	255	255	
255	255	255	
255	255	255	
255	255	255	
255	255	255	
255	255	255	
255	255	255	
255	255	255	
255	255	255	
255	255	255	
255	255	255	
255	255	255	
255	255	255	
255	255	255	
255	255	255	
255	255	255	
255	255	255	
255	255	255	
255	255	255	
255	255	255	
255	255	255	
255	255	255	
255	255	255	
255	255	255	
255	255	255	
255	255	255	
255	255	255	
255	255	255	
255	255	255	
255	255	255	
255	255	255	
255	255	255	
255	255	255	
255	255	255	
255	255	255	
255	255	255	
255	255	255	
255	255	255	
255	255	255	
255	255	255	
255	255	255	
255	255	255	
255	255	255	
255	255	255	
255	255	255	
255	255	255	
255	255	255	
255	255	255	
255	255	255	
255	255	255	
255	255	255	
255	255	255	
255	255	255	
255	255	255	
255	255	255	
255	255	255	
255	255	255	
255	255	255	
255	255	255	
255	255	255	
255	255	255	
255	255	255	
255	255	255	
255	255	255	
255	255	255	
255	255	255	
255	255	255	
255	255	255	
255	255	255	
255	255	255	
255	255	255	
255	255	255	
255	255	255	
255	255	255	
255	255	255	
255	255	255	
255	255	255	
255	255	255	
255	255	255	
255	255	255	
255	255	255	
255	255	255	
255	255	255	
255	255	255	
255	255	255	
255	255	255	
255	255	255	
255	255	255	
255	255	255	
255	255	255	
255	255	255	
255	255	255	
255	255	255	
255	255	255	
255	255	255	
255	255	255	
255	255	255	
255	255	255	
255	255	255	
255	255	255	
255	255	255	
255	255	255	
255	255	255	
255	255	255	
255	255	255	
255	255	255	
255	255	255	
255	255	255	
255	255	255	
255	255	255	
255	255	255	
255	255	255	
255	255	255	
255	255	255	
255	255	255	
255	255	255	
255	255	255	
255	255	255	
255	255	255	
255	255	255	
255	255	255	
255	255	255	
255	255	255	
255	255	255	
255	255	255	
255	255	255	
255	255	255	
255	255	255	
255	255	255	
255	255	255	
255	255	255	
255	255	255	
255	255	255	
255	255	255	
255	255	255	
255	255	255	
255	255	255	
255	255	255	
255	255	255	
255	255	255	
255	255	255	
255	255	255	
255	255	255	
255	255	255	
255	255	255	
255	255	255	
255	255	255	
255	255	255	
255	255	255	
255	255	255	
255	255	255	
255	255	255	
255	255	255	
255	255	255	
255	255	255	
255	255	255	
255	255	255	
255	255	255	
255	255	255	
255	255	255	
255	255	255	
255	255	255	
255	255	255	
255	255	255	
255	255	255	
255	255	255	
255	255	255	
255	255	255	
255	255	255	
255	255	255	
255	255	255	
255	255	255	
255	255	255	
255	255	255	
255	255	255	
255	255	255	
255	255	255	
255	255	255	
255	255	255	
255	255	255	
255	255	255	
255	255	255	
255	255	255	
255	255	255	
255	255	255	
255	255	255	
255	255	255	
255	255	255	
255	255	255	
255	255	255	
255	255	255	
255	255	255	
255	255	255	
255	255	255	
255	255	255	
255	255	255	
255	255	255	
255	255	255	
255	255	255	
125	125	125	
255	255	255	
255	255	255	
255	255	255	
255	255	255	
255	255	255	
255	255	255	
255	255	255	
255	255	255	
255	255	255	
255	255	255	
255	255	255	
255	255	255	
255	255	255	
255	255	255	
255	255	255	
255	255	255	
255	255	255	
255	255	255	
255	255	255	
255	255	255	
255	255	255	
255	255	255	
255	255	255	
255	255	255	
255	255	255	
255	255	255	
255	255	255	
255	255	255	
255	255	255	
255	255	255	
255	255	255	
255	255	255	
255	255	255	
255	255	255	
255	255	255	
255	255	255	
255	255	255	
255	255	255	
255	255	255	
255	255	255	
255	255	255	
255	255	255	
255	255	255	
255	255	255	
255	255	255	
255	255	255	
255	255	255	
255	255	255	
255	255	255	
255	255	255	
255	255	255	
255	255	255	
255	255	255	
255	255	255	
255	255	255	
255	255	255	
255	255	255	
255	255	255	
255	255	255	
255	255	255	
255	255	255	
255	255	255	
255	255	255	
255	255	255	
255	255	255	
255	255	255	
255	255	255	
255	255	255	
255	255	255	
255	255	255	
255	255	255	
255	255	255	
255	255	255	
255	255	255	
255	255	255	
255	255	255	
255	255	255	
255	255	255	
255	255	255	
255	255	255	
255	255	255	
255	255	255	
255	255	255	
255	255	255	
255	255	255	
255	255	255	
255	255	255	
255	255	255	
255	255	255	
255	255	255	
255	255	255	
255	255	255	
255	255	255	
255	255	255	
255	255	255	
255	255	255	
255	255	255	
255	255	255	
255	255	255	
255	255	255	
255	255	255	
255	255	255	
255	255	255	
255	255	255	
255	255	255	
255	255	255	
255	255	255	
255	255	255	
255	255	255	
255	255	255	
255	255	255	
255	255	255	
255	255	255	
255	255	255	
255	255	255	
255	255	255	
255	255	255	
255	255	255	
255	255	255	
255	255	255	
255	255	255	
255	255	255	
255	255	255	
255	255	255	
255	255	255	
255	255	255	
255	255	255	
255	255	255	
255	255	255	
255	255	255	
255	255	255	
255	255	255	
255	255	255	
255	255	255	
255	255	255	
255	255	255	
255	255	255	
255	255	255	
255	255	255	
255	255	255	
255	255	255	
255	255	255	
255	255	255	
255	255	255	
255	255	255	
255	255	255	
255	255	255	
255	255	255	
255	255	255	
255	255	255	
255	255	255	
255	255	255	
255	255	255	
255	255	255	
255	255	255	
255	255	255	
255	255	255	
255	255	255	
255	255	255	
255	255	255	
255	255	255	
255	255	255	
255	255	255	
255	255	255	
255	255	255	
255	255	255	
255	255	255	
255	255	255	
255	255	255	
255	255	255	
255	255	255	
255	255	255	
255	255	255	
255	255	255	
255	255	255	
255	255	255	
255	255	255	
255	255	255	
255	255	255	
255	255	255	
255	255	255	
255	255	255	
255	255	255	
255	255	255	
255	255	255	
255	255	255	
255	255	255	
255	255	255	
255	255	255	
255	255	255	
255	255	255	
255	255	255	
255	255	255	
255	255	255	
255	255	255	
255	255	255	
255	255	255	
255	255	255	
255	255	255	
255	255	255	
255	255	255	
255	255	255	
255	255	255	
255	255	255	
255	255	255	
255	255	255	
255	255	255	
255	255	255	
255	255	255	
255	255	255	
255	255	255	
255	255	255	
255	255	255	
255	255	255	
255	255	255	
255	255	255	
255	255	255	
255	255	255	
255	255	255	
255	255	255	
255	255	255	
255	255	255	
255	255	255	
255	255	255	
255	255	255	
255	255	255	
255	255	255	
255	255	255	
255	255	255	
255	255	255	
255	255	255	
255	255	255	
255	255	255	
255	255	255	
255	255	255	
255	255	255	
255	255	255	
255	255	255	
255	255	255	
255	255	255	
255	255	255	
255	255	255	
255	255	255	
255	255	255	
255	255	255	
255	255	255	
255	255	255	
255	255	255	
255	255	255	
255	255	255	
255	255	255	
255	255	255	
255	255	255	
255	255	255	
255	255	255	
125	125	125	
255	255	255	
255	255	255	
255	255	255	
255	255	255	
255	255	255	
255	255	255	
255	255	255	
255	255	255	
255	255	255	
255	255	255	
255	255	255	
255	255	255	
255	255	255	
255	255	255	
255	255	255	
255	255	255	
255	255	255	
255	255	255	
255	255	255	
255	255	255	
255	255	255	
255	255	255	
255	255	255	
255	255	255	
255	255	255	
255	255	255	
255	255	255	
255	255	255	
255	255	255	
255	255	255	
255	255	255	
255	255	255	
255	255	255	
255	255	255	
255	255	255	
255	255	255	
255	255	255	
255	255	255	
255	255	255	
255	255	255	
255	255	255	
255	255	255	
255	255	255	
255	255	255	
255	255	255	
255	255	255	
255	255	255	
255	255	255	
255	255	255	
255	255	255	
255	255	255	
255	255	255	
255	255	255	
255	255	255	
255	255	255	
255	255	255	
255	255	255	
255	255	255	
255	255	255	
255	255	255	
255	255	255	
255	255	255	
255	255	255	
255	255	255	
255	255	255	
255	255	255	
255	255	255	
255	255	255	
255	255	255	
255	255	255	
255	255	255	
255	255	255	
255	255	255	
255	255	255	
255	255	255	
255	255	255	
255	255	255	
255	255	255	
255	255	255	
255	255	255	
255	255	255	
255	255	255	
255	255	255	
255	255	255	
255	255	255	
255	255	255	
255	255	255	
255	255	255	
255	255	255	
255	255	255	
255	255	255	
255	255	255	
255	255	255	
255	255	255	
255	255	255	
255	255	255	
255	255	255	
255	255	255	
255	255	255	
255	255	255	
255	255	255	
255	255	255	
255	255	255	
255	255	255	
255	255	255	
255	255	255	
255	255	255	
255	255	255	
255	255	255	
255	255	255	
255	255	255	
255	255	255	
255	255	255	
255	255	255	
255	255	255	
255	255	255	
255	255	255	
255	255	255	
255	255	255	
255	255	255	
255	255	255	
255	255	255	
255	255	255	
255	255	255	
255	255	255	
255	255	255	
255	255	255	
255	255	255	
255	255	255	
255	255	255	
255	255	255	
255	255	255	
255	255	255	
255	255	255	
255	255	255	
255	255	255	
255	255	255	
255	255	255	
255	255	255	
255	255	255	
255	255	255	
255	255	255	
255	255	255	
255	255	255	
255	255	255	
255	255	255	
255	255	255	
255	255	255	
255	255	255	
255	255	255	
255	255	255	
255	255	255	
255	255	255	
255	255	255	
255	255	255	
255	255	255	
255	255	255	
255	255	255	
255	255	255	
255	255	255	
255	255	255	
255	255	255	
255	255	255	
255	255	255	
255	255	255	
255	255	255	
255	255	255	
255	255	255	
255	255	255	
255	255	255	
255	255	255	
255	255	255	
255	255	255	
255	255	255	
255	255	255	
255	255	255	
255	255	255	
255	255	255	
255	255	255	
255	255	255	
255	255	255	
255	255	255	
255	255	255	
255	255	255	
255	255	255	
255	255	255	
255	255	255	
255	255	255	
255	255	255	
255	255	255	
255	255	255	
255	255	255	
255	255	255	
255	255	255	
255	255	255	
255	255	255	
255	255	255	
255	255	255	
255	255	255	
255	255	255	
255	255	255	
255	255	255	
255	255	255	
255	255	255	
255	255	255	
255	255	255	
255	255	255	
255	255	255	
255	255	255	
255	255	255	
255	255	255	
255	255	255	
255	255	255	
255	255	255	
255	255	255	
255	255	255	
255	255	255	
255	255	255	
255	255	255	
255	255	255	
255	255	255	
255	255	255	
255	255	255	
255	255	255	
255	255	255	
255	255	255	
255	255	255	
255	255	255	
255	255	255	
255	255	255	
255	255	255	
255	255	255	
255	255	255	
255	255	255	
255	255	255	
255	255	255	
255	255	255	
255	255	255	
255	255	255	
255	255	255	
255	255	255	
255	255	255	
255	255	255	
255	255	255	
255	255	255	
255	255	255	
255	255	255	
255	255	255	
255	255	255	
255	255	255	
255	255	255	
255	255	255	
255	255	255	
255	255	255	
255	255	255	
125	125	125	
255	255	255	
255	255	255	
255	255	255	
255	255	255	
255	255	255	
255	255	255	
255	255	255	
255	255	255	
255	255	255	
255	255	255	
255	255	255	
255	255	255	
255	255	255	
255	255	255	
255	255	255	
255	255	255	
255	255	255	
255	255	255	
255	255	255	
255	255	255	
255	255	255	
255	255	255	
255	255	255	
255	255	255	
255	255	255	
255	255	255	
255	255	255	
255	255	255	
255	255	255	
255	255	255	
255	255	255	
255	255	255	
255	255	255	
255	255	255	
255	255	255	
255	255	255	
255	255	255	
255	255	255	
255	255	255	
255	255	255	
255	255	255	
255	255	255	
255	255	255	
255	255	255	
255	255	255	
255	255	255	
255	255	255	
255	255	255	
255	255	255	
255	255	255	
255	255	255	
255	255	255	
255	255	255	
255	255	255	
255	255	255	
255	255	255	
255	255	255	
255	255	255	
255	255	255	
255	255	255	
255	255	255	
255	255	255	
255	255	255	
255	255	255	
255	255	255	
255	255	255	
255	255	255	
255	255	255	
255	255	255	
255	255	255	
255	255	255	
255	255	255	
255	255	255	
255	255	255	
255	255	255	
255	255	255	
255	255	255	
255	255	255	
255	255	255	
255	255	255	
255	255	255	
255	255	255	
255	255	255	
255	255	255	
255	255	255	
255	255	255	
255	255	255	
255	255	255	
255	255	255	
255	255	255	
255	255	255	
255	255	255	
255	255	255	
255	255	255	
255	255	255	
255	255	255	
255	255	255	
255	255	255	
255	255	255	
255	255	255	
255	255	255	
255	255	255	
255	255	255	
255	255	255	
255	255	255	
255	255	255	
255	255	255	
255	255	255	
255	255	255	
255	255	255	
255	255	255	
255	255	255	
255	255	255	
255	255	255	
255	255	255	
255	255	255	
255	255	255	
255	255	255	
255	255	255	
255	255	255	
255	255	255	
255	255	255	
255	255	255	
255	255	255	
255	255	255	
255	255	255	
255	255	255	
255	255	255	
255	255	255	
255	255	255	
255	255	255	
255	255	255	
255	255	255	
255	255	255	
255	255	255	
255	255	255	
255	255	255	
255	255	255	
255	255	255	
255	255	255	
255	255	255	
255	255	255	
255	255	255	
255	255	255	
255	255	255	
255	255	255	
255	255	255	
255	255	255	
255	255	255	
255	255	255	
255	255	255	
255	255	255	
255	255	255	
255	255	255	
255	255	255	
255	255	255	
255	255	255	
255	255	255	
255	255	255	
255	255	255	
255	255	255	
255	255	255	
255	255	255	
255	255	255	
255	255	255	
255	255	255	
255	255	255	
255	255	255	
255	255	255	
255	255	255	
255	255	255	
255	255	255	
255	255	255	
255	255	255	
255	255	255	
255	255	255	
255	255	255	
255	255	255	
255	255	255	
255	255	255	
255	255	255	
255	255	255	
255	255	255	
255	255	255	
255	255	255	
255	255	255	
255	255	255	
255	255	255	
255	255	255	
255	255	255	
255	255	255	
255	255	255	
255	255	255	
255	255	255	
255	255	255	
255	255	255	
255	255	255	
255	255	255	
255	255	255	
255	255	255	
255	255	255	
255	255	255	
255	255	255	
255	255	255	
255	255	255	
255	255	255	
255	255	255	
255	255	255	
255	255	255	
255	255	255	
255	255	255	
255	255	255	
255	255	255	
255	255	255	
255	255	255	
255	255	255	
255	255	255	
255	255	255	
255	255	255	
255	255	255	
255	255	255	
255	255	255	
255	255	255	
255	255	255	
255	255	255	
255	255	255	
255	255	255	
255	255	255	
255	255	255	
255	255	255	
255	255	255	
255	255	255	
255	255	255	
255	255	255	
255	255	255	
255	255	255	
255	255	255	
255	255	255	
255	255	255	
255	255	255	
255	255	255	
255	255	255	
255	255	255	
255	255	255	
255	255	255	
255	255	255	
255	255	255	
255	255	255	
255	255	255	
255	255	255	
255	255	255	
255	255	255	
255	255	255	
255	255	255	
255	255	255	
125	125	125	
255	255	255	
255	255	255	
255	255	255	
255	255	255	
255	255	255	
255	255	255	
255	255	255	
255	255	255	
255	255	255	
255	255	255	
255	255	255	
255	255	255	
255	255	255	
255	255	255	
255	255	255	
255	255	255	
255	255	255	
255	255	255	
255	255	255	
255	255	255	
255	255	255	
255	255	255	
255	255	255	
255	255	255	
255	255	255	
255	255	255	
255	255	255	
255	255	255	
255	255	255	
255	255	255	
255	255	255	
255	255	255	
255	255	255	
255	255	255	
255	255	255	
255	255	255	
255	255	255	
255	255	255	
255	255	255	
255	255	255	
255	255	255	
255	255	255	
255	255	255	
255	255	255	
255	255	255	
255	255	255	
255	255	255	
255	255	255	
255	255	255	
255	255	255	
255	255	255	
255	255	255	
255	255	255	
255	255	255	
255	255	255	
255	255	255	
255	255	255	
255	255	255	
255	255	255	
255	255	255	
255	255	255	
255	255	255	
255	255	255	
255	255	255	
255	255	255	
255	255	255	
255	255	255	
255	255	255	
255	255	255	
255	255	255	
255	255	255	
255	255	255	
255	255	255	
255	255	255	
255	255	255	
255	255	255	
255	255	255	
255	255	255	
255	255	255	
255	255	255	
255	255	255	
255	255	255	
255	255	255	
255	255	255	
255	255	255	
255	255	255	
255	255	255	
255	255	255	
255	255	255	
255	255	255	
255	255	255	
255	255	255	
255	255	255	
255	255	255	
255	255	255	
255	255	255	
255	255	255	
255	255	255	
255	255	255	
255	255	255	
255	255	255	
255	255	255	
255	255	255	
255	255	255	
255	255	255	
255	255	255	
255	255	255	
255	255	255	
255	255	255	
255	255	255	
255	255	255	
255	255	255	
255	255	255	
255	255	255	
255	255	255	
255	255	255	
255	255	255	
255	255	255	
255	255	255	
255	255	255	
255	255	255	
255	255	255	
255	255	255	
255	255	255	
255	255	255	
255	255	255	
255	255	255	
255	255	255	
255	255	255	
255	255	255	
255	255	255	
255	255	255	
255	255	255	
255	255	255	
255	255	255	
255	255	255	
255	255	255	
255	255	255	
255	255	255	
255	255	255	
255	255	255	
255	255	255	
255	255	255	
255	255	255	
255	255	255	
255	255	255	
255	255	255	
255	255	255	
255	255	255	
255	255	255	
255	255	255	
255	255	255	
255	255	255	
255	255	255	
255	255	255	
255	255	255	
255	255	255	
255	255	255	
255	255	255	
255	255	255	
255	255	255	
255	255	255	
255	255	255	
255	255	255	
255	255	255	
255	255	255	
255	255	255	
255	255	255	
255	255	255	
255	255	255	
255	255	255	
255	255	255	
255	255	255	
255	255	255	
255	255	255	
255	255	255	
255	255	255	
255	255	255	
255	255	255	
255	255	255	
255	255	255	
255	255	255	
255	255	255	
255	255	255	
255	255	255	
255	255	255	
255	255	255	
255	255	255	
255	255	255	
255	255	255	
255	255	255	
255	255	255	
255	255	255	
255	255	255	
255	255	255	
255	255	255	
255	255	255	
255	255	255	
255	255	255	
255	255	255	
255	255	255	
255	255	255	
255	255	255	
255	255	255	
255	255	255	
255	255	255	
255	255	255	
255	255	255	
255	255	255	
255	255	255	
255	255	255	
255	255	255	
255	255	255	
255	255	255	
255	255	255	
255	255	255	
255	255	255	
255	255	255	
255	255	255	
255	255	255	
255	255	255	
255	255	255	
255	255	255	
255	255	255	
255	255	255	
255	255	255	
255	255	255	
255	255	255	
255	255	255	
255	255	255	
255	255	255	
255	255	255	
255	255	255	
255	255	255	
255	255	255	
255	255	255	
255	255	255	
255	255	255	
255	255	255	
255	255	255	
255	255	255	
255	255	255	
255	255	255	
255	255	255	
255	255	255	
255	255	255	
255	255	255	
255	255	255	
255	255	255	
255	255	255	
255	255	255	
255	255	255	
255	255	255	
255	255	255	
255	255	255	
125	125	125	
255	255	255	
255	255	255	
255	255	255	
255	255	255	
255	255	255	
255	255	255	
255	255	255	
255	255	255	
255	255	255	
255	255	255	
255	255	255	
255	255	255	
255	255	255	
255	255	255	
255	255	255	
255	255	255	
255	255	255	
255	255	255	
255	255	255	
255	255	255	
255	255	255	
255	255	255	
255	255	255	
255	255	255	
255	255	255	
255	255	255	
255	255	255	
255	255	255	
255	255	255	
255	255	255	
255	255	255	
255	255	255	
255	255	255	
255	255	255	
255	255	255	
255	255	255	
255	255	255	
255	255	255	
255	255	255	
255	255	255	
255	255	255	
255	255	255	
255	255	255	
255	255	255	
255	255	255	
255	255	255	
255	255	255	
255	255	255	
255	255	255	
255	255	255	
255	255	255	
255	255	255	
255	255	255	
255	255	255	
255	255	255	
255	255	255	
255	255	255	
255	255	255	
255	255	255	
255	255	255	
255	255	255	
255	255	255	
255	255	255	
255	255	255	
255	255	255	
255	255	255	
255	255	255	
255	255	255	
255	255	255	
255	255	255	
255	255	255	
255	255	255	
255	255	255	
255	255	255	
255	255	255	
255	255	255	
255	255	255	
255	255	255	
255	255	255	
255	255	255	
255	255	255	
255	255	255	
255	255	255	
255	255	255	
255	255	255	
255	255	255	
255	255	255	
255	255	255	
255	255	255	
255	255	255	
255	255	255	
255	255	255	
255	255	255	
255	255	255	
255	255	255	
255	255	255	
255	255	255	
255	255	255	
255	255	255	
255	255	255	
255	255	255	
255	255	255	
255	255	255	
255	255	255	
255	255	255	
255	255	255	
255	255	255	
255	255	255	
255	255	255	
255	255	255	
255	255	255	
255	255	255	
255	255	255	
255	255	255	
255	255	255	
255	255	255	
255	255	255	
255	255	255	
255	255	255	
255	255	255	
255	255	255	
255	255	255	
255	255	255	
255	255	255	
255	255	255	
255	255	255	
255	255	255	
255	255	255	
255	255	255	
255	255	255	
255	255	255	
255	255	255	
255	255	255	
255	255	255	
255	255	255	
255	255	255	
255	255	255	
255	255	255	
255	255	255	
255	255	255	
255	255	255	
255	255	255	
255	255	255	
255	255	255	
255	255	255	
255	255	255	
255	255	255	
255	255	255	
255	255	255	
255	255	255	
255	255	255	
255	255	255	
255	255	255	
255	255	255	
255	255	255	
255	255	255	
255	255	255	
255	255	255	
255	255	255	
255	255	255	
255	255	255	
255	255	255	
255	255	255	
255	255	255	
255	255	255	
255	255	255	
255	255	255	
255	255	255	
255	255	255	
255	255	255	
255	255	255	
255	255	255	
255	255	255	
255	255	255	
255	255	255	
255	255	255	
255	255	255	
255	255	255	
255	255	255	
255	255	255	
255	255	255	
255	255	255	
255	255	255	
255	255	255	
255	255	255	
255	255	255	
255	255	255	
255	255	255	
255	255	255	
255	255	255	
255	255	255	
255	255	255	
255	255	255	
255	255	255	
255	255	255	
255	255	255	
255	255	255	
255	255	255	
255	255	255	
255	255	255	
255	255	255	
255	255	255	
255	255	255	
255	255	255	
255	255	255	
255	255	255	
255	255	255	
255	255	255	
255	255	255	
255	255	255	
255	255	255	
255	255	255	
255	255	255	
255	255	255	
255	255	255	
255	255	255	
255	255	255	
255	255	255	
255	255	255	
255	255	255	
255	255	255	
255	255	255	
255	255	255	
255	255	255	
255	255	255	
255	255	255	
255	255	255	
255	255	255	
255	255	255	
255	255	255	
255	255	255	
255	255	255	
255	255	255	
255	255	255	
255	255	255	
255	255	255	
255	255	255	
255	255	255	
255	255	255	
255	255	255	
255	255	255	
255	255	255	
255	255	255	
255	255	255	
255	255	255	
255	255	255	
255	255	255	
255	255	255	
255	255	255	
255	255	255	
255	255	255	
255	255	255	
255	255	255	
255	255	255	
255	255	255	
125	125	125	
255	255	255	
255	255	255	
255	255	255	
255	255	255	
255	255	255	
255	255	255	
255	255	255	
255	255	255	
255	255	255	
255	255	255	
255	255	255	
255	255	255	
255	255	255	
255	255	255	
255	255	255	
255	255	255	
255	255	255	
255	255	255	
255	255	255	
255	255	255	
255	255	255	
255	255	255	
255	255	255	
255	255	255	
255	255	255	
255	255	255	
255	255	255	
255	255	255	
255	255	255	
255	255	255	
255	255	255	
255	255	255	
255	255	255	
255	255	255	
255	255	255	
255	255	255	
255	255	255	
255	255	255	
255	255	255	
255	255	255	
255	255	255	
255	255	255	
255	255	255	
255	255	255	
255	255	255	
255	255	255	
255	255	255	
255	255	255	
255	255	255	
255	255	255	
255	255	255	
255	255	255	
255	255	255	
255	255	255	
255	255	255	
255	255	255	
255	255	255	
255	255	255	
255	255	255	
255	255	255	
255	255	255	
255	255	255	
255	255	255	
255	255	255	
255	255	255	
255	255	255	
255	255	255	
255	255	255	
255	255	255	
255	255	255	
255	255	255	
255	255	255	
255	255	255	
255	255	255	
255	255	255	
255	255	255	
255	255	255	
255	255	255	
255	255	255	
255	255	255	
255	255	255	
255	255	255	
255	255	255	
255	255	255	
255	255	255	
255	255	255	
255	255	255	
255	255	255	
255	255	255	
255	255	255	
255	255	255	
255	255	255	
255	255	255	
255	255	255	
255	255	255	
255	255	255	
255	255	255	
255	255	255	
255	255	255	
255	255	255	
255	255	255	
255	255	255	
255	255	255	
255	255	255	
255	255	255	
255	255	255	
255	255	255	
255	255	255	
255	255	255	
255	255	255	
255	255	255	
255	255	255	
255	255	255	
255	255	255	
255	255	255	
255	255	255	
255	255	255	
255	255	255	
255	255	255	
255	255	255	
255	255	255	
255	255	255	
255	255	255	
255	255	255	
255	255	255	
255	255	255	
255	255	255	
255	255	255	
255	255	255	
255	255	255	
255	255	255	
255	255	255	
255	255	255	
255	255	255	
255	255	255	
255	255	255	
255	255	255	
255	255	255	
255	255	255	
255	255	255	
255	255	255	
255	255	255	
255	255	255	
255	255	255	
255	255	255	
255	255	255	
255	255	255	
255	255	255	
255	255	255	
255	255	255	
255	255	255	
255	255	255	
255	255	255	
255	255	255	
255	255	255	
255	255	255	
255	255	255	
255	255	255	
255	255	255	
255	255	255	
255	255	255	
255	255	255	
255	255	255	
255	255	255	
255	255	255	
255	255	255	
255	255	255	
255	255	255	
255	255	255	
255	255	255	
255	255	255	
255	255	255	
255	255	255	
255	255	255	
255	255	255	
255	255	255	
255	255	255	
255	255	255	
255	255	255	
255	255	255	
255	255	255	
255	255	255	
255	255	255	
255	255	255	
255	255	255	
255	255	255	
255	255	255	
255	255	255	
255	255	255	
255	255	255	
255	255	255	
255	255	255	
255	255	255	
255	255	255	
255	255	255	
255	255	255	
255	255	255	
255	255	255	
255	255	255	
255	255	255	
255	255	255	
255	255	255	
255	255	255	
255	255	255	
255	255	255	
255	255	255	
255	255	255	
255	255	255	
255	255	255	
255	255	255	
255	255	255	
255	255	255	
255	255	255	
255	255	255	
255	255	255	
255	255	255	
255	255	255	
255	255	255	
255	255	255	
255	255	255	
255	255	255	
255	255	255	
255	255	255	
255	255	255	
255	255	255	
255	255	255	
255	255	255	
255	255	255	
255	255	255	
255	255	255	
255	255	255	
255	255	255	
255	255	255	
255	255	255	
255	255	255	
255	255	255	
255	255	255	
255	255	255	
255	255	255	
255	255	255	
255	255	255	
255	255	255	
255	255	255	
255	255	255	
255	255	255	
255	255	255	
255	255	255	
255	255	255	
255	255	255	
255	255	255	
255	255	255	
255	255	255	
255	255	255	
255	255	255	
255	255	255	
255	255	255	
255	255	255	
255	255	255	
255	255	255	
255	255	255	
255	255	255	
255	255	255	
255	255	255	
255	255	255	
255	255	255	
255	255	255	
255	255	255	
255	255	255	
255	255	255	
255	255	255	
255	255	255	
255	255	255	
255	255	255	
255	255	255	
255	255	255	
255	255	255	
255	255	255	
255	255	255	
255	255	255	
255	255	255	
255	255	255	
255	255	255	
255	255	255	
255	255	255	
255	255	255	
255	255	255	
255	255	255	
255	255	255	
255	255	255	
255	255	255	
255	255	255	
255	255	255	
255	255	255	
255	255	255	
255	255	255	
255	255	255	
255	255	255	
255	255	255	
255	255	255	
255	255	255	
255	255	255	
255	255	255	
255	255	255	
255	255	255	
255	255	255	
255	255	255	
255	255	255	
255	255	255	
255	255	255	
255	255	255	
255	255	255	
255	255	255	
255	255	255	
255	255	255	
255	255	255	
255	255	255	
255	255	255	
255	255	255	
255	255	255	
255	255	255	
255	255	255	
255	255	255	
255	255	255	
255	255	255	
255	255	255	
255	255	255	
255	255	255	
255	255	255	
255	255	255	
255	255	255	
255	255	255	
255	255	255	
255	255	255	
255	255	255	
255	255	255	
255	255	255	
255	255	255	
255	255	255	
255	255	255	
255	255	255	
255	255	255	
255	255	255	
255	255	255	
255	255	255	
255	255	255	
255	255	255	
255	255	255	
255	255	255	
255	255	255	
255	255	255	
255	255	255	
255	255	255	
255	255	255	
255	255	255	
255	255	255	
255	255	255	
255	255	255	
255	255	255	
255	255	255	
255	255	255	
255	255	255	
255	255	255	
255	255	255	
255	255	255	
255	255	255	
255	255	255	
255	255	255	
255	255	255	
255	255	255	
255	255	255	
255	255	255	
255	255	255	
255	255	255	
255	255	255	
255	255	255	
255	255	255	
255	255	255	
255	255	255	
255	255	255	
255	255	255	
255	255	255	
255	255	255	
255	255	255	
255	255	255	
255	255	255	
255	255	255	
255	255	255	
255	255	255	
255	255	255	
255	255	255	
255	255	255	
255	255	255	
255	255	255	
255	255	255	
255	255	255	
255	255	255	
255	255	255	
255	255	255	
255	255	255	
255	255	255	
255	255	255	
255	255	255	
255	255	255	
255	255	255	
255	255	255	
255	255	255	
255	255	255	
255	255	255	
255	255	255	
255	255	255	
255	255	255	
255	255	255	
255	255	255	
255	255	255	
255	255	255	
255	255	255	
255	255	255	
255	255	255	
255	255	255	
255	255	255	
255	255	255	
255	255	255	
255	255	255	
255	255	255	
255	255	255	
255	255	255	
255	255	255	
255	255	255	
255	255	255	
255	255	255	
255	255	255	
255	255	255	
255	255	255	
255	255	255	
255	255	255	
255	255	255	
255	255	255	
255	255	255	
255	255	255	
255	255	255	
255	255	255	
255	255	255	
255	255	255	
255	255	255	
255	255	255	
255	255	255	
255	255	255	
255	255	255	
255	255	255	
255	255	255	
255	255	255	
255	255	255	
255	255	255	
255	255	255	
255	255	255	
255	255	255	
255	255	255	
255	255	255	
255	255	255	
255	255	255	
255	255	255	
255	255	255	
255	255	255	
255	255	255	
255	255	255	
255	255	255	
255	255	255	
255	255	255	
255	255	255	
255	255	255	
255	255	255	
255	255	255	
255	255	255	
255	255	255	
255	255	255	
255	255	255	
255	255	255	
255	255	255	
255	255	255	
255	255	255	
255	255	255	
255	255	255	
255	255	255	
255	255	255	
255	255	255	
255	255	255	
255	255	255	
255	255	255	
255	255	255	
255	255	255	
255	255	255	
255	255	255	
255	255	255	
255	255	255	
255	255	255	
255	255	255	
255	255	255	
255	255	255	
255	255	255	
255	255	255	
255	255	255	
255	255	255	
255	255	255	
255	255	255	
255	255	255	
255	255	255	
255	255	255	
255	255	255	
255	255	255	
255	255	255	
255	255	255	
125	125	125	
255	255	255	
255	255	255	
255	255	255	
255	255	255	
255	255	255	
255	255	255	
255	255	255	
255	255	255	
255	255	255	
255	255	255	
255	255	255	
255	255	255	
255	255	255	
255	255	255	
255	255	255	
255	255	255	
255	255	255	
255	255	255	
255	255	255	
255	255	255	
255	255	255	
255	255	255	
255	255	255	
255	255	255	
255	255	255	
255	255	255	
255	255	255	
255	255	255	
255	255	255	
255	255	255	
255	255	255	
255	255	255	
255	255	255	
255	255	255	
255	255	255	
255	255	255	
255	255	255	
255	255	255	
255	255	255	
255	255	255	
255	255	255	
255	255	255	
255	255	255	
255	255	255	
255	255	255	
255	255	255	
255	255	255	
255	255	255	
255	255	255	
255	255	255	
255	255	255	
255	255	255	
255	255	255	
255	255	255	
255	255	255	
255	255	255	
255	255	255	
255	255	255	
255	255	255	
255	255	255	
255	255	255	
255	255	255	
255	255	255	
255	255	255	
255	255	255	
255	255	255	
255	255	255	
255	255	255	
255	255	255	
255	255	255	
255	255	255	
255	255	255	
255	255	255	
255	255	255	
255	255	255	
255	255	255	
255	255	255	
255	255	255	
255	255	255	
255	255	255	
255	255	255	
255	255	255	
255	255	255	
255	255	255	
255	255	255	
255	255	255	
255	255	255	
255	255	255	
255	255	255	
255	255	255	
255	255	255	
255	255	255	
255	255	255	
255	255	255	
255	255	255	
255	255	255	
255	255	255	
255	255	255	
255	255	255	
255	255	255	
255	255	255	
255	255	255	
255	255	255	
255	255	255	
255	255	255	
255	255	255	
255	255	255	
255	255	255	
255	255	255	
255	255	255	
255	255	255	
255	255	255	
255	255	255	
255	255	255	
255	255	255	
255	255	255	
255	255	255	
255	255	255	
255	255	255	
255	255	255	
255	255	255	
255	255	255	
255	255	255	
255	255	255	
255	255	255	
255	255	255	
255	255	255	
255	255	255	
255	255	255	
255	255	255	
255	255	255	
255	255	255	
255	255	255	
255	255	255	
255	255	255	
255	255	255	
255	255	255	
255	255	255	
255	255	255	
255	255	255	
255	255	255	
255	255	255	
255	255	255	
255	255	255	
255	255	255	
255	255	255	
255	255	255	
255	255	255	
255	255	255	
255	255	255	
255	255	255	
255	255	255	
255	255	255	
255	255	255	
255	255	255	
255	255	255	
255	255	255	
255	255	255	
255	255	255	
255	255	255	
255	255	255	
255	255	255	
255	255	255	
255	255	255	
255	255	255	
255	255	255	
255	255	255	
255	255	255	
255	255	255	
255	255	255	
255	255	255	
255	255	255	
255	255	255	
255	255	255	
255	255	255	
255	255	255	
255	255	255	
255	255	255	
255	255	255	
255	255	255	
255	255	255	
255	255	255	
255	255	255	
255	255	255	
255	255	255	
255	255	255	
255	255	255	
255	255	255	
255	255	255	
255	255	255	
255	255	255	
255	255	255	
255	255	255	
255	255	255	
255	255	255	
255	255	255	
255	255	255	
255	255	255	
255	255	255	
255	255	255	
255	255	255	
255	255	255	
255	255	255	
255	255	255	
255	255	255	
255	255	255	
255	255	255	
255	255	255	
255	255	255	
255	255	255	
255	255	255	
255	255	255	
255	255	255	
255	255	255	
255	255	255	
255	255	255	
255	255	255	
255	255	255	
255	255	255	
255	255	255	
255	255	255	
255	255	255	
255	255	255	
255	255	255	
255	255	255	
255	255	255	
255	255	255	
255	255	255	
255	255	255	
255	255	255	
255	255	255	
255	255	255	
255	255	255	
255	255	255	
255	255	255	
255	255	255	
255	255	255	
255	255	255	
255	255	255	
255	255	255	
255	255	255	
255	255	255	
255	255	255	
255	255	255	
255	255	255	
255	255	255	
255	255	255	
255	255	255	
255	255	255	
255	255	255	
255	255	255	
255	255	255	
255	255	255	
255	255	255	
255	255	255	
125	125	125	
255	255	255	
255	255	255	
255	255	255	
255	255	255	
255	255	255	
255	255	255	
255	255	255	
255	255	255	
255	255	255	
255	255	255	
255	255	255	
255	255	255	
255	255	255	
255	255	255	
255	255	255	
255	255	255	
255	255	255	
255	255	255	
255	255	255	
255	255	255	
255	255	255	
255	255	255	
255	255	255	
255	255	255	
255	255	255	
255	255	255	
255	255	255	
255	255	255	
255	255	255	
255	255	255	
255	255	255	
255	255	255	
255	255	255	
255	255	255	
255	255	255	
255	255	255	
255	255	255	
255	255	255	
255	255	255	
255	255	255	
255	255	255	
255	255	255	
255	255	255	
255	255	255	
255	255	255	
255	255	255	
255	255	255	
255	255	255	
255	255	255	
255	255	255	
255	255	255	
255	255	255	
255	255	255	
255	255	255	
255	255	255	
255	255	255	
255	255	255	
255	255	255	
255	255	255	
255	255	255	
255	255	255	
255	255	255	
255	255	255	
255	255	255	
255	255	255	
255	255	255	
255	255	255	
255	255	255	
255	255	255	
255	255	255	
255	255	255	
255	255	255	
255	255	255	
255	255	255	
255	255	255	
255	255	255	
255	255	255	
255	255	255	
255	255	255	
255	255	255	
255	255	255	
255	255	255	
255	255	255	
255	255	255	
255	255	255	
255	255	255	
255	255	255	
255	255	255	
255	255	255	
255	255	255	
255	255	255	
255	255	255	
255	255	255	
255	255	255	
255	255	255	
255	255	255	
255	255	255	
255	255	255	
255	255	255	
255	255	255	
255	255	255	
255	255	255	
255	255	255	
255	255	255	
255	255	255	
255	255	255	
255	255	255	
255	255	255	
255	255	255	
255	255	255	
255	255	255	
255	255	255	
255	255	255	
255	255	255	
255	255	255	
255	255	255	
255	255	255	
255	255	255	
255	255	255	
255	255	255	
255	255	255	
255	255	255	
255	255	255	
255	255	255	
255	255	255	
255	255	255	
255	255	255	
255	255	255	
255	255	255	
255	255	255	
255	255	255	
255	255	255	
255	255	255	
255	255	255	
255	255	255	
255	255	255	
255	255	255	
255	255	255	
255	255	255	
255	255	255	
255	255	255	
255	255	255	
255	255	255	
255	255	255	
255	255	255	
255	255	255	
255	255	255	
255	255	255	
255	255	255	
255	255	255	
255	255	255	
255	255	255	
255	255	255	
255	255	255	
255	255	255	
255	255	255	
255	255	255	
255	255	255	
255	255	255	
255	255	255	
255	255	255	
255	255	255	
255	255	255	
255	255	255	
255	255	255	
255	255	255	
255	255	255	
255	255	255	
255	255	255	
255	255	255	
255	255	255	
255	255	255	
255	255	255	
255	255	255	
255	255	255	
255	255	255	
255	255	255	
255	255	255	
255	255	255	
255	255	255	
255	255	255	
255	255	255	
255	255	255	
255	255	255	
255	255	255	
255	255	255	
255	255	255	
255	255	255	
255	255	255	
255	255	255	
255	255	255	
255	255	255	
255	255	255	
255	255	255	
255	255	255	
255	255	255	
255	255	255	
255	255	255	
255	255	255	
255	255	255	
255	255	255	
255	255	255	
255	255	255	
255	255	255	
255	255	255	
255	255	255	
255	255	255	
255	255	255	
255	255	255	
255	255	255	
255	255	255	
255	255	255	
255	255	255	
255	255	255	
255	255	255	
255	255	255	
255	255	255	
255	255	255	
255	255	255	
255	255	255	
255	255	255	
255	255	255	
255	255	255	
255	255	255	
255	255	255	
255	255	255	
255	255	255	
255	255	255	
255	255	255	
255	255	255	
255	255	255	
255	255	255	
255	255	255	
255	255	255	
255	255	255	
255	255	255	
255	255	255	
255	255	255	
255	255	255	
255	255	255	
255	255	255	
255	255	255	
255	255	255	
255	255	255	
255	255	255	
255	255	255	
255	255	255	
255	255	255	
255	255	255	
255	255	255	
255	255	255	
255	255	255	
255	255	255	
255	255	255	
255	255	255	
255	255	255	
125	125	125	
255	255	255	
255	255	255	
255	255	255	
255	255	255	
255	255	255	
255	255	255	
255	255	255	
255	255	255	
255	255	255	
255	255	255	
255	255	255	
255	255	255	
255	255	255	
255	255	255	
255	255	255	
255	255	255	
255	255	255	
255	255	255	
255	255	255	
255	255	255	
255	255	255	
255	255	255	
255	255	255	
255	255	255	
255	255	255	
255	255	255	
255	255	255	
255	255	255	
255	255	255	
255	255	255	
255	255	255	
255	255	255	
255	255	255	
255	255	255	
255	255	255	
255	255	255	
255	255	255	
255	255	255	
255	255	255	
255	255	255	
255	255	255	
255	255	255	
255	255	255	
255	255	255	
255	255	255	
255	255	255	
255	255	255	
255	255	255	
255	255	255	
255	255	255	
255	255	255	
255	255	255	
255	255	255	
255	255	255	
255	255	255	
255	255	255	
255	255	255	
255	255	255	
255	255	255	
255	255	255	
255	255	255	
255	255	255	
255	255	255	
255	255	255	
255	255	255	
255	255	255	
255	255	255	
255	255	255	
255	255	255	
255	255	255	
255	255	255	
255	255	255	
255	255	255	
255	255	255	
255	255	255	
255	255	255	
255	255	255	
255	255	255	
255	255	255	
255	255	255	
255	255	255	
255	255	255	
255	255	255	
255	255	255	
255	255	255	
255	255	255	
255	255	255	
255	255	255	
255	255	255	
255	255	255	
255	255	255	
255	255	255	
255	255	255	
255	255	255	
255	255	255	
255	255	255	
255	255	255	
255	255	255	
255	255	255	
255	255	255	
255	255	255	
255	255	255	
255	255	255	
255	255	255	
255	255	255	
255	255	255	
255	255	255	
255	255	255	
255	255	255	
255	255	255	
255	255	255	
255	255	255	
255	255	255	
255	255	255	
255	255	255	
255	255	255	
255	255	255	
255	255	255	
255	255	255	
255	255	255	
255	255	255	
255	255	255	
255	255	255	
255	255	255	
255	255	255	
255	255	255	
255	255	255	
255	255	255	
255	255	255	
255	255	255	
255	255	255	
255	255	255	
255	255	255	
255	255	255	
255	255	255	
255	255	255	
255	255	255	
255	255	255	
255	255	255	
255	255	255	
255	255	255	
255	255	255	
255	255	255	
255	255	255	
255	255	255	
255	255	255	
255	255	255	
255	255	255	
255	255	255	
255	255	255	
255	255	255	
255	255	255	
255	255	255	
255	255	255	
255	255	255	
255	255	255	
255	255	255	
255	255	255	
255	255	255	
255	255	255	
255	255	255	
255	255	255	
255	255	255	
255	255	255	
255	255	255	
255	255	255	
255	255	255	
255	255	255	
255	255	255	
255	255	255	
255	255	255	
255	255	255	
255	255	255	
255	255	255	
255	255	255	
255	255	255	
255	255	255	
255	255	255	
255	255	255	
255	255	255	
255	255	255	
255	255	255	
255	255	255	
255	255	255	
255	255	255	
255	255	255	
255	255	255	
255	255	255	
255	255	255	
255	255	255	
255	255	255	
255	255	255	
255	255	255	
255	255	255	
255	255	255	
255	255	255	
255	255	255	
255	255	255	
255	255	255	
255	255	255	
255	255	255	
255	255	255	
255	255	255	
255	255	255	
255	255	255	
255	255	255	
255	255	255	
255	255	255	
255	255	255	
255	255	255	
255	255	255	
255	255	255	
255	255	255	
255	255	255	
255	255	255	
255	255	255	
255	255	255	
255	255	255	
255	255	255	
255	255	255	
255	255	255	
255	255	255	
255	255	255	
255	255	255	
255	255	255	
255	255	255	
255	255	255	
255	255	255	
255	255	255	
255	255	255	
255	255	255	
255	255	255	
255	255	255	
255	255	255	
255	255	255	
255	255	255	
255	255	255	
255	255	255	
255	255	255	
255	255	255	
255	255	255	
255	255	255	
255	255	255	
255	255	255	
255	255	255	
255	255	255	
255	255	255	
255	255	255	
255	255	255	
255	255	255	
255	255	255	
255	255	255	
255	255	255	
255	255	255	
255	255	255	
125	125	125	
255	255	255	
255	255	255	
255	255	255	
255	255	255	
255	255	255	
255	255	255	
255	255	255	
255	255	255	
255	255	255	
255	255	255	
255	255	255	
255	255	255	
255	255	255	
255	255	255	
255	255	255	
255	255	255	
255	255	255	
255	255	255	
255	255	255	
255	255	255	
255	255	255	
255	255	255	
255	255	255	
255	255	255	
255	255	255	
255	255	255	
255	255	255	
255	255	255	
255	255	255	
255	255	255	
255	255	255	
255	255	255	
255	255	255	
255	255	255	
255	255	255	
255	255	255	
255	255	255	
255	255	255	
255	255	255	
255	255	255	
255	255	255	
255	255	255	
255	255	255	
255	255	255	
255	255	255	
255	255	255	
255	255	255	
255	255	255	
255	255	255	
255	255	255	
255	255	255	
255	255	255	
255	255	255	
255	255	255	
255	255	255	
255	255	255	
255	255	255	
255	255	255	
255	255	255	
255	255	255	
255	255	255	
255	255	255	
255	255	255	
255	255	255	
255	255	255	
255	255	255	
255	255	255	
255	255	255	
255	255	255	
255	255	255	
255	255	255	
255	255	255	
255	255	255	
255	255	255	
255	255	255	
255	255	255	
255	255	255	
255	255	255	
255	255	255	
255	255	255	
255	255	255	
255	255	255	
255	255	255	
255	255	255	
255	255	255	
255	255	255	
255	255	255	
255	255	255	
255	255	255	
255	255	255	
255	255	255	
255	255	255	
255	255	255	
255	255	255	
255	255	255	
255	255	255	
255	255	255	
255	255	255	
255	255	255	
255	255	255	
255	255	255	
255	255	255	
255	255	255	
255	255	255	
255	255	255	
255	255	255	
255	255	255	
255	255	255	
255	255	255	
255	255	255	
255	255	255	
255	255	255	
255	255	255	
255	255	255	
255	255	255	
255	255	255	
255	255	255	
255	255	255	
255	255	255	
255	255	255	
255	255	255	
255	255	255	
255	255	255	
255	255	255	
255	255	255	
255	255	255	
255	255	255	
255	255	255	
255	255	255	
255	255	255	
255	255	255	
255	255	255	
255	255	255	
255	255	255	
255	255	255	
255	255	255	
255	255	255	
255	255	255	
255	255	255	
255	255	255	
255	255	255	
255	255	255	
255	255	255	
255	255	255	
255	255	255	
255	255	255	
255	255	255	
255	255	255	
255	255	255	
255	255	255	
255	255	255	
255	255	255	
255	255	255	
255	255	255	
255	255	255	
255	255	255	
255	255	255	
255	255	255	
255	255	255	
255	255	255	
255	255	255	
255	255	255	
255	255	255	
255	255	255	
255	255	255	
255	255	255	
255	255	255	
255	255	255	
255	255	255	
255	255	255	
255	255	255	
255	255	255	
255	255	255	
255	255	255	
255	255	255	
255	255	255	
255	255	255	
255	255	255	
255	255	255	
255	255	255	
255	255	255	
255	255	255	
255	255	255	
255	255	255	
255	255	255	
255	255	255	
255	255	255	
255	255	255	
255	255	255	
255	255	255	
255	255	255	
255	255	255	
255	255	255	
255	255	255	
255	255	255	
255	255	255	
255	255	255	
255	255	255	
255	255	255	
255	255	255	
255	255	255	
255	255	255	
255	255	255	
255	255	255	
255	255	255	
255	255	255	
255	255	255	
255	255	255	
255	255	255	
255	255	255	
255	255	255	
255	255	255	
255	255	255	
255	255	255	
255	255	255	
255	255	255	
255	255	255	
255	255	255	
255	255	255	
255	255	255	
255	255	255	
255	255	255	
255	255	255	
255	255	255	
255	255	255	
255	255	255	
255	255	255	
255	255	255	
255	255	255	
255	255	255	
255	255	255	
255	255	255	
255	255	255	
255	255	255	
255	255	255	
255	255	255	
255	255	255	
255	255	255	
255	255	255	
255	255	255	
255	255	255	
255	255	255	
255	255	255	
255	255	255	
255	255	255	
255	255	255	
255	255	255	
255	255	255	
255	255	255	
255	255	255	
255	255	255	
255	255	255	
255	255	255	
255	255	255	
255	255	255	
125	125	125	
255	255	255	
255	255	255	
255	255	255	
255	255	255	
255	255	255	
255	255	255	
255	255	255	
255	255	255	
255	255	255	
255	255	255	
255	255	255	
255	255	255	
255	255	255	
255	255	255	
255	255	255	
255	255	255	
255	255	255	
255	255	255	
255	255	255	
255	255	255	
255	255	255	
255	255	255	
255	255	255	
255	255	255	
255	255	255	
255	255	255	
255	255	255	
255	255	255	
255	255	255	
255	255	255	
255	255	255	
255	255	255	
255	255	255	
255	255	255	
255	255	255	
255	255	255	
255	255	255	
255	255	255	
255	255	255	
255	255	255	
255	255	255	
255	255	255	
255	255	255	
255	255	255	
255	255	255	
255	255	255	
255	255	255	
255	255	255	
255	255	255	
255	255	255	
255	255	255	
255	255	255	
255	255	255	
255	255	255	
255	255	255	
255	255	255	
255	255	255	
255	255	255	
255	255	255	
255	255	255	
255	255	255	
255	255	255	
255	255	255	
255	255	255	
255	255	255	
255	255	255	
255	255	255	
255	255	255	
255	255	255	
255	255	255	
255	255	255	
255	255	255	
255	255	255	
255	255	255	
255	255	255	
255	255	255	
255	255	255	
255	255	255	
255	255	255	
255	255	255	
255	255	255	
255	255	255	
255	255	255	
255	255	255	
255	255	255	
255	255	255	
255	255	255	
255	255	255	
255	255	255	
255	255	255	
255	255	255	
255	255	255	
255	255	255	
255	255	255	
255	255	255	
255	255	255	
255	255	255	
255	255	255	
255	255	255	
255	255	255	
255	255	255	
255	255	255	
255	255	255	
255	255	255	
255	255	255	
255	255	255	
255	255	255	
255	255	255	
255	255	255	
255	255	255	
255	255	255	
255	255	255	
255	255	255	
255	255	255	
255	255	255	
255	255	255	
255	255	255	
255	255	255	
255	255	255	
255	255	255	
255	255	255	
255	255	255	
255	255	255	
255	255	255	
255	255	255	
255	255	255	
255	255	255	
255	255	255	
255	255	255	
255	255	255	
255	255	255	
255	255	255	
255	255	255	
255	255	255	
255	255	255	
255	255	255	
255	255	255	
255	255	255	
255	255	255	
255	255	255	
255	255	255	
255	255	255	
255	255	255	
255	255	255	
255	255	255	
255	255	255	
255	255	255	
255	255	255	
255	255	255	
255	255	255	
255	255	255	
255	255	255	
255	255	255	
255	255	255	
255	255	255	
255	255	255	
255	255	255	
255	255	255	
255	255	255	
255	255	255	
255	255	255	
255	255	255	
255	255	255	
255	255	255	
255	255	255	
255	255	255	
255	255	255	
255	255	255	
255	255	255	
255	255	255	
255	255	255	
255	255	255	
255	255	255	
255	255	255	
255	255	255	
255	255	255	
255	255	255	
255	255	255	
255	255	255	
255	255	255	
255	255	255	
255	255	255	
255	255	255	
255	255	255	
255	255	255	
255	255	255	
255	255	255	
255	255	255	
255	255	255	
255	255	255	
255	255	255	
255	255	255	
255	255	255	
255	255	255	
255	255	255	
255	255	255	
255	255	255	
255	255	255	
255	255	255	
255	255	255	
255	255	255	
255	255	255	
255	255	255	
255	255	255	
255	255	255	
255	255	255	
255	255	255	
255	255	255	
255	255	255	
255	255	255	
255	255	255	
255	255	255	
255	255	255	
255	255	255	
255	255	255	
255	255	255	
255	255	255	
255	255	255	
255	255	255	
255	255	255	
255	255	255	
255	255	255	
255	255	255	
255	255	255	
255	255	255	
255	255	255	
255	255	255	
255	255	255	
255	255	255	
255	255	255	
255	255	255	
255	255	255	
255	255	255	
255	255	255	
255	255	255	
255	255	255	
255	255	255	
255	255	255	
255	255	255	
255	255	255	
255	255	255	
255	255	255	
255	255	255	
255	255	255	
255	255	255	
255	255	255	
255	255	255	
255	255	255	
255	255	255	
255	255	255	
255	255	255	
255	255	255	
255	255	255	
255	255	255	
255	255	255	
125	125	125	
255	255	255	
255	255	255	
255	255	255	
255	255	255	
255	255	255	
255	255	255	
255	255	255	
255	255	255	
255	255	255	
255	255	255	
255	255	255	
255	255	255	
255	255	255	
255	255	255	
255	255	255	
255	255	255	
255	255	255	
255	255	255	
255	255	255	
255	255	255	
255	255	255	
255	255	255	
255	255	255	
255	255	255	
255	255	255	
255	255	255	
255	255	255	
255	255	255	
255	255	255	
255	255	255	
255	255	255	
255	255	255	
255	255	255	
255	255	255	
255	255	255	
255	255	255	
255	255	255	
255	255	255	
255	255	255	
255	255	255	
255	255	255	
255	255	255	
255	255	255	
255	255	255	
255	255	255	
255	255	255	
255	255	255	
255	255	255	
255	255	255	
255	255	255	
255	255	255	
255	255	255	
255	255	255	
255	255	255	
255	255	255	
255	255	255	
255	255	255	
255	255	255	
255	255	255	
255	255	255	
255	255	255	
255	255	255	
255	255	255	
255	255	255	
255	255	255	
255	255	255	
255	255	255	
255	255	255	
255	255	255	
255	255	255	
255	255	255	
255	255	255	
255	255	255	
255	255	255	
255	255	255	
255	255	255	
255	255	255	
255	255	255	
255	255	255	
255	255	255	
255	255	255	
255	255	255	
255	255	255	
255	255	255	
255	255	255	
255	255	255	
255	255	255	
255	255	255	
255	255	255	
255	255	255	
255	255	255	
255	255	255	
255	255	255	
255	255	255	
255	255	255	
255	255	255	
255	255	255	
255	255	255	
255	255	255	
255	255	255	
255	255	255	
255	255	255	
255	255	255	
255	255	255	
255	255	255	
255	255	255	
255	255	255	
255	255	255	
255	255	255	
255	255	255	
255	255	255	
255	255	255	
255	255	255	
255	255	255	
255	255	255	
255	255	255	
255	255	255	
255	255	255	
255	255	255	
255	255	255	
255	255	255	
255	255	255	
255	255	255	
255	255	255	
255	255	255	
255	255	255	
255	255	255	
255	255	255	
255	255	255	
255	255	255	
255	255	255	
255	255	255	
255	255	255	
255	255	255	
255	255	255	
255	255	255	
255	255	255	
255	255	255	
255	255	255	
255	255	255	
255	255	255	
255	255	255	
255	255	255	
255	255	255	
255	255	255	
255	255	255	
255	255	255	
255	255	255	
255	255	255	
255	255	255	
255	255	255	
255	255	255	
255	255	255	
255	255	255	
255	255	255	
255	255	255	
255	255	255	
255	255	255	
255	255	255	
255	255	255	
255	255	255	
255	255	255	
255	255	255	
255	255	255	
255	255	255	
255	255	255	
255	255	255	
255	255	255	
255	255	255	
255	255	255	
255	255	255	
255	255	255	
255	255	255	
255	255	255	
255	255	255	
255	255	255	
255	255	255	
255	255	255	
255	255	255	
255	255	255	
255	255	255	
255	255	255	
255	255	255	
255	255	255	
255	255	255	
255	255	255	
255	255	255	
255	255	255	
255	255	255	
255	255	255	
255	255	255	
255	255	255	
255	255	255	
255	255	255	
255	255	255	
255	255	255	
255	255	255	
255	255	255	
255	255	255	
255	255	255	
255	255	255	
255	255	255	
255	255	255	
255	255	255	
255	255	255	
255	255	255	
255	255	255	
255	255	255	
255	255	255	
255	255	255	
255	255	255	
255	255	255	
255	255	255	
255	255	255	
255	255	255	
255	255	255	
255	255	255	
255	255	255	
255	255	255	
255	255	255	
255	255	255	
255	255	255	
255	255	255	
255	255	255	
255	255	255	
255	255	255	
255	255	255	
255	255	255	
255	255	255	
255	255	255	
255	255	255	
255	255	255	
255	255	255	
255	255	255	
255	255	255	
255	255	255	
255	255	255	
255	255	255	
255	255	255	
255	255	255	
255	255	255	
255	255	255	
255	255	255	
255	255	255	
255	255	255	
255	255	255	
255	255	255	
255	255	255	
255	255	255	
255	255	255	
255	255	255	
255	255	255	
255	255	255	
255	255	255	
255	255	255	
125	125	125	
255	255	255	
255	255	255	
255	255	255	
255	255	255	
255	255	255	
255	255	255	
255	255	255	
255	255	255	
255	255	255	
255	255	255	
255	255	255	
255	255	255	
255	255	255	
255	255	255	
255	255	255	
255	255	255	
255	255	255	
255	255	255	
255	255	255	
255	255	255	
255	255	255	
255	255	255	
255	255	255	
255	255	255	
255	255	255	
255	255	255	
255	255	255	
255	255	255	
255	255	255	
255	255	255	
255	255	255	
255	255	255	
255	255	255	
255	255	255	
255	255	255	
255	255	255	
255	255	255	
255	255	255	
255	255	255	
255	255	255	
255	255	255	
255	255	255	
255	255	255	
255	255	255	
255	255	255	
255	255	255	
255	255	255	
255	255	255	
255	255	255	
255	255	255	
255	255	255	
255	255	255	
255	255	255	
255	255	255	
255	255	255	
255	255	255	
255	255	255	
255	255	255	
255	255	255	
255	255	255	
255	255	255	
255	255	255	
255	255	255	
255	255	255	
255	255	255	
255	255	255	
255	255	255	
255	255	255	
255	255	255	
255	255	255	
255	255	255	
255	255	255	
255	255	255	
255	255	255	
255	255	255	
255	255	255	
255	255	255	
255	255	255	
255	255	255	
255	255	255	
255	255	255	
255	255	255	
255	255	255	
255	255	255	
255	255	255	
255	255	255	
255	255	255	
255	255	255	
255	255	255	
255	255	255	
255	255	255	
255	255	255	
255	255	255	
255	255	255	
255	255	255	
255	255	255	
255	255	255	
255	255	255	
255	255	255	
255	255	255	
255	255	255	
255	255	255	
255	255	255	
255	255	255	
255	255	255	
255	255	255	
255	255	255	
255	255	255	
255	255	255	
255	255	255	
255	255	255	
255	255	255	
255	255	255	
255	255	255	
255	255	255	
255	255	255	
255	255	255	
255	255	255	
255	255	255	
255	255	255	
255	255	255	
255	255	255	
255	255	255	
255	255	255	
255	255	255	
255	255	255	
255	255	255	
255	255	255	
255	255	255	
255	255	255	
255	255	255	
255	255	255	
255	255	255	
255	255	255	
255	255	255	
255	255	255	
255	255	255	
255	255	255	
255	255	255	
255	255	255	
255	255	255	
255	255	255	
255	255	255	
255	255	255	
255	255	255	
255	255	255	
255	255	255	
255	255	255	
255	255	255	
255	255	255	
255	255	255	
255	255	255	
255	255	255	
255	255	255	
255	255	255	
255	255	255	
255	255	255	
255	255	255	
255	255	255	
255	255	255	
255	255	255	
255	255	255	
255	255	255	
255	255	255	
255	255	255	
255	255	255	
255	255	255	
255	255	255	
255	255	255	
255	255	255	
255	255	255	
255	255	255	
255	255	255	
255	255	255	
255	255	255	
255	255	255	
255	255	255	
255	255	255	
255	255	255	
255	255	255	
255	255	255	
255	255	255	
255	255	255	
255	255	255	
255	255	255	
255	255	255	
255	255	255	
255	255	255	
255	255	255	
255	255	255	
255	255	255	
255	255	255	
255	255	255	
255	255	255	
255	255	255	
255	255	255	
255	255	255	
255	255	255	
255	255	255	
255	255	255	
255	255	255	
255	255	255	
255	255	255	
255	255	255	
255	255	255	
255	255	255	
255	255	255	
255	255	255	
255	255	255	
255	255	255	
255	255	255	
255	255	255	
255	255	255	
255	255	255	
255	255	255	
255	255	255	
255	255	255	
255	255	255	
255	255	255	
255	255	255	
255	255	255	
255	255	255	
255	255	255	
255	255	255	
255	255	255	
255	255	255	
255	255	255	
255	255	255	
255	255	255	
255	255	255	
255	255	255	
255	255	255	
255	255	255	
255	255	255	
255	255	255	
255	255	255	
255	255	255	
255	255	255	
255	255	255	
255	255	255	
255	255	255	
255	255	255	
255	255	255	
255	255	255	
255	255	255	
255	255	255	
255	255	255	
255	255	255	
255	255	255	
255	255	255	
255	255	255	
255	255	255	
255	255	255	
255	255	255	
255	255	255	
125	125	125	
255	255	255	
255	255	255	
255	255	255	
255	255	255	
255	255	255	
255	255	255	
255	255	255	
255	255	255	
255	255	255	
255	255	255	
255	255	255	
255	255	255	
255	255	255	
255	255	255	
255	255	255	
255	255	255	
255	255	255	
255	255	255	
255	255	255	
255	255	255	
255	255	255	
255	255	255	
255	255	255	
255	255	255	
255	255	255	
255	255	255	
255	255	255	
255	255	255	
255	255	255	
255	255	255	
255	255	255	
255	255	255	
255	255	255	
255	255	255	
255	255	255	
255	255	255	
255	255	255	
255	255	255	
255	255	255	
255	255	255	
255	255	255	
255	255	255	
255	255	255	
255	255	255	
255	255	255	
255	255	255	
255	255	255	
255	255	255	
255	255	255	
255	255	255	
255	255	255	
255	255	255	
255	255	255	
255	255	255	
255	255	255	
255	255	255	
255	255	255	
255	255	255	
255	255	255	
255	255	255	
255	255	255	
255	255	255	
255	255	255	
255	255	255	
255	255	255	
255	255	255	
255	255	255	
255	255	255	
255	255	255	
255	255	255	
255	255	255	
255	255	255	
255	255	255	
255	255	255	
255	255	255	
255	255	255	
255	255	255	
255	255	255	
255	255	255	
255	255	255	
255	255	255	
255	255	255	
255	255	255	
255	255	255	
255	255	255	
255	255	255	
255	255	255	
255	255	255	
255	255	255	
255	255	255	
255	255	255	
255	255	255	
255	255	255	
255	255	255	
255	255	255	
255	255	255	
255	255	255	
255	255	255	
255	255	255	
255	255	255	
255	255	255	
255	255	255	
255	255	255	
255	255	255	
255	255	255	
255	255	255	
255	255	255	
255	255	255	
255	255	255	
255	255	255	
255	255	255	
255	255	255	
255	255	255	
255	255	255	
255	255	255	
255	255	255	
255	255	255	
255	255	255	
255	255	255	
255	255	255	
255	255	255	
255	255	255	
255	255	255	
255	255	255	
255	255	255	
255	255	255	
255	255	255	
255	255	255	
255	255	255	
255	255	255	
255	255	255	
255	255	255	
255	255	255	
255	255	255	
255	255	255	
255	255	255	
255	255	255	
255	255	255	
255	255	255	
255	255	255	
255	255	255	
255	255	255	
255	255	255	
255	255	255	
255	255	255	
255	255	255	
255	255	255	
255	255	255	
255	255	255	
255	255	255	
255	255	255	
255	255	255	
255	255	255	
255	255	255	
255	255	255	
255	255	255	
255	255	255	
255	255	255	
255	255	255	
255	255	255	
255	255	255	
255	255	255	
255	255	255	
255	255	255	
255	255	255	
255	255	255	
255	255	255	
255	255	255	
255	255	255	
255	255	255	
255	255	255	
255	255	255	
255	255	255	
255	255	255	
255	255	255	
255	255	255	
255	255	255	
255	255	255	
255	255	255	
255	255	255	
255	255	255	
255	255	255	
255	255	255	
255	255	255	
255	255	255	
255	255	255	
255	255	255	
255	255	255	
255	255	255	
255	255	255	
255	255	255	
255	255	255	
255	255	255	
255	255	255	
255	255	255	
255	255	255	
255	255	255	
255	255	255	
255	255	255	
255	255	255	
255	255	255	
255	255	255	
255	255	255	
255	255	255	
255	255	255	
255	255	255	
255	255	255	
255	255	255	
255	255	255	
255	255	255	
255	255	255	
255	255	255	
255	255	255	
255	255	255	
255	255	255	
255	255	255	
255	255	255	
255	255	255	
255	255	255	
255	255	255	
255	255	255	
255	255	255	
255	255	255	
255	255	255	
255	255	255	
255	255	255	
255	255	255	
255	255	255	
255	255	255	
255	255	255	
255	255	255	
255	255	255	
255	255	255	
255	255	255	
255	255	255	
255	255	255	
255	255	255	
255	255	255	
255	255	255	
255	255	255	
255	255	255	
255	255	255	
255	255	255	
255	255	255	
255	255	255	
255	255	255	
255	255	255	
255	255	255	
255	255	255	
255	255	255	
255	255	255	
255	255	255	
255	255	255	
255	255	255	
255	255	255	
125	125	125	
255	255	255	
255	255	255	
255	255	255	
255	255	255	
255	255	255	
255	255	255	
255	255	255	
255	255	255	
255	255	255	
255	255	255	
255	255	255	
255	255	255	
255	255	255	
255	255	255	
255	255	255	
255	255	255	
255	255	255	
255	255	255	
255	255	255	
255	255	255	
255	255	255	
255	255	255	
255	255	255	
255	255	255	
255	255	255	
255	255	255	
255	255	255	
255	255	255	
255	255	255	
255	255	255	
255	255	255	
255	255	255	
255	255	255	
255	255	255	
255	255	255	
255	255	255	
255	255	255	
255	255	255	
255	255	255	
255	255	255	
255	255	255	
255	255	255	
255	255	255	
255	255	255	
255	255	255	
255	255	255	
255	255	255	
255	255	255	
255	255	255	
255	255	255	
255	255	255	
255	255	255	
255	255	255	
255	255	255	
255	255	255	
255	255	255	
255	255	255	
255	255	255	
255	255	255	
255	255	255	
255	255	255	
255	255	255	
255	255	255	
255	255	255	
255	255	255	
255	255	255	
255	255	255	
255	255	255	
255	255	255	
255	255	255	
255	255	255	
255	255	255	
255	255	255	
255	255	255	
255	255	255	
255	255	255	
255	255	255	
255	255	255	
255	255	255	
255	255	255	
255	255	255	
255	255	255	
255	255	255	
255	255	255	
255	255	255	
255	255	255	
255	255	255	
255	255	255	
255	255	255	
255	255	255	
255	255	255	
255	255	255	
255	255	255	
255	255	255	
255	255	255	
255	255	255	
255	255	255	
255	255	255	
255	255	255	
255	255	255	
255	255	255	
255	255	255	
255	255	255	
255	255	255	
255	255	255	
255	255	255	
255	255	255	
255	255	255	
255	255	255	
255	255	255	
255	255	255	
255	255	255	
255	255	255	
255	255	255	
255	255	255	
255	255	255	
255	255	255	
255	255	255	
255	255	255	
255	255	255	
255	255	255	
255	255	255	
255	255	255	
255	255	255	
255	255	255	
255	255	255	
255	255	255	
255	255	255	
255	255	255	
255	255	255	
255	255	255	
255	255	255	
255	255	255	
255	255	255	
255	255	255	
255	255	255	
255	255	255	
255	255	255	
255	255	255	
255	255	255	
255	255	255	
255	255	255	
255	255	255	
255	255	255	
255	255	255	
255	255	255	
255	255	255	
255	255	255	
255	255	255	
255	255	255	
255	255	255	
255	255	255	
255	255	255	
255	255	255	
255	255	255	
255	255	255	
255	255	255	
255	255	255	
255	255	255	
255	255	255	
255	255	255	
255	255	255	
255	255	255	
255	255	255	
255	255	255	
255	255	255	
255	255	255	
255	255	255	
255	255	255	
255	255	255	
255	255	255	
255	255	255	
255	255	255	
255	255	255	
255	255	255	
255	255	255	
255	255	255	
255	255	255	
255	255	255	
255	255	255	
255	255	255	
255	255	255	
255	255	255	
255	255	255	
255	255	255	
255	255	255	
255	255	255	
255	255	255	
255	255	255	
255	255	255	
255	255	255	
255	255	255	
255	255	255	
255	255	255	
255	255	255	
255	255	255	
255	255	255	
255	255	255	
255	255	255	
255	255	255	
255	255	255	
255	255	255	
255	255	255	
255	255	255	
255	255	255	
255	255	255	
255	255	255	
255	255	255	
255	255	255	
255	255	255	
255	255	255	
255	255	255	
255	255	255	
255	255	255	
255	255	255	
255	255	255	
255	255	255	
255	255	255	
255	255	255	
255	255	255	
255	255	255	
255	255	255	
255	255	255	
255	255	255	
255	255	255	
255	255	255	
255	255	255	
255	255	255	
255	255	255	
255	255	255	
255	255	255	
255	255	255	
255	255	255	
255	255	255	
255	255	255	
255	255	255	
255	255	255	
255	255	255	
255	255	255	
255	255	255	
255	255	255	
255	255	255	
255	255	255	
255	255	255	
255	255	255	
255	255	255	
255	255	255	
255	255	255	
255	255	255	
255	255	255	
255	255	255	
255	255	255	
255	255	255	
255	255	255	
255	255	255	
125	125	125	
255	255	255	
255	255	255	
255	255	255	
255	255	255	
255	255	255	
255	255	255	
255	255	255	
255	255	255	
255	255	255	
255	255	255	
255	255	255	
255	255	255	
255	255	255	
255	255	255	
255	255	255	
255	255	255	
255	255	255	
255	255	255	
255	255	255	
255	255	255	
255	255	255	
255	255	255	
255	255	255	
255	255	255	
255	255	255	
255	255	255	
255	255	255	
255	255	255	
255	255	255	
255	255	255	
255	255	255	
255	255	255	
255	255	255	
255	255	255	
255	255	255	
255	255	255	
255	255	255	
255	255	255	
255	255	255	
255	255	255	
255	255	255	
255	255	255	
255	255	255	
255	255	255	
255	255	255	
255	255	255	
255	255	255	
255	255	255	
255	255	255	
255	255	255	
255	255	255	
255	255	255	
255	255	255	
255	255	255	
255	255	255	
255	255	255	
255	255	255	
255	255	255	
255	255	255	
255	255	255	
255	255	255	
255	255	255	
255	255	255	
255	255	255	
255	255	255	
255	255	255	
255	255	255	
255	255	255	
255	255	255	
255	255	255	
255	255	255	
255	255	255	
255	255	255	
255	255	255	
255	255	255	
255	255	255	
255	255	255	
255	255	255	
255	255	255	
255	255	255	
255	255	255	
255	255	255	
255	255	255	
255	255	255	
255	255	255	
255	255	255	
255	255	255	
255	255	255	
255	255	255	
255	255	255	
255	255	255	
255	255	255	
255	255	255	
255	255	255	
255	255	255	
255	255	255	
255	255	255	
255	255	255	
255	255	255	
255	255	255	
255	255	255	
255	255	255	
255	255	255	
255	255	255	
255	255	255	
255	255	255	
255	255	255	
255	255	255	
255	255	255	
255	255	255	
255	255	255	
255	255	255	
255	255	255	
255	255	255	
255	255	255	
255	255	255	
255	255	255	
255	255	255	
255	255	255	
255	255	255	
255	255	255	
255	255	255	
255	255	255	
255	255	255	
255	255	255	
255	255	255	
255	255	255	
255	255	255	
255	255	255	
255	255	255	
255	255	255	
255	255	255	
255	255	255	
255	255	255	
255	255	255	
255	255	255	
255	255	255	
255	255	255	
255	255	255	
255	255	255	
255	255	255	
255	255	255	
255	255	255	
255	255	255	
255	255	255	
255	255	255	
255	255	255	
255	255	255	
255	255	255	
255	255	255	
255	255	255	
255	255	255	
255	255	255	
255	255	255	
255	255	255	
255	255	255	
255	255	255	
255	255	255	
255	255	255	
255	255	255	
255	255	255	
255	255	255	
255	255	255	
255	255	255	
255	255	255	
255	255	255	
255	255	255	
255	255	255	
255	255	255	
255	255	255	
255	255	255	
255	255	255	
255	255	255	
255	255	255	
255	255	255	
255	255	255	
255	255	255	
255	255	255	
255	255	255	
255	255	255	
255	255	255	
255	255	255	
255	255	255	
255	255	255	
255	255	255	
255	255	255	
255	255	255	
255	255	255	
255	255	255	
255	255	255	
255	255	255	
255	255	255	
255	255	255	
255	255	255	
255	255	255	
255	255	255	
255	255	255	
255	255	255	
255	255	255	
255	255	255	
255	255	255	
255	255	255	
255	255	255	
255	255	255	
255	255	255	
255	255	255	
255	255	255	
255	255	255	
255	255	255	
255	255	255	
255	255	255	
255	255	255	
255	255	255	
255	255	255	
255	255	255	
255	255	255	
255	255	255	
255	255	255	
255	255	255	
255	255	255	
255	255	255	
255	255	255	
255	255	255	
255	255	255	
255	255	255	
255	255	255	
255	255	255	
255	255	255	
255	255	255	
255	255	255	
255	255	255	
255	255	255	
255	255	255	
255	255	255	
255	255	255	
255	255	255	
255	255	255	
255	255	255	
255	255	255	
255	255	255	
255	255	255	
255	255	255	
255	255	255	
255	255	255	
255	255	255	
255	255	255	
255	255	255	
255	255	255	
255	255	255	
255	255	255	
255	255	255	
255	255	255	
255	255	255	
255	255	255	
255	255	255	
125	125	125	
255	255	255	
255	255	255	
255	255	255	
255	255	255	
255	255	255	
255	255	255	
255	255	255	
255	255	255	
255	255	255	
255	255	255	
255	255	255	
255	255	255	
255	255	255	
255	255	255	
255	255	255	
255	255	255	
255	255	255	
255	255	255	
255	255	255	
255	255	255	
255	255	255	
255	255	255	
255	255	255	
255	255	255	
255	255	255	
255	255	255	
255	255	255	
255	255	255	
255	255	255	
255	255	255	
255	255	255	
255	255	255	
255	255	255	
255	255	255	
255	255	255	
255	255	255	
255	255	255	
255	255	255	
255	255	255	
255	255	255	
255	255	255	
255	255	255	
255	255	255	
255	255	255	
255	255	255	
255	255	255	
255	255	255	
255	255	255	
255	255	255	
255	255	255	
255	255	255	
255	255	255	
255	255	255	
255	255	255	
255	255	255	
255	255	255	
255	255	255	
255	255	255	
255	255	255	
255	255	255	
255	255	255	
255	255	255	
255	255	255	
255	255	255	
255	255	255	
255	255	255	
255	255	255	
255	255	255	
255	255	255	
255	255	255	
255	255	255	
255	255	255	
255	255	255	
255	255	255	
255	255	255	
255	255	255	
255	255	255	
255	255	255	
255	255	255	
255	255	255	
255	255	255	
255	255	255	
255	255	255	
255	255	255	
255	255	255	
255	255	255	
255	255	255	
255	255	255	
255	255	255	
255	255	255	
255	255	255	
255	255	255	
255	255	255	
255	255	255	
255	255	255	
255	255	255	
255	255	255	
255	255	255	
255	255	255	
255	255	255	
255	255	255	
255	255	255	
255	255	255	
255	255	255	
255	255	255	
255	255	255	
255	255	255	
255	255	255	
255	255	255	
255	255	255	
255	255	255	
255	255	255	
255	255	255	
255	255	255	
255	255	255	
255	255	255	
255	255	255	
255	255	255	
255	255	255	
255	255	255	
255	255	255	
255	255	255	
255	255	255	
255	255	255	
255	255	255	
255	255	255	
255	255	255	
255	255	255	
255	255	255	
255	255	255	
255	255	255	
255	255	255	
255	255	255	
255	255	255	
255	255	255	
255	255	255	
255	255	255	
255	255	255	
255	255	255	
255	255	255	
255	255	255	
255	255	255	
255	255	255	
255	255	255	
255	255	255	
255	255	255	
255	255	255	
255	255	255	
255	255	255	
255	255	255	
255	255	255	
255	255	255	
255	255	255	
255	255	255	
255	255	255	
255	255	255	
255	255	255	
255	255	255	
255	255	255	
255	255	255	
255	255	255	
255	255	255	
255	255	255	
255	255	255	
255	255	255	
255	255	255	
255	255	255	
255	255	255	
255	255	255	
255	255	255	
255	255	255	
255	255	255	
255	255	255	
255	255	255	
255	255	255	
255	255	255	
255	255	255	
255	255	255	
255	255	255	
255	255	255	
255	255	255	
255	255	255	
255	255	255	
255	255	255	
255	255	255	
255	255	255	
255	255	255	
255	255	255	
255	255	255	
255	255	255	
255	255	255	
255	255	255	
255	255	255	
255	255	255	
255	255	255	
255	255	255	
255	255	255	
255	255	255	
255	255	255	
255	255	255	
255	255	255	
255	255	255	
255	255	255	
255	255	255	
255	255	255	
255	255	255	
255	255	255	
255	255	255	
255	255	255	
255	255	255	
255	255	255	
255	255	255	
255	255	255	
255	255	255	
255	255	255	
255	255	255	
255	255	255	
255	255	255	
255	255	255	
255	255	255	
255	255	255	
255	255	255	
255	255	255	
255	255	255	
255	255	255	
255	255	255	
255	255	255	
255	255	255	
255	255	255	
255	255	255	
255	255	255	
255	255	255	
255	255	255	
255	255	255	
255	255	255	
255	255	255	
255	255	255	
255	255	255	
255	255	255	
255	255	255	
255	255	255	
255	255	255	
255	255	255	
255	255	255	
255	255	255	
255	255	255	
255	255	255	
255	255	255	
255	255	255	
255	255	255	
255	255	255	
255	255	255	
255	255	255	
255	255	255	
255	255	255	
125	125	125	
255	255	255	
255	255	255	
255	255	255	
255	255	255	
255	255	255	
255	255	255	
255	255	255	
255	255	255	
255	255	255	
255	255	255	
255	255	255	
255	255	255	
255	255	255	
255	255	255	
255	255	255	
255	255	255	
255	255	255	
255	255	255	
255	255	255	
255	255	255	
255	255	255	
255	255	255	
255	255	255	
255	255	255	
255	255	255	
255	255	255	
255	255	255	
255	255	255	
255	255	255	
255	255	255	
255	255	255	
255	255	255	
255	255	255	
255	255	255	
255	255	255	
255	255	255	
255	255	255	
255	255	255	
255	255	255	
255	255	255	
255	255	255	
255	255	255	
255	255	255	
255	255	255	
255	255	255	
255	255	255	
255	255	255	
255	255	255	
255	255	255	
255	255	255	
255	255	255	
255	255	255	
255	255	255	
255	255	255	
255	255	255	
255	255	255	
255	255	255	
255	255	255	
255	255	255	
255	255	255	
255	255	255	
255	255	255	
255	255	255	
255	255	255	
255	255	255	
255	255	255	
255	255	255	
255	255	255	
255	255	255	
255	255	255	
255	255	255	
255	255	255	
255	255	255	
255	255	255	
255	255	255	
255	255	255	
255	255	255	
255	255	255	
255	255	255	
255	255	255	
255	255	255	
255	255	255	
255	255	255	
255	255	255	
255	255	255	
255	255	255	
255	255	255	
255	255	255	
255	255	255	
255	255	255	
255	255	255	
255	255	255	
255	255	255	
255	255	255	
255	255	255	
255	255	255	
255	255	255	
255	255	255	
255	255	255	
255	255	255	
255	255	255	
255	255	255	
255	255	255	
255	255	255	
255	255	255	
255	255	255	
255	255	255	
255	255	255	
255	255	255	
255	255	255	
255	255	255	
255	255	255	
255	255	255	
255	255	255	
255	255	255	
255	255	255	
255	255	255	
255	255	255	
255	255	255	
255	255	255	
255	255	255	
255	255	255	
255	255	255	
255	255	255	
255	255	255	
255	255	255	
255	255	255	
255	255	255	
255	255	255	
255	255	255	
255	255	255	
255	255	255	
255	255	255	
255	255	255	
255	255	255	
255	255	255	
255	255	255	
255	255	255	
255	255	255	
255	255	255	
255	255	255	
255	255	255	
255	255	255	
255	255	255	
255	255	255	
255	255	255	
255	255	255	
255	255	255	
255	255	255	
255	255	255	
255	255	255	
255	255	255	
255	255	255	
255	255	255	
255	255	255	
255	255	255	
255	255	255	
255	255	255	
255	255	255	
255	255	255	
255	255	255	
255	255	255	
255	255	255	
255	255	255	
255	255	255	
255	255	255	
255	255	255	
255	255	255	
255	255	255	
255	255	255	
255	255	255	
255	255	255	
255	255	255	
255	255	255	
255	255	255	
255	255	255	
255	255	255	
255	255	255	
255	255	255	
255	255	255	
255	255	255	
255	255	255	
255	255	255	
255	255	255	
255	255	255	
255	255	255	
255	255	255	
255	255	255	
255	255	255	
255	255	255	
255	255	255	
255	255	255	
255	255	255	
255	255	255	
255	255	255	
255	255	255	
255	255	255	
255	255	255	
255	255	255	
255	255	255	
255	255	255	
255	255	255	
255	255	255	
255	255	255	
255	255	255	
255	255	255	
255	255	255	
255	255	255	
255	255	255	
255	255	255	
255	255	255	
255	255	255	
255	255	255	
255	255	255	
255	255	255	
255	255	255	
255	255	255	
255	255	255	
255	255	255	
255	255	255	
255	255	255	
255	255	255	
255	255	255	
255	255	255	
255	255	255	
255	255	255	
255	255	255	
255	255	255	
255	255	255	
255	255	255	
255	255	255	
255	255	255	
255	255	255	
255	255	255	
255	255	255	
255	255	255	
255	255	255	
255	255	255	
255	255	255	
255	255	255	
255	255	255	
255	255	255	
255	255	255	
255	255	255	
255	255	255	
255	255	255	
255	255	255	
255	255	255	
255	255	255	
255	255	255	
255	255	255	
255	255	255	
255	255	255	
255	255	255	
255	255	255	
125	125	125	
255	255	255	
255	255	255	
255	255	255	
255	255	255	
255	255	255	
255	255	255	
255	255	255	
255	255	255	
255	255	255	
255	255	255	
255	255	255	
255	255	255	
255	255	255	
255	255	255	
255	255	255	
255	255	255	
255	255	255	
255	255	255	
255	255	255	
255	255	255	
255	255	255	
255	255	255	
255	255	255	
255	255	255	
255	255	255	
255	255	255	
255	255	255	
255	255	255	
255	255	255	
255	255	255	
255	255	255	
255	255	255	
255	255	255	
255	255	255	
255	255	255	
255	255	255	
255	255	255	
255	255	255	
255	255	255	
255	255	255	
255	255	255	
255	255	255	
255	255	255	
255	255	255	
255	255	255	
255	255	255	
255	255	255	
255	255	255	
255	255	255	
255	255	255	
255	255	255	
255	255	255	
255	255	255	
255	255	255	
255	255	255	
255	255	255	
255	255	255	
255	255	255	
255	255	255	
255	255	255	
255	255	255	
255	255	255	
255	255	255	
255	255	255	
255	255	255	
255	255	255	
255	255	255	
255	255	255	
255	255	255	
255	255	255	
255	255	255	
255	255	255	
255	255	255	
255	255	255	
255	255	255	
255	255	255	
255	255	255	
255	255	255	
255	255	255	
255	255	255	
255	255	255	
255	255	255	
255	255	255	
255	255	255	
255	255	255	
255	255	255	
255	255	255	
255	255	255	
255	255	255	
255	255	255	
255	255	255	
255	255	255	
255	255	255	
255	255	255	
255	255	255	
255	255	255	
255	255	255	
255	255	255	
255	255	255	
255	255	255	
255	255	255	
255	255	255	
255	255	255	
255	255	255	
255	255	255	
255	255	255	
255	255	255	
255	255	255	
255	255	255	
255	255	255	
255	255	255	
255	255	255	
255	255	255	
255	255	255	
255	255	255	
255	255	255	
255	255	255	
255	255	255	
255	255	255	
255	255	255	
255	255	255	
255	255	255	
255	255	255	
255	255	255	
255	255	255	
255	255	255	
255	255	255	
255	255	255	
255	255	255	
255	255	255	
255	255	255	
255	255	255	
255	255	255	
255	255	255	
255	255	255	
255	255	255	
255	255	255	
255	255	255	
255	255	255	
255	255	255	
255	255	255	
255	255	255	
255	255	255	
255	255	255	
255	255	255	
255	255	255	
255	255	255	
255	255	255	
255	255	255	
255	255	255	
255	255	255	
255	255	255	
255	255	255	
255	255	255	
255	255	255	
255	255	255	
255	255	255	
255	255	255	
255	255	255	
255	255	255	
255	255	255	
255	255	255	
255	255	255	
255	255	255	
255	255	255	
255	255	255	
255	255	255	
255	255	255	
255	255	255	
255	255	255	
255	255	255	
255	255	255	
255	255	255	
255	255	255	
255	255	255	
255	255	255	
255	255	255	
255	255	255	
255	255	255	
255	255	255	
255	255	255	
255	255	255	
255	255	255	
255	255	255	
255	255	255	
255	255	255	
255	255	255	
255	255	255	
255	255	255	
255	255	255	
255	255	255	
255	255	255	
255	255	255	
255	255	255	
255	255	255	
255	255	255	
255	255	255	
255	255	255	
255	255	255	
255	255	255	
255	255	255	
255	255	255	
255	255	255	
255	255	255	
255	255	255	
255	255	255	
255	255	255	
255	255	255	
255	255	255	
255	255	255	
255	255	255	
255	255	255	
255	255	255	
255	255	255	
255	255	255	
255	255	255	
255	255	255	
255	255	255	
255	255	255	
255	255	255	
255	255	255	
255	255	255	
255	255	255	
255	255	255	
255	255	255	
255	255	255	
255	255	255	
255	255	255	
255	255	255	
255	255	255	
255	255	255	
255	255	255	
255	255	255	
255	255	255	
255	255	255	
255	255	255	
255	255	255	
255	255	255	
255	255	255	
255	255	255	
255	255	255	
255	255	255	
255	255	255	
255	255	255	
255	255	255	
255	255	255	
255	255	255	
255	255	255	
255	255	255	
255	255	255	
255	255	255	
255	255	255	
255	255	255	
255	255	255	
255	255	255	
125	125	125	
255	255	255	
255	255	255	
255	255	255	
255	255	255	
255	255	255	
255	255	255	
255	255	255	
255	255	255	
255	255	255	
255	255	255	
255	255	255	
255	255	255	
255	255	255	
255	255	255	
255	255	255	
255	255	255	
255	255	255	
255	255	255	
255	255	255	
255	255	255	
255	255	255	
255	255	255	
255	255	255	
255	255	255	
255	255	255	
255	255	255	
255	255	255	
255	255	255	
255	255	255	
255	255	255	
255	255	255	
255	255	255	
255	255	255	
255	255	255	
255	255	255	
255	255	255	
255	255	255	
255	255	255	
255	255	255	
255	255	255	
255	255	255	
255	255	255	
255	255	255	
255	255	255	
255	255	255	
255	255	255	
255	255	255	
255	255	255	
255	255	255	
255	255	255	
255	255	255	
255	255	255	
255	255	255	
255	255	255	
255	255	255	
255	255	255	
255	255	255	
255	255	255	
255	255	255	
255	255	255	
255	255	255	
255	255	255	
255	255	255	
255	255	255	
255	255	255	
255	255	255	
255	255	255	
255	255	255	
255	255	255	
255	255	255	
255	255	255	
255	255	255	
255	255	255	
255	255	255	
255	255	255	
255	255	255	
255	255	255	
255	255	255	
255	255	255	
255	255	255	
255	255	255	
255	255	255	
255	255	255	
255	255	255	
255	255	255	
255	255	255	
255	255	255	
255	255	255	
255	255	255	
255	255	255	
255	255	255	
255	255	255	
255	255	255	
255	255	255	
255	255	255	
255	255	255	
255	255	255	
255	255	255	
255	255	255	
255	255	255	
255	255	255	
255	255	255	
255	255	255	
255	255	255	
255	255	255	
255	255	255	
255	255	255	
255	255	255	
255	255	255	
255	255	255	
255	255	255	
255	255	255	
255	255	255	
255	255	255	
255	255	255	
255	255	255	
255	255	255	
255	255	255	
255	255	255	
255	255	255	
255	255	255	
255	255	255	
255	255	255	
255	255	255	
255	255	255	
255	255	255	
255	255	255	
255	255	255	
255	255	255	
255	255	255	
255	255	255	
255	255	255	
255	255	255	
255	255	255	
255	255	255	
255	255	255	
255	255	255	
255	255	255	
255	255	255	
255	255	255	
255	255	255	
255	255	255	
255	255	255	
255	255	255	
255	255	255	
255	255	255	
255	255	255	
255	255	255	
255	255	255	
255	255	255	
255	255	255	
255	255	255	
255	255	255	
255	255	255	
255	255	255	
255	255	255	
255	255	255	
255	255	255	
255	255	255	
255	255	255	
255	255	255	
255	255	255	
255	255	255	
255	255	255	
255	255	255	
255	255	255	
255	255	255	
255	255	255	
255	255	255	
255	255	255	
255	255	255	
255	255	255	
255	255	255	
255	255	255	
255	255	255	
255	255	255	
255	255	255	
255	255	255	
255	255	255	
255	255	255	
255	255	255	
255	255	255	
255	255	255	
255	255	255	
255	255	255	
255	255	255	
255	255	255	
255	255	255	
255	255	255	
255	255	255	
255	255	255	
255	255	255	
255	255	255	
255	255	255	
255	255	255	
255	255	255	
255	255	255	
255	255	255	
255	255	255	
255	255	255	
255	255	255	
255	255	255	
255	255	255	
255	255	255	
255	255	255	
255	255	255	
255	255	255	
255	255	255	
255	255	255	
255	255	255	
255	255	255	
255	255	255	
255	255	255	
255	255	255	
255	255	255	
255	255	255	
255	255	255	
255	255	255	
255	255	255	
255	255	255	
255	255	255	
255	255	255	
255	255	255	
255	255	255	
255	255	255	
255	255	255	
255	255	255	
255	255	255	
255	255	255	
255	255	255	
255	255	255	
255	255	255	
255	255	255	
255	255	255	
255	255	255	
255	255	255	
255	255	255	
255	255	255	
255	255	255	
255	255	255	
255	255	255	
255	255	255	
255	255	255	
255	255	255	
255	255	255	
255	255	255	
255	255	255	
255	255	255	
255	255	255	
255	255	255	
255	255	255	
255	255	255	
255	255	255	
255	255	255	
255	255	255	
125	125	125	
255	255	255	
255	255	255	
255	255	255	
255	255	255	
255	255	255	
255	255	255	
255	255	255	
255	255	255	
255	255	255	
255	255	255	
255	255	255	
255	255	255	
255	255	255	
255	255	255	
255	255	255	
255	255	255	
255	255	255	
255	255	255	
255	255	255	
255	255	255	
255	255	255	
255	255	255	
255	255	255	
255	255	255	
255	255	255	
255	255	255	
255	255	255	
255	255	255	
255	255	255	
255	255	255	
255	255	255	
255	255	255	
255	255	255	
255	255	255	
255	255	255	
255	255	255	
255	255	255	
255	255	255	
255	255	255	
255	255	255	
255	255	255	
255	255	255	
255	255	255	
255	255	255	
255	255	255	
255	255	255	
255	255	255	
255	255	255	
255	255	255	
255	255	255	
255	255	255	
255	255	255	
255	255	255	
255	255	255	
255	255	255	
255	255	255	
255	255	255	
255	255	255	
255	255	255	
255	255	255	
255	255	255	
255	255	255	
255	255	255	
255	255	255	
255	255	255	
255	255	255	
255	255	255	
255	255	255	
255	255	255	
255	255	255	
255	255	255	
255	255	255	
255	255	255	
255	255	255	
255	255	255	
255	255	255	
255	255	255	
255	255	255	
255	255	255	
255	255	255	
255	255	255	
255	255	255	
255	255	255	
255	255	255	
255	255	255	
255	255	255	
255	255	255	
255	255	255	
255	255	255	
255	255	255	
255	255	255	
255	255	255	
255	255	255	
255	255	255	
255	255	255	
255	255	255	
255	255	255	
255	255	255	
255	255	255	
255	255	255	
255	255	255	
255	255	255	
255	255	255	
255	255	255	
255	255	255	
255	255	255	
255	255	255	
255	255	255	
255	255	255	
255	255	255	
255	255	255	
255	255	255	
255	255	255	
255	255	255	
255	255	255	
255	255	255	
255	255	255	
255	255	255	
255	255	255	
255	255	255	
255	255	255	
255	255	255	
255	255	255	
255	255	255	
255	255	255	
255	255	255	
255	255	255	
255	255	255	
255	255	255	
255	255	255	
255	255	255	
255	255	255	
255	255	255	
255	255	255	
255	255	255	
255	255	255	
255	255	255	
255	255	255	
255	255	255	
255	255	255	
255	255	255	
255	255	255	
255	255	255	
255	255	255	
255	255	255	
255	255	255	
255	255	255	
255	255	255	
255	255	255	
255	255	255	
255	255	255	
255	255	255	
255	255	255	
255	255	255	
255	255	255	
255	255	255	
255	255	255	
255	255	255	
255	255	255	
255	255	255	
255	255	255	
255	255	255	
255	255	255	
255	255	255	
255	255	255	
255	255	255	
255	255	255	
255	255	255	
255	255	255	
255	255	255	
255	255	255	
255	255	255	
255	255	255	
255	255	255	
255	255	255	
255	255	255	
255	255	255	
255	255	255	
255	255	255	
255	255	255	
255	255	255	
255	255	255	
255	255	255	
255	255	255	
255	255	255	
255	255	255	
255	255	255	
255	255	255	
255	255	255	
255	255	255	
255	255	255	
255	255	255	
255	255	255	
255	255	255	
255	255	255	
255	255	255	
255	255	255	
255	255	255	
255	255	255	
255	255	255	
255	255	255	
255	255	255	
255	255	255	
255	255	255	
255	255	255	
255	255	255	
255	255	255	
255	255	255	
255	255	255	
255	255	255	
255	255	255	
255	255	255	
255	255	255	
255	255	255	
255	255	255	
255	255	255	
255	255	255	
255	255	255	
255	255	255	
255	255	255	
255	255	255	
255	255	255	
255	255	255	
255	255	255	
255	255	255	
255	255	255	
255	255	255	
255	255	255	
255	255	255	
255	255	255	
255	255	255	
255	255	255	
255	255	255	
255	255	255	
255	255	255	
255	255	255	
255	255	255	
255	255	255	
255	255	255	
255	255	255	
255	255	255	
255	255	255	
255	255	255	
255	255	255	
255	255	255	
255	255	255	
255	255	255	
255	255	255	
255	255	255	
255	255	255	
255	255	255	
255	255	255	
255	255	255	
255	255	255	
255	255	255	
125	125	125	
255	255	255	
255	255	255	
255	255	255	
255	255	255	
255	255	255	
255	255	255	
255	255	255	
255	255	255	
255	255	255	
255	255	255	
255	255	255	
255	255	255	
255	255	255	
255	255	255	
255	255	255	
255	255	255	
255	255	255	
255	255	255	
255	255	255	
255	255	255	
255	255	255	
255	255	255	
255	255	255	
255	255	255	
255	255	255	
255	255	255	
255	255	255	
255	255	255	
255	255	255	
255	255	255	
255	255	255	
255	255	255	
255	255	255	
255	255	255	
255	255	255	
255	255	255	
255	255	255	
255	255	255	
255	255	255	
255	255	255	
255	255	255	
255	255	255	
255	255	255	
255	255	255	
255	255	255	
255	255	255	
255	255	255	
255	255	255	
255	255	255	
255	255	255	
255	255	255	
255	255	255	
255	255	255	
255	255	255	
255	255	255	
255	255	255	
255	255	255	
255	255	255	
255	255	255	
255	255	255	
255	255	255	
255	255	255	
255	255	255	
255	255	255	
255	255	255	
255	255	255	
255	255	255	
255	255	255	
255	255	255	
255	255	255	
255	255	255	
255	255	255	
255	255	255	
255	255	255	
255	255	255	
255	255	255	
255	255	255	
255	255	255	
255	255	255	
255	255	255	
255	255	255	
255	255	255	
255	255	255	
255	255	255	
255	255	255	
255	255	255	
255	255	255	
255	255	255	
255	255	255	
255	255	255	
255	255	255	
255	255	255	
255	255	255	
255	255	255	
255	255	255	
255	255	255	
255	255	255	
255	255	255	
255	255	255	
255	255	255	
255	255	255	
255	255	255	
255	255	255	
255	255	255	
255	255	255	
255	255	255	
255	255	255	
255	255	255	
255	255	255	
255	255	255	
255	255	255	
255	255	255	
255	255	255	
255	255	255	
255	255	255	
255	255	255	
255	255	255	
255	255	255	
255	255	255	
255	255	255	
255	255	255	
255	255	255	
255	255	255	
255	255	255	
255	255	255	
255	255	255	
255	255	255	
255	255	255	
255	255	255	
255	255	255	
255	255	255	
255	255	255	
255	255	255	
255	255	255	
255	255	255	
255	255	255	
255	255	255	
255	255	255	
255	255	255	
255	255	255	
255	255	255	
255	255	255	
255	255	255	
255	255	255	
255	255	255	
255	255	255	
255	255	255	
255	255	255	
255	255	255	
255	255	255	
255	255	255	
255	255	255	
255	255	255	
255	255	255	
255	255	255	
255	255	255	
255	255	255	
255	255	255	
255	255	255	
255	255	255	
255	255	255	
255	255	255	
255	255	255	
255	255	255	
255	255	255	
255	255	255	
255	255	255	
255	255	255	
255	255	255	
255	255	255	
255	255	255	
255	255	255	
255	255	255	
255	255	255	
255	255	255	
255	255	255	
255	255	255	
255	255	255	
255	255	255	
255	255	255	
255	255	255	
255	255	255	
255	255	255	
255	255	255	
255	255	255	
255	255	255	
255	255	255	
255	255	255	
255	255	255	
255	255	255	
255	255	255	
255	255	255	
255	255	255	
255	255	255	
255	255	255	
255	255	255	
255	255	255	
255	255	255	
255	255	255	
255	255	255	
255	255	255	
255	255	255	
255	255	255	
255	255	255	
255	255	255	
255	255	255	
255	255	255	
255	255	255	
255	255	255	
255	255	255	
255	255	255	
255	255	255	
255	255	255	
255	255	255	
255	255	255	
255	255	255	
255	255	255	
255	255	255	
255	255	255	
255	255	255	
255	255	255	
255	255	255	
255	255	255	
255	255	255	
255	255	255	
255	255	255	
255	255	255	
255	255	255	
255	255	255	
255	255	255	
255	255	255	
255	255	255	
255	255	255	
255	255	255	
255	255	255	
255	255	255	
255	255	255	
255	255	255	
255	255	255	
255	255	255	
255	255	255	
255	255	255	
255	255	255	
255	255	255	
255	255	255	
255	255	255	
255	255	255	
255	255	255	
255	255	255	
255	255	255	
255	255	255	
255	255	255	
255	255	255	
255	255	255	
255	255	255	
255	255	255	
125	125	125	
255	255	255	
255	255	255	
255	255	255	
255	255	255	
255	255	255	
255	255	255	
255	255	255	
255	255	255	
255	255	255	
255	255	255	
255	255	255	
255	255	255	
255	255	255	
255	255	255	
255	255	255	
255	255	255	
255	255	255	
255	255	255	
255	255	255	
255	255	255	
255	255	255	
255	255	255	
255	255	255	
255	255	255	
255	255	255	
255	255	255	
255	255	255	
255	255	255	
255	255	255	
255	255	255	
255	255	255	
255	255	255	
255	255	255	
255	255	255	
255	255	255	
255	255	255	
255	255	255	
255	255	255	
255	255	255	
255	255	255	
255	255	255	
255	255	255	
255	255	255	
255	255	255	
255	255	255	
255	255	255	
255	255	255	
255	255	255	
255	255	255	
255	255	255	
255	255	255	
255	255	255	
255	255	255	
255	255	255	
255	255	255	
255	255	255	
255	255	255	
255	255	255	
255	255	255	
255	255	255	
255	255	255	
255	255	255	
255	255	255	
255	255	255	
255	255	255	
255	255	255	
255	255	255	
255	255	255	
255	255	255	
255	255	255	
255	255	255	
255	255	255	
255	255	255	
255	255	255	
255	255	255	
255	255	255	
255	255	255	
255	255	255	
255	255	255	
255	255	255	
255	255	255	
255	255	255	
255	255	255	
255	255	255	
255	255	255	
255	255	255	
255	255	255	
255	255	255	
255	255	255	
255	255	255	
255	255	255	
255	255	255	
255	255	255	
255	255	255	
255	255	255	
255	255	255	
255	255	255	
255	255	255	
255	255	255	
255	255	255	
255	255	255	
255	255	255	
255	255	255	
255	255	255	
255	255	255	
255	255	255	
255	255	255	
255	255	255	
255	255	255	
255	255	255	
255	255	255	
255	255	255	
255	255	255	
255	255	255	
255	255	255	
255	255	255	
255	255	255	
255	255	255	
255	255	255	
255	255	255	
255	255	255	
255	255	255	
255	255	255	
255	255	255	
255	255	255	
255	255	255	
255	255	255	
255	255	255	
255	255	255	
255	255	255	
255	255	255	
255	255	255	
255	255	255	
255	255	255	
255	255	255	
255	255	255	
255	255	255	
255	255	255	
255	255	255	
255	255	255	
255	255	255	
255	255	255	
255	255	255	
255	255	255	
255	255	255	
255	255	255	
255	255	255	
255	255	255	
255	255	255	
255	255	255	
255	255	255	
255	255	255	
255	255	255	
255	255	255	
255	255	255	
255	255	255	
255	255	255	
255	255	255	
255	255	255	
255	255	255	
255	255	255	
255	255	255	
255	255	255	
255	255	255	
255	255	255	
255	255	255	
255	255	255	
255	255	255	
255	255	255	
255	255	255	
255	255	255	
255	255	255	
255	255	255	
255	255	255	
255	255	255	
255	255	255	
255	255	255	
255	255	255	
255	255	255	
255	255	255	
255	255	255	
255	255	255	
255	255	255	
255	255	255	
255	255	255	
255	255	255	
255	255	255	
255	255	255	
255	255	255	
255	255	255	
255	255	255	
255	255	255	
255	255	255	
255	255	255	
255	255	255	
255	255	255	
255	255	255	
255	255	255	
255	255	255	
255	255	255	
255	255	255	
255	255	255	
255	255	255	
255	255	255	
255	255	255	
255	255	255	
255	255	255	
255	255	255	
255	255	255	
255	255	255	
255	255	255	
255	255	255	
255	255	255	
255	255	255	
255	255	255	
255	255	255	
255	255	255	
255	255	255	
255	255	255	
255	255	255	
255	255	255	
255	255	255	
255	255	255	
255	255	255	
255	255	255	
255	255	255	
255	255	255	
255	255	255	
255	255	255	
255	255	255	
255	255	255	
255	255	255	
255	255	255	
255	255	255	
255	255	255	
255	255	255	
255	255	255	
255	255	255	
255	255	255	
255	255	255	
255	255	255	
255	255	255	
255	255	255	
255	255	255	
255	255	255	
255	255	255	
255	255	255	
255	255	255	
255	255	255	
255	255	255	
255	255	255	
255	255	255	
255	255	255	
255	255	255	
255	255	255	
125	125	125	
255	255	255	
255	255	255	
255	255	255	
255	255	255	
255	255	255	
255	255	255	
255	255	255	
255	255	255	
255	255	255	
255	255	255	
255	255	255	
255	255	255	
255	255	255	
255	255	255	
255	255	255	
255	255	255	
255	255	255	
255	255	255	
255	255	255	
255	255	255	
255	255	255	
255	255	255	
255	255	255	
255	255	255	
255	255	255	
255	255	255	
255	255	255	
255	255	255	
255	255	255	
255	255	255	
255	255	255	
255	255	255	
255	255	255	
255	255	255	
255	255	255	
255	255	255	
255	255	255	
255	255	255	
255	255	255	
255	255	255	
255	255	255	
255	255	255	
255	255	255	
255	255	255	
255	255	255	
255	255	255	
255	255	255	
255	255	255	
255	255	255	
255	255	255	
255	255	255	
255	255	255	
255	255	255	
255	255	255	
255	255	255	
255	255	255	
255	255	255	
255	255	255	
255	255	255	
255	255	255	
255	255	255	
255	255	255	
255	255	255	
255	255	255	
255	255	255	
255	255	255	
255	255	255	
255	255	255	
255	255	255	
255	255	255	
255	255	255	
255	255	255	
255	255	255	
255	255	255	
255	255	255	
255	255	255	
255	255	255	
255	255	255	
255	255	255	
255	255	255	
255	255	255	
255	255	255	
255	255	255	
255	255	255	
255	255	255	
255	255	255	
255	255	255	
255	255	255	
255	255	255	
255	255	255	
255	255	255	
255	255	255	
255	255	255	
255	255	255	
255	255	255	
255	255	255	
255	255	255	
255	255	255	
255	255	255	
255	255	255	
255	255	255	
255	255	255	
255	255	255	
255	255	255	
255	255	255	
255	255	255	
255	255	255	
255	255	255	
255	255	255	
255	255	255	
255	255	255	
255	255	255	
255	255	255	
255	255	255	
255	255	255	
255	255	255	
255	255	255	
255	255	255	
255	255	255	
255	255	255	
255	255	255	
255	255	255	
255	255	255	
255	255	255	
255	255	255	
255	255	255	
255	255	255	
255	255	255	
255	255	255	
255	255	255	
255	255	255	
255	255	255	
255	255	255	
255	255	255	
255	255	255	
255	255	255	
255	255	255	
255	255	255	
255	255	255	
255	255	255	
255	255	255	
255	255	255	
255	255	255	
255	255	255	
255	255	255	
255	255	255	
255	255	255	
255	255	255	
255	255	255	
255	255	255	
255	255	255	
255	255	255	
255	255	255	
255	255	255	
255	255	255	
255	255	255	
255	255	255	
255	255	255	
255	255	255	
255	255	255	
255	255	255	
255	255	255	
255	255	255	
255	255	255	
255	255	255	
255	255	255	
255	255	255	
255	255	255	
255	255	255	
255	255	255	
255	255	255	
255	255	255	
255	255	255	
255	255	255	
255	255	255	
255	255	255	
255	255	255	
255	255	255	
255	255	255	
255	255	255	
255	255	255	
255	255	255	
255	255	255	
255	255	255	
255	255	255	
255	255	255	
255	255	255	
255	255	255	
255	255	255	
255	255	255	
255	255	255	
255	255	255	
255	255	255	
255	255	255	
255	255	255	
255	255	255	
255	255	255	
255	255	255	
255	255	255	
255	255	255	
255	255	255	
255	255	255	
255	255	255	
255	255	255	
255	255	255	
255	255	255	
255	255	255	
255	255	255	
255	255	255	
255	255	255	
255	255	255	
255	255	255	
255	255	255	
255	255	255	
255	255	255	
255	255	255	
255	255	255	
255	255	255	
255	255	255	
255	255	255	
255	255	255	
255	255	255	
255	255	255	
255	255	255	
255	255	255	
255	255	255	
255	255	255	
255	255	255	
255	255	255	
255	255	255	
255	255	255	
255	255	255	
255	255	255	
255	255	255	
255	255	255	
255	255	255	
255	255	255	
255	255	255	
255	255	255	
255	255	255	
255	255	255	
255	255	255	
255	255	255	
255	255	255	
255	255	255	
255	255	255	
255	255	255	
255	255	255	
255	255	255	
255	255	255	
255	255	255	
255	255	255	
255	255	255	
255	255	255	
255	255	255	
125	125	125	
255	255	255	
255	255	255	
255	255	255	
255	255	255	
255	255	255	
255	255	255	
255	255	255	
255	255	255	
255	255	255	
255	255	255	
255	255	255	
255	255	255	
255	255	255	
255	255	255	
255	255	255	
255	255	255	
255	255	255	
255	255	255	
255	255	255	
255	255	255	
255	255	255	
255	255	255	
255	255	255	
255	255	255	
255	255	255	
255	255	255	
255	255	255	
255	255	255	
255	255	255	
255	255	255	
255	255	255	
255	255	255	
255	255	255	
255	255	255	
255	255	255	
255	255	255	
255	255	255	
255	255	255	
255	255	255	
255	255	255	
255	255	255	
255	255	255	
255	255	255	
255	255	255	
255	255	255	
255	255	255	
255	255	255	
255	255	255	
255	255	255	
255	255	255	
255	255	255	
255	255	255	
255	255	255	
255	255	255	
255	255	255	
255	255	255	
255	255	255	
255	255	255	
255	255	255	
255	255	255	
255	255	255	
255	255	255	
255	255	255	
255	255	255	
255	255	255	
255	255	255	
255	255	255	
255	255	255	
255	255	255	
255	255	255	
255	255	255	
255	255	255	
255	255	255	
255	255	255	
255	255	255	
255	255	255	
255	255	255	
255	255	255	
255	255	255	
255	255	255	
255	255	255	
255	255	255	
255	255	255	
255	255	255	
255	255	255	
255	255	255	
255	255	255	
255	255	255	
255	255	255	
255	255	255	
255	255	255	
255	255	255	
255	255	255	
255	255	255	
255	255	255	
255	255	255	
255	255	255	
255	255	255	
255	255	255	
255	255	255	
255	255	255	
255	255	255	
255	255	255	
255	255	255	
255	255	255	
255	255	255	
255	255	255	
255	255	255	
255	255	255	
255	255	255	
255	255	255	
255	255	255	
255	255	255	
255	255	255	
255	255	255	
255	255	255	
255	255	255	
255	255	255	
255	255	255	
255	255	255	
255	255	255	
255	255	255	
255	255	255	
255	255	255	
255	255	255	
255	255	255	
255	255	255	
255	255	255	
255	255	255	
255	255	255	
255	255	255	
255	255	255	
255	255	255	
255	255	255	
255	255	255	
255	255	255	
255	255	255	
255	255	255	
255	255	255	
255	255	255	
255	255	255	
255	255	255	
255	255	255	
255	255	255	
255	255	255	
255	255	255	
255	255	255	
255	255	255	
255	255	255	
255	255	255	
255	255	255	
255	255	255	
255	255	255	
255	255	255	
255	255	255	
255	255	255	
255	255	255	
255	255	255	
255	255	255	
255	255	255	
255	255	255	
255	255	255	
255	255	255	
255	255	255	
255	255	255	
255	255	255	
255	255	255	
255	255	255	
255	255	255	
255	255	255	
255	255	255	
255	255	255	
255	255	255	
255	255	255	
255	255	255	
255	255	255	
255	255	255	
255	255	255	
255	255	255	
255	255	255	
255	255	255	
255	255	255	
255	255	255	
255	255	255	
255	255	255	
255	255	255	
255	255	255	
255	255	255	
255	255	255	
255	255	255	
255	255	255	
255	255	255	
255	255	255	
255	255	255	
255	255	255	
255	255	255	
255	255	255	
255	255	255	
255	255	255	
255	255	255	
255	255	255	
255	255	255	
255	255	255	
255	255	255	
255	255	255	
255	255	255	
255	255	255	
255	255	255	
255	255	255	
255	255	255	
255	255	255	
255	255	255	
255	255	255	
255	255	255	
255	255	255	
255	255	255	
255	255	255	
255	255	255	
255	255	255	
255	255	255	
255	255	255	
255	255	255	
255	255	255	
255	255	255	
255	255	255	
255	255	255	
255	255	255	
255	255	255	
255	255	255	
255	255	255	
255	255	255	
255	255	255	
255	255	255	
255	255	255	
255	255	255	
255	255	255	
255	255	255	
255	255	255	
255	255	255	
255	255	255	
255	255	255	
255	255	255	
255	255	255	
255	255	255	
255	255	255	
255	255	255	
255	255	255	
255	255	255	
255	255	255	
255	255	255	
255	255	255	
255	255	255	
255	255	255	
255	255	255	
255	255	255	
125	125	125	
255	255	255	
255	255	255	
255	255	255	
255	255	255	
255	255	255	
255	255	255	
255	255	255	
255	255	255	
255	255	255	
255	255	255	
255	255	255	
255	255	255	
255	255	255	
255	255	255	
255	255	255	
255	255	255	
255	255	255	
255	255	255	
255	255	255	
255	255	255	
255	255	255	
255	255	255	
255	255	255	
255	255	255	
255	255	255	
255	255	255	
255	255	255	
255	255	255	
255	255	255	
255	255	255	
255	255	255	
255	255	255	
255	255	255	
255	255	255	
255	255	255	
255	255	255	
255	255	255	
255	255	255	
255	255	255	
255	255	255	
255	255	255	
255	255	255	
255	255	255	
255	255	255	
255	255	255	
255	255	255	
255	255	255	
255	255	255	
255	255	255	
255	255	255	
255	255	255	
255	255	255	
255	255	255	
255	255	255	
255	255	255	
255	255	255	
255	255	255	
255	255	255	
255	255	255	
255	255	255	
255	255	255	
255	255	255	
255	255	255	
255	255	255	
255	255	255	
255	255	255	
255	255	255	
255	255	255	
255	255	255	
255	255	255	
255	255	255	
255	255	255	
255	255	255	
255	255	255	
255	255	255	
255	255	255	
255	255	255	
255	255	255	
255	255	255	
255	255	255	
255	255	255	
255	255	255	
255	255	255	
255	255	255	
255	255	255	
255	255	255	
255	255	255	
255	255	255	
255	255	255	
255	255	255	
255	255	255	
255	255	255	
255	255	255	
255	255	255	
255	255	255	
255	255	255	
255	255	255	
255	255	255	
255	255	255	
255	255	255	
255	255	255	
255	255	255	
255	255	255	
255	255	255	
255	255	255	
255	255	255	
255	255	255	
255	255	255	
255	255	255	
255	255	255	
255	255	255	
255	255	255	
255	255	255	
255	255	255	
255	255	255	
255	255	255	
255	255	255	
255	255	255	
255	255	255	
255	255	255	
255	255	255	
255	255	255	
255	255	255	
255	255	255	
255	255	255	
255	255	255	
255	255	255	
255	255	255	
255	255	255	
255	255	255	
255	255	255	
255	255	255	
255	255	255	
255	255	255	
255	255	255	
255	255	255	
255	255	255	
255	255	255	
255	255	255	
255	255	255	
255	255	255	
255	255	255	
255	255	255	
255	255	255	
255	255	255	
255	255	255	
255	255	255	
255	255	255	
255	255	255	
255	255	255	
255	255	255	
255	255	255	
255	255	255	
255	255	255	
255	255	255	
255	255	255	
255	255	255	
255	255	255	
255	255	255	
255	255	255	
255	255	255	
255	255	255	
255	255	255	
255	255	255	
255	255	255	
255	255	255	
255	255	255	
255	255	255	
255	255	255	
255	255	255	
255	255	255	
255	255	255	
255	255	255	
255	255	255	
255	255	255	
255	255	255	
255	255	255	
255	255	255	
255	255	255	
255	255	255	
255	255	255	
255	255	255	
255	255	255	
255	255	255	
255	255	255	
255	255	255	
255	255	255	
255	255	255	
255	255	255	
255	255	255	
255	255	255	
255	255	255	
255	255	255	
255	255	255	
255	255	255	
255	255	255	
255	255	255	
255	255	255	
255	255	255	
255	255	255	
255	255	255	
255	255	255	
255	255	255	
255	255	255	
255	255	255	
255	255	255	
255	255	255	
255	255	255	
255	255	255	
255	255	255	
255	255	255	
255	255	255	
255	255	255	
255	255	255	
255	255	255	
255	255	255	
255	255	255	
255	255	255	
255	255	255	
255	255	255	
255	255	255	
255	255	255	
255	255	255	
255	255	255	
255	255	255	
255	255	255	
255	255	255	
255	255	255	
255	255	255	
255	255	255	
255	255	255	
255	255	255	
255	255	255	
255	255	255	
255	255	255	
255	255	255	
255	255	255	
255	255	255	
255	255	255	
255	255	255	
255	255	255	
255	255	255	
255	255	255	
255	255	255	
255	255	255	
255	255	255	
255	255	255	
255	255	255	
255	255	255	
255	255	255	
255	255	255	
255	255	255	
255	255	255	
255	255	255	
255	255	255	
125	125	125	
255	255	255	
255	255	255	
255	255	255	
255	255	255	
255	255	255	
255	255	255	
255	255	255	
255	255	255	
255	255	255	
255	255	255	
255	255	255	
255	255	255	
255	255	255	
255	255	255	
255	255	255	
255	255	255	
255	255	255	
255	255	255	
255	255	255	
255	255	255	
255	255	255	
255	255	255	
255	255	255	
255	255	255	
255	255	255	
255	255	255	
255	255	255	
255	255	255	
255	255	255	
255	255	255	
255	255	255	
255	255	255	
255	255	255	
255	255	255	
255	255	255	
255	255	255	
255	255	255	
255	255	255	
255	255	255	
255	255	255	
255	255	255	
255	255	255	
255	255	255	
255	255	255	
255	255	255	
255	255	255	
255	255	255	
255	255	255	
255	255	255	
255	255	255	
255	255	255	
255	255	255	
255	255	255	
255	255	255	
255	255	255	
255	255	255	
255	255	255	
255	255	255	
255	255	255	
255	255	255	
255	255	255	
255	255	255	
255	255	255	
255	255	255	
255	255	255	
255	255	255	
255	255	255	
255	255	255	
255	255	255	
255	255	255	
255	255	255	
255	255	255	
255	255	255	
255	255	255	
255	255	255	
255	255	255	
255	255	255	
255	255	255	
255	255	255	
255	255	255	
255	255	255	
255	255	255	
255	255	255	
255	255	255	
255	255	255	
255	255	255	
255	255	255	
255	255	255	
255	255	255	
255	255	255	
255	255	255	
255	255	255	
255	255	255	
255	255	255	
255	255	255	
255	255	255	
255	255	255	
255	255	255	
255	255	255	
255	255	255	
255	255	255	
255	255	255	
255	255	255	
255	255	255	
255	255	255	
255	255	255	
255	255	255	
255	255	255	
255	255	255	
255	255	255	
255	255	255	
255	255	255	
255	255	255	
255	255	255	
255	255	255	
255	255	255	
255	255	255	
255	255	255	
255	255	255	
255	255	255	
255	255	255	
255	255	255	
255	255	255	
255	255	255	
255	255	255	
255	255	255	
255	255	255	
255	255	255	
255	255	255	
255	255	255	
255	255	255	
255	255	255	
255	255	255	
255	255	255	
255	255	255	
255	255	255	
255	255	255	
255	255	255	
255	255	255	
255	255	255	
255	255	255	
255	255	255	
255	255	255	
255	255	255	
255	255	255	
255	255	255	
255	255	255	
255	255	255	
255	255	255	
255	255	255	
255	255	255	
255	255	255	
255	255	255	
255	255	255	
255	255	255	
255	255	255	
255	255	255	
255	255	255	
255	255	255	
255	255	255	
255	255	255	
255	255	255	
255	255	255	
255	255	255	
255	255	255	
255	255	255	
255	255	255	
255	255	255	
255	255	255	
255	255	255	
255	255	255	
255	255	255	
255	255	255	
255	255	255	
255	255	255	
255	255	255	
255	255	255	
255	255	255	
255	255	255	
255	255	255	
255	255	255	
255	255	255	
255	255	255	
255	255	255	
255	255	255	
255	255	255	
255	255	255	
255	255	255	
255	255	255	
255	255	255	
255	255	255	
255	255	255	
255	255	255	
255	255	255	
255	255	255	
255	255	255	
255	255	255	
255	255	255	
255	255	255	
255	255	255	
255	255	255	
255	255	255	
255	255	255	
255	255	255	
255	255	255	
255	255	255	
255	255	255	
255	255	255	
255	255	255	
255	255	255	
255	255	255	
255	255	255	
255	255	255	
255	255	255	
255	255	255	
255	255	255	
255	255	255	
255	255	255	
255	255	255	
255	255	255	
255	255	255	
255	255	255	
255	255	255	
255	255	255	
255	255	255	
255	255	255	
255	255	255	
255	255	255	
255	255	255	
255	255	255	
255	255	255	
255	255	255	
255	255	255	
255	255	255	
255	255	255	
255	255	255	
255	255	255	
255	255	255	
255	255	255	
255	255	255	
255	255	255	
255	255	255	
255	255	255	
255	255	255	
255	255	255	
255	255	255	
255	255	255	
255	255	255	
255	255	255	
255	255	255	
255	255	255	
255	255	255	
255	255	255	
255	255	255	
255	255	255	
125	125	125	
255	255	255	
255	255	255	
255	255	255	
255	255	255	
255	255	255	
255	255	255	
255	255	255	
255	255	255	
255	255	255	
255	255	255	
255	255	255	
255	255	255	
255	255	255	
255	255	255	
255	255	255	
255	255	255	
255	255	255	
255	255	255	
255	255	255	
255	255	255	
255	255	255	
255	255	255	
255	255	255	
255	255	255	
255	255	255	
255	255	255	
255	255	255	
255	255	255	
255	255	255	
255	255	255	
255	255	255	
255	255	255	
255	255	255	
255	255	255	
255	255	255	
255	255	255	
255	255	255	
255	255	255	
255	255	255	
255	255	255	
255	255	255	
255	255	255	
255	255	255	
255	255	255	
255	255	255	
255	255	255	
255	255	255	
255	255	255	
255	255	255	
255	255	255	
255	255	255	
255	255	255	
255	255	255	
255	255	255	
255	255	255	
255	255	255	
255	255	255	
255	255	255	
255	255	255	
255	255	255	
255	255	255	
255	255	255	
255	255	255	
255	255	255	
255	255	255	
255	255	255	
255	255	255	
255	255	255	
255	255	255	
255	255	255	
255	255	255	
255	255	255	
255	255	255	
255	255	255	
255	255	255	
255	255	255	
255	255	255	
255	255	255	
255	255	255	
255	255	255	
255	255	255	
255	255	255	
255	255	255	
255	255	255	
255	255	255	
255	255	255	
255	255	255	
255	255	255	
255	255	255	
255	255	255	
255	255	255	
255	255	255	
255	255	255	
255	255	255	
255	255	255	
255	255	255	
255	255	255	
255	255	255	
255	255	255	
255	255	255	
255	255	255	
255	255	255	
255	255	255	
255	255	255	
255	255	255	
255	255	255	
255	255	255	
255	255	255	
255	255	255	
255	255	255	
255	255	255	
255	255	255	
255	255	255	
255	255	255	
255	255	255	
255	255	255	
255	255	255	
255	255	255	
255	255	255	
255	255	255	
255	255	255	
255	255	255	
255	255	255	
255	255	255	
255	255	255	
255	255	255	
255	255	255	
255	255	255	
255	255	255	
255	255	255	
255	255	255	
255	255	255	
255	255	255	
255	255	255	
255	255	255	
255	255	255	
255	255	255	
255	255	255	
255	255	255	
255	255	255	
255	255	255	
255	255	255	
255	255	255	
255	255	255	
255	255	255	
255	255	255	
255	255	255	
255	255	255	
255	255	255	
255	255	255	
255	255	255	
255	255	255	
255	255	255	
255	255	255	
255	255	255	
255	255	255	
255	255	255	
255	255	255	
255	255	255	
255	255	255	
255	255	255	
255	255	255	
255	255	255	
255	255	255	
255	255	255	
255	255	255	
255	255	255	
255	255	255	
255	255	255	
255	255	255	
255	255	255	
255	255	255	
255	255	255	
255	255	255	
255	255	255	
255	255	255	
255	255	255	
255	255	255	
255	255	255	
255	255	255	
255	255	255	
255	255	255	
255	255	255	
255	255	255	
255	255	255	
255	255	255	
255	255	255	
255	255	255	
255	255	255	
255	255	255	
255	255	255	
255	255	255	
255	255	255	
255	255	255	
255	255	255	
255	255	255	
255	255	255	
255	255	255	
255	255	255	
255	255	255	
255	255	255	
255	255	255	
255	255	255	
255	255	255	
255	255	255	
255	255	255	
255	255	255	
255	255	255	
255	255	255	
255	255	255	
255	255	255	
255	255	255	
255	255	255	
255	255	255	
255	255	255	
255	255	255	
255	255	255	
255	255	255	
255	255	255	
255	255	255	
255	255	255	
255	255	255	
255	255	255	
255	255	255	
255	255	255	
255	255	255	
255	255	255	
255	255	255	
255	255	255	
255	255	255	
255	255	255	
255	255	255	
255	255	255	
255	255	255	
255	255	255	
255	255	255	
255	255	255	
255	255	255	
255	255	255	
255	255	255	
255	255	255	
255	255	255	
255	255	255	
255	255	255	
255	255	255	
255	255	255	
255	255	255	
255	255	255	
255	255	255	
255	255	255	
255	255	255	
255	255	255	
255	255	255	
255	255	255	
255	255	255	
125	125	125	
255	255	255	
255	255	255	
255	255	255	
255	255	255	
255	255	255	
255	255	255	
255	255	255	
255	255	255	
255	255	255	
255	255	255	
255	255	255	
255	255	255	
255	255	255	
255	255	255	
255	255	255	
255	255	255	
255	255	255	
255	255	255	
255	255	255	
255	255	255	
255	255	255	
255	255	255	
255	255	255	
255	255	255	
255	255	255	
255	255	255	
255	255	255	
255	255	255	
255	255	255	
255	255	255	
255	255	255	
255	255	255	
255	255	255	
255	255	255	
255	255	255	
255	255	255	
255	255	255	
255	255	255	
255	255	255	
255	255	255	
255	255	255	
255	255	255	
255	255	255	
255	255	255	
255	255	255	
255	255	255	
255	255	255	
255	255	255	
255	255	255	
255	255	255	
255	255	255	
255	255	255	
255	255	255	
255	255	255	
255	255	255	
255	255	255	
255	255	255	
255	255	255	
255	255	255	
255	255	255	
255	255	255	
255	255	255	
255	255	255	
255	255	255	
255	255	255	
255	255	255	
255	255	255	
255	255	255	
255	255	255	
255	255	255	
255	255	255	
255	255	255	
255	255	255	
255	255	255	
255	255	255	
255	255	255	
255	255	255	
255	255	255	
255	255	255	
255	255	255	
255	255	255	
255	255	255	
255	255	255	
255	255	255	
255	255	255	
255	255	255	
255	255	255	
255	255	255	
255	255	255	
255	255	255	
255	255	255	
255	255	255	
255	255	255	
255	255	255	
255	255	255	
255	255	255	
255	255	255	
255	255	255	
255	255	255	
255	255	255	
255	255	255	
255	255	255	
255	255	255	
255	255	255	
255	255	255	
255	255	255	
255	255	255	
255	255	255	
255	255	255	
255	255	255	
255	255	255	
255	255	255	
255	255	255	
255	255	255	
255	255	255	
255	255	255	
255	255	255	
255	255	255	
255	255	255	
255	255	255	
255	255	255	
255	255	255	
255	255	255	
255	255	255	
255	255	255	
255	255	255	
255	255	255	
255	255	255	
255	255	255	
255	255	255	
255	255	255	
255	255	255	
255	255	255	
255	255	255	
255	255	255	
255	255	255	
255	255	255	
255	255	255	
255	255	255	
255	255	255	
255	255	255	
255	255	255	
255	255	255	
255	255	255	
255	255	255	
255	255	255	
255	255	255	
255	255	255	
255	255	255	
255	255	255	
255	255	255	
255	255	255	
255	255	255	
255	255	255	
255	255	255	
255	255	255	
255	255	255	
255	255	255	
255	255	255	
255	255	255	
255	255	255	
255	255	255	
255	255	255	
255	255	255	
255	255	255	
255	255	255	
255	255	255	
255	255	255	
255	255	255	
255	255	255	
255	255	255	
255	255	255	
255	255	255	
255	255	255	
255	255	255	
255	255	255	
255	255	255	
255	255	255	
255	255	255	
255	255	255	
255	255	255	
255	255	255	
255	255	255	
255	255	255	
255	255	255	
255	255	255	
255	255	255	
255	255	255	
255	255	255	
255	255	255	
255	255	255	
255	255	255	
255	255	255	
255	255	255	
255	255	255	
255	255	255	
255	255	255	
255	255	255	
255	255	255	
255	255	255	
255	255	255	
255	255	255	
255	255	255	
255	255	255	
255	255	255	
255	255	255	
255	255	255	
255	255	255	
255	255	255	
255	255	255	
255	255	255	
255	255	255	
255	255	255	
255	255	255	
255	255	255	
255	255	255	
255	255	255	
255	255	255	
255	255	255	
255	255	255	
255	255	255	
255	255	255	
255	255	255	
255	255	255	
255	255	255	
255	255	255	
255	255	255	
255	255	255	
255	255	255	
255	255	255	
255	255	255	
255	255	255	
255	255	255	
255	255	255	
255	255	255	
255	255	255	
255	255	255	
255	255	255	
255	255	255	
255	255	255	
255	255	255	
255	255	255	
255	255	255	
255	255	255	
255	255	255	
255	255	255	
255	255	255	
255	255	255	
255	255	255	
255	255	255	
255	255	255	
255	255	255	
255	255	255	
255	255	255	
255	255	255	
125	125	125	
255	255	255	
255	255	255	
255	255	255	
255	255	255	
255	255	255	
255	255	255	
255	255	255	
255	255	255	
255	255	255	
255	255	255	
255	255	255	
255	255	255	
255	255	255	
255	255	255	
255	255	255	
255	255	255	
255	255	255	
255	255	255	
255	255	255	
255	255	255	
255	255	255	
255	255	255	
255	255	255	
255	255	255	
255	255	255	
255	255	255	
255	255	255	
255	255	255	
255	255	255	
255	255	255	
255	255	255	
255	255	255	
255	255	255	
255	255	255	
255	255	255	
255	255	255	
255	255	255	
255	255	255	
255	255	255	
255	255	255	
255	255	255	
255	255	255	
255	255	255	
255	255	255	
255	255	255	
255	255	255	
255	255	255	
255	255	255	
255	255	255	
255	255	255	
255	255	255	
255	255	255	
255	255	255	
255	255	255	
255	255	255	
255	255	255	
255	255	255	
255	255	255	
255	255	255	
255	255	255	
255	255	255	
255	255	255	
255	255	255	
255	255	255	
255	255	255	
255	255	255	
255	255	255	
255	255	255	
255	255	255	
255	255	255	
255	255	255	
255	255	255	
255	255	255	
255	255	255	
255	255	255	
255	255	255	
255	255	255	
255	255	255	
255	255	255	
255	255	255	
255	255	255	
255	255	255	
255	255	255	
255	255	255	
255	255	255	
255	255	255	
255	255	255	
255	255	255	
255	255	255	
255	255	255	
255	255	255	
255	255	255	
255	255	255	
255	255	255	
255	255	255	
255	255	255	
255	255	255	
255	255	255	
255	255	255	
255	255	255	
255	255	255	
255	255	255	
255	255	255	
255	255	255	
255	255	255	
255	255	255	
255	255	255	
255	255	255	
255	255	255	
255	255	255	
255	255	255	
255	255	255	
255	255	255	
255	255	255	
255	255	255	
255	255	255	
255	255	255	
255	255	255	
255	255	255	
255	255	255	
255	255	255	
255	255	255	
255	255	255	
255	255	255	
255	255	255	
255	255	255	
255	255	255	
255	255	255	
255	255	255	
255	255	255	
255	255	255	
255	255	255	
255	255	255	
255	255	255	
255	255	255	
255	255	255	
255	255	255	
255	255	255	
255	255	255	
255	255	255	
255	255	255	
255	255	255	
255	255	255	
255	255	255	
255	255	255	
255	255	255	
255	255	255	
255	255	255	
255	255	255	
255	255	255	
255	255	255	
255	255	255	
255	255	255	
255	255	255	
255	255	255	
255	255	255	
255	255	255	
255	255	255	
255	255	255	
255	255	255	
255	255	255	
255	255	255	
255	255	255	
255	255	255	
255	255	255	
255	255	255	
255	255	255	
255	255	255	
255	255	255	
255	255	255	
255	255	255	
255	255	255	
255	255	255	
255	255	255	
255	255	255	
255	255	255	
255	255	255	
255	255	255	
255	255	255	
255	255	255	
255	255	255	
255	255	255	
255	255	255	
255	255	255	
255	255	255	
255	255	255	
255	255	255	
255	255	255	
255	255	255	
255	255	255	
255	255	255	
255	255	255	
255	255	255	
255	255	255	
255	255	255	
255	255	255	
255	255	255	
255	255	255	
255	255	255	
255	255	255	
255	255	255	
255	255	255	
255	255	255	
255	255	255	
255	255	255	
255	255	255	
255	255	255	
255	255	255	
255	255	255	
255	255	255	
255	255	255	
255	255	255	
255	255	255	
255	255	255	
255	255	255	
255	255	255	
255	255	255	
255	255	255	
255	255	255	
255	255	255	
255	255	255	
255	255	255	
255	255	255	
255	255	255	
255	255	255	
255	255	255	
255	255	255	
255	255	255	
255	255	255	
255	255	255	
255	255	255	
255	255	255	
255	255	255	
255	255	255	
255	255	255	
255	255	255	
255	255	255	
255	255	255	
255	255	255	
255	255	255	
255	255	255	
255	255	255	
255	255	255	
255	255	255	
255	255	255	
255	255	255	
255	255	255	
255	255	255	
255	255	255	
255	255	255	
255	255	255	
255	255	255	
255	255	255	
255	255	255	
255	255	255	
125	125	125	
255	255	255	
255	255	255	
255	255	255	
255	255	255	
255	255	255	
255	255	255	
255	255	255	
255	255	255	
255	255	255	
255	255	255	
255	255	255	
255	255	255	
255	255	255	
255	255	255	
255	255	255	
255	255	255	
255	255	255	
255	255	255	
255	255	255	
255	255	255	
255	255	255	
255	255	255	
255	255	255	
255	255	255	
255	255	255	
255	255	255	
255	255	255	
255	255	255	
255	255	255	
255	255	255	
255	255	255	
255	255	255	
255	255	255	
255	255	255	
255	255	255	
255	255	255	
255	255	255	
255	255	255	
255	255	255	
255	255	255	
255	255	255	
255	255	255	
255	255	255	
255	255	255	
255	255	255	
255	255	255	
255	255	255	
255	255	255	
255	255	255	
255	255	255	
255	255	255	
255	255	255	
255	255	255	
255	255	255	
255	255	255	
255	255	255	
255	255	255	
255	255	255	
255	255	255	
255	255	255	
255	255	255	
255	255	255	
255	255	255	
255	255	255	
255	255	255	
255	255	255	
255	255	255	
255	255	255	
255	255	255	
255	255	255	
255	255	255	
255	255	255	
255	255	255	
255	255	255	
255	255	255	
255	255	255	
255	255	255	
255	255	255	
255	255	255	
255	255	255	
255	255	255	
255	255	255	
255	255	255	
255	255	255	
255	255	255	
255	255	255	
255	255	255	
255	255	255	
255	255	255	
255	255	255	
255	255	255	
255	255	255	
255	255	255	
255	255	255	
255	255	255	
255	255	255	
255	255	255	
255	255	255	
255	255	255	
255	255	255	
255	255	255	
255	255	255	
255	255	255	
255	255	255	
255	255	255	
255	255	255	
255	255	255	
255	255	255	
255	255	255	
255	255	255	
255	255	255	
255	255	255	
255	255	255	
255	255	255	
255	255	255	
255	255	255	
255	255	255	
255	255	255	
255	255	255	
255	255	255	
255	255	255	
255	255	255	
255	255	255	
255	255	255	
255	255	255	
255	255	255	
255	255	255	
255	255	255	
255	255	255	
255	255	255	
255	255	255	
255	255	255	
255	255	255	
255	255	255	
255	255	255	
255	255	255	
255	255	255	
255	255	255	
255	255	255	
255	255	255	
255	255	255	
255	255	255	
255	255	255	
255	255	255	
255	255	255	
255	255	255	
255	255	255	
255	255	255	
255	255	255	
255	255	255	
255	255	255	
255	255	255	
255	255	255	
255	255	255	
255	255	255	
255	255	255	
255	255	255	
255	255	255	
255	255	255	
255	255	255	
255	255	255	
255	255	255	
255	255	255	
255	255	255	
255	255	255	
255	255	255	
255	255	255	
255	255	255	
255	255	255	
255	255	255	
255	255	255	
255	255	255	
255	255	255	
255	255	255	
255	255	255	
255	255	255	
255	255	255	
255	255	255	
255	255	255	
255	255	255	
255	255	255	
255	255	255	
255	255	255	
255	255	255	
255	255	255	
255	255	255	
255	255	255	
255	255	255	
255	255	255	
255	255	255	
255	255	255	
255	255	255	
255	255	255	
255	255	255	
255	255	255	
255	255	255	
255	255	255	
255	255	255	
255	255	255	
255	255	255	
255	255	255	
255	255	255	
255	255	255	
255	255	255	
255	255	255	
255	255	255	
255	255	255	
255	255	255	
255	255	255	
255	255	255	
255	255	255	
255	255	255	
255	255	255	
255	255	255	
255	255	255	
255	255	255	
255	255	255	
255	255	255	
255	255	255	
255	255	255	
255	255	255	
255	255	255	
255	255	255	
255	255	255	
255	255	255	
255	255	255	
255	255	255	
255	255	255	
255	255	255	
255	255	255	
255	255	255	
255	255	255	
255	255	255	
255	255	255	
255	255	255	
255	255	255	
255	255	255	
255	255	255	
255	255	255	
255	255	255	
255	255	255	
255	255	255	
255	255	255	
255	255	255	
255	255	255	
255	255	255	
255	255	255	
255	255	255	
255	255	255	
255	255	255	
255	255	255	
255	255	255	
255	255	255	
255	255	255	
255	255	255	
125	125	125	
255	255	255	
255	255	255	
255	255	255	
255	255	255	
255	255	255	
255	255	255	
255	255	255	
255	255	255	
255	255	255	
255	255	255	
255	255	255	
255	255	255	
255	255	255	
255	255	255	
255	255	255	
255	255	255	
255	255	255	
255	255	255	
255	255	255	
255	255	255	
255	255	255	
255	255	255	
255	255	255	
255	255	255	
255	255	255	
255	255	255	
255	255	255	
255	255	255	
255	255	255	
255	255	255	
255	255	255	
255	255	255	
255	255	255	
255	255	255	
255	255	255	
255	255	255	
255	255	255	
255	255	255	
255	255	255	
255	255	255	
255	255	255	
255	255	255	
255	255	255	
255	255	255	
255	255	255	
255	255	255	
255	255	255	
255	255	255	
255	255	255	
255	255	255	
255	255	255	
255	255	255	
255	255	255	
255	255	255	
255	255	255	
255	255	255	
255	255	255	
255	255	255	
255	255	255	
255	255	255	
255	255	255	
255	255	255	
255	255	255	
255	255	255	
255	255	255	
255	255	255	
255	255	255	
255	255	255	
255	255	255	
255	255	255	
255	255	255	
255	255	255	
255	255	255	
255	255	255	
255	255	255	
255	255	255	
255	255	255	
255	255	255	
255	255	255	
255	255	255	
255	255	255	
255	255	255	
255	255	255	
255	255	255	
255	255	255	
255	255	255	
255	255	255	
255	255	255	
255	255	255	
255	255	255	
255	255	255	
255	255	255	
255	255	255	
255	255	255	
255	255	255	
255	255	255	
255	255	255	
255	255	255	
255	255	255	
255	255	255	
255	255	255	
255	255	255	
255	255	255	
255	255	255	
255	255	255	
255	255	255	
255	255	255	
255	255	255	
255	255	255	
255	255	255	
255	255	255	
255	255	255	
255	255	255	
255	255	255	
255	255	255	
255	255	255	
255	255	255	
255	255	255	
255	255	255	
255	255	255	
255	255	255	
255	255	255	
255	255	255	
255	255	255	
255	255	255	
255	255	255	
255	255	255	
255	255	255	
255	255	255	
255	255	255	
255	255	255	
255	255	255	
255	255	255	
255	255	255	
255	255	255	
255	255	255	
255	255	255	
255	255	255	
255	255	255	
255	255	255	
255	255	255	
255	255	255	
255	255	255	
255	255	255	
255	255	255	
255	255	255	
255	255	255	
255	255	255	
255	255	255	
255	255	255	
255	255	255	
255	255	255	
255	255	255	
255	255	255	
255	255	255	
255	255	255	
255	255	255	
255	255	255	
255	255	255	
255	255	255	
255	255	255	
255	255	255	
255	255	255	
255	255	255	
255	255	255	
255	255	255	
255	255	255	
255	255	255	
255	255	255	
255	255	255	
255	255	255	
255	255	255	
255	255	255	
255	255	255	
255	255	255	
255	255	255	
255	255	255	
255	255	255	
255	255	255	
255	255	255	
255	255	255	
255	255	255	
255	255	255	
255	255	255	
255	255	255	
255	255	255	
255	255	255	
255	255	255	
255	255	255	
255	255	255	
255	255	255	
255	255	255	
255	255	255	
255	255	255	
255	255	255	
255	255	255	
255	255	255	
255	255	255	
255	255	255	
255	255	255	
255	255	255	
255	255	255	
255	255	255	
255	255	255	
255	255	255	
255	255	255	
255	255	255	
255	255	255	
255	255	255	
255	255	255	
255	255	255	
255	255	255	
255	255	255	
255	255	255	
255	255	255	
255	255	255	
255	255	255	
255	255	255	
255	255	255	
255	255	255	
255	255	255	
255	255	255	
255	255	255	
255	255	255	
255	255	255	
255	255	255	
255	255	255	
255	255	255	
255	255	255	
255	255	255	
255	255	255	
255	255	255	
255	255	255	
255	255	255	
255	255	255	
255	255	255	
255	255	255	
255	255	255	
255	255	255	
255	255	255	
255	255	255	
255	255	255	
255	255	255	
255	255	255	
255	255	255	
255	255	255	
255	255	255	
255	255	255	
255	255	255	
255	255	255	
255	255	255	
255	255	255	
255	255	255	
255	255	255	
255	255	255	
125	125	125	
255	255	255	
255	255	255	
255	255	255	
255	255	255	
255	255	255	
255	255	255	
255	255	255	
255	255	255	
255	255	255	
255	255	255	
255	255	255	
255	255	255	
255	255	255	
255	255	255	
255	255	255	
255	255	255	
255	255	255	
255	255	255	
255	255	255	
255	255	255	
255	255	255	
255	255	255	
255	255	255	
255	255	255	
255	255	255	
255	255	255	
255	255	255	
255	255	255	
255	255	255	
255	255	255	
255	255	255	
255	255	255	
255	255	255	
255	255	255	
255	255	255	
255	255	255	
255	255	255	
255	255	255	
255	255	255	
255	255	255	
255	255	255	
255	255	255	
255	255	255	
255	255	255	
255	255	255	
255	255	255	
255	255	255	
255	255	255	
255	255	255	
255	255	255	
255	255	255	
255	255	255	
255	255	255	
255	255	255	
255	255	255	
255	255	255	
255	255	255	
255	255	255	
255	255	255	
255	255	255	
255	255	255	
255	255	255	
255	255	255	
255	255	255	
255	255	255	
255	255	255	
255	255	255	
255	255	255	
255	255	255	
255	255	255	
255	255	255	
255	255	255	
255	255	255	
255	255	255	
255	255	255	
255	255	255	
255	255	255	
255	255	255	
255	255	255	
255	255	255	
255	255	255	
255	255	255	
255	255	255	
255	255	255	
255	255	255	
255	255	255	
255	255	255	
255	255	255	
255	255	255	
255	255	255	
255	255	255	
255	255	255	
255	255	255	
255	255	255	
255	255	255	
255	255	255	
255	255	255	
255	255	255	
255	255	255	
255	255	255	
255	255	255	
255	255	255	
255	255	255	
255	255	255	
255	255	255	
255	255	255	
255	255	255	
255	255	255	
255	255	255	
255	255	255	
255	255	255	
255	255	255	
255	255	255	
255	255	255	
255	255	255	
255	255	255	
255	255	255	
255	255	255	
255	255	255	
255	255	255	
255	255	255	
255	255	255	
255	255	255	
255	255	255	
255	255	255	
255	255	255	
255	255	255	
255	255	255	
255	255	255	
255	255	255	
255	255	255	
255	255	255	
255	255	255	
255	255	255	
255	255	255	
255	255	255	
255	255	255	
255	255	255	
255	255	255	
255	255	255	
255	255	255	
255	255	255	
255	255	255	
255	255	255	
255	255	255	
255	255	255	
255	255	255	
255	255	255	
255	255	255	
255	255	255	
255	255	255	
255	255	255	
255	255	255	
255	255	255	
255	255	255	
255	255	255	
255	255	255	
255	255	255	
255	255	255	
255	255	255	
255	255	255	
255	255	255	
255	255	255	
255	255	255	
255	255	255	
255	255	255	
255	255	255	
255	255	255	
255	255	255	
255	255	255	
255	255	255	
255	255	255	
255	255	255	
255	255	255	
255	255	255	
255	255	255	
255	255	255	
255	255	255	
255	255	255	
255	255	255	
255	255	255	
255	255	255	
255	255	255	
255	255	255	
255	255	255	
255	255	255	
255	255	255	
255	255	255	
255	255	255	
255	255	255	
255	255	255	
255	255	255	
255	255	255	
255	255	255	
255	255	255	
255	255	255	
255	255	255	
255	255	255	
255	255	255	
255	255	255	
255	255	255	
255	255	255	
255	255	255	
255	255	255	
255	255	255	
255	255	255	
255	255	255	
255	255	255	
255	255	255	
255	255	255	
255	255	255	
255	255	255	
255	255	255	
255	255	255	
255	255	255	
255	255	255	
255	255	255	
255	255	255	
255	255	255	
255	255	255	
255	255	255	
255	255	255	
255	255	255	
255	255	255	
255	255	255	
255	255	255	
255	255	255	
255	255	255	
255	255	255	
255	255	255	
255	255	255	
255	255	255	
255	255	255	
255	255	255	
255	255	255	
255	255	255	
255	255	255	
255	255	255	
255	255	255	
255	255	255	
255	255	255	
255	255	255	
255	255	255	
255	255	255	
255	255	255	
255	255	255	
255	255	255	
255	255	255	
255	255	255	
255	255	255	
255	255	255	
255	255	255	
255	255	255	
255	255	255	
255	255	255	
125	125	125	
255	255	255	
255	255	255	
255	255	255	
255	255	255	
255	255	255	
255	255	255	
255	255	255	
255	255	255	
255	255	255	
255	255	255	
255	255	255	
255	255	255	
255	255	255	
255	255	255	
255	255	255	
255	255	255	
255	255	255	
255	255	255	
255	255	255	
255	255	255	
255	255	255	
255	255	255	
255	255	255	
255	255	255	
255	255	255	
255	255	255	
255	255	255	
255	255	255	
255	255	255	
255	255	255	
255	255	255	
255	255	255	
255	255	255	
255	255	255	
255	255	255	
255	255	255	
255	255	255	
255	255	255	
255	255	255	
255	255	255	
255	255	255	
255	255	255	
255	255	255	
255	255	255	
255	255	255	
255	255	255	
255	255	255	
255	255	255	
255	255	255	
255	255	255	
255	255	255	
255	255	255	
255	255	255	
255	255	255	
255	255	255	
255	255	255	
255	255	255	
255	255	255	
255	255	255	
255	255	255	
255	255	255	
255	255	255	
255	255	255	
255	255	255	
255	255	255	
255	255	255	
255	255	255	
255	255	255	
255	255	255	
255	255	255	
255	255	255	
255	255	255	
255	255	255	
255	255	255	
255	255	255	
255	255	255	
255	255	255	
255	255	255	
255	255	255	
255	255	255	
255	255	255	
255	255	255	
255	255	255	
255	255	255	
255	255	255	
255	255	255	
255	255	255	
255	255	255	
255	255	255	
255	255	255	
255	255	255	
255	255	255	
255	255	255	
255	255	255	
255	255	255	
255	255	255	
255	255	255	
255	255	255	
255	255	255	
255	255	255	
255	255	255	
255	255	255	
255	255	255	
255	255	255	
255	255	255	
255	255	255	
255	255	255	
255	255	255	
255	255	255	
255	255	255	
255	255	255	
255	255	255	
255	255	255	
255	255	255	
255	255	255	
255	255	255	
255	255	255	
255	255	255	
255	255	255	
255	255	255	
255	255	255	
255	255	255	
255	255	255	
255	255	255	
255	255	255	
255	255	255	
255	255	255	
255	255	255	
255	255	255	
255	255	255	
255	255	255	
255	255	255	
255	255	255	
255	255	255	
255	255	255	
255	255	255	
255	255	255	
255	255	255	
255	255	255	
255	255	255	
255	255	255	
255	255	255	
255	255	255	
255	255	255	
255	255	255	
255	255	255	
255	255	255	
255	255	255	
255	255	255	
255	255	255	
255	255	255	
255	255	255	
255	255	255	
255	255	255	
255	255	255	
255	255	255	
255	255	255	
255	255	255	
255	255	255	
255	255	255	
255	255	255	
255	255	255	
255	255	255	
255	255	255	
255	255	255	
255	255	255	
255	255	255	
255	255	255	
255	255	255	
255	255	255	
255	255	255	
255	255	255	
255	255	255	
255	255	255	
255	255	255	
255	255	255	
255	255	255	
255	255	255	
255	255	255	
255	255	255	
255	255	255	
255	255	255	
255	255	255	
255	255	255	
255	255	255	
255	255	255	
255	255	255	
255	255	255	
255	255	255	
255	255	255	
255	255	255	
255	255	255	
255	255	255	
255	255	255	
255	255	255	
255	255	255	
255	255	255	
255	255	255	
255	255	255	
255	255	255	
255	255	255	
255	255	255	
255	255	255	
255	255	255	
255	255	255	
255	255	255	
255	255	255	
255	255	255	
255	255	255	
255	255	255	
255	255	255	
255	255	255	
255	255	255	
255	255	255	
255	255	255	
255	255	255	
255	255	255	
255	255	255	
255	255	255	
255	255	255	
255	255	255	
255	255	255	
255	255	255	
255	255	255	
255	255	255	
255	255	255	
255	255	255	
255	255	255	
255	255	255	
255	255	255	
255	255	255	
255	255	255	
255	255	255	
255	255	255	
255	255	255	
255	255	255	
255	255	255	
255	255	255	
255	255	255	
255	255	255	
255	255	255	
255	255	255	
255	255	255	
255	255	255	
255	255	255	
255	255	255	
255	255	255	
255	255	255	
255	255	255	
255	255	255	
255	255	255	
255	255	255	
255	255	255	
255	255	255	
255	255	255	
125	125	125	
255	255	255	
255	255	255	
255	255	255	
255	255	255	
255	255	255	
255	255	255	
255	255	255	
255	255	255	
255	255	255	
255	255	255	
255	255	255	
255	255	255	
255	255	255	
255	255	255	
255	255	255	
255	255	255	
255	255	255	
255	255	255	
255	255	255	
255	255	255	
255	255	255	
255	255	255	
255	255	255	
255	255	255	
255	255	255	
255	255	255	
255	255	255	
255	255	255	
255	255	255	
255	255	255	
255	255	255	
255	255	255	
255	255	255	
255	255	255	
255	255	255	
255	255	255	
255	255	255	
255	255	255	
255	255	255	
255	255	255	
255	255	255	
255	255	255	
255	255	255	
255	255	255	
255	255	255	
255	255	255	
255	255	255	
255	255	255	
255	255	255	
255	255	255	
255	255	255	
255	255	255	
255	255	255	
255	255	255	
255	255	255	
255	255	255	
255	255	255	
255	255	255	
255	255	255	
255	255	255	
255	255	255	
255	255	255	
255	255	255	
255	255	255	
255	255	255	
255	255	255	
255	255	255	
255	255	255	
255	255	255	
255	255	255	
255	255	255	
255	255	255	
255	255	255	
255	255	255	
255	255	255	
255	255	255	
255	255	255	
255	255	255	
255	255	255	
255	255	255	
255	255	255	
255	255	255	
255	255	255	
255	255	255	
255	255	255	
255	255	255	
255	255	255	
255	255	255	
255	255	255	
255	255	255	
255	255	255	
255	255	255	
255	255	255	
255	255	255	
255	255	255	
255	255	255	
255	255	255	
255	255	255	
255	255	255	
255	255	255	
255	255	255	
255	255	255	
255	255	255	
255	255	255	
255	255	255	
255	255	255	
255	255	255	
255	255	255	
255	255	255	
255	255	255	
255	255	255	
255	255	255	
255	255	255	
255	255	255	
255	255	255	
255	255	255	
255	255	255	
255	255	255	
255	255	255	
255	255	255	
255	255	255	
255	255	255	
255	255	255	
255	255	255	
255	255	255	
255	255	255	
255	255	255	
255	255	255	
255	255	255	
255	255	255	
255	255	255	
255	255	255	
255	255	255	
255	255	255	
255	255	255	
255	255	255	
255	255	255	
255	255	255	
255	255	255	
255	255	255	
255	255	255	
255	255	255	
255	255	255	
255	255	255	
255	255	255	
255	255	255	
255	255	255	
255	255	255	
255	255	255	
255	255	255	
255	255	255	
255	255	255	
255	255	255	
255	255	255	
255	255	255	
255	255	255	
255	255	255	
255	255	255	
255	255	255	
255	255	255	
255	255	255	
255	255	255	
255	255	255	
255	255	255	
255	255	255	
255	255	255	
255	255	255	
255	255	255	
255	255	255	
255	255	255	
255	255	255	
255	255	255	
255	255	255	
255	255	255	
255	255	255	
255	255	255	
255	255	255	
255	255	255	
255	255	255	
255	255	255	
255	255	255	
255	255	255	
255	255	255	
255	255	255	
255	255	255	
255	255	255	
255	255	255	
255	255	255	
255	255	255	
255	255	255	
255	255	255	
255	255	255	
255	255	255	
255	255	255	
255	255	255	
255	255	255	
255	255	255	
255	255	255	
255	255	255	
255	255	255	
255	255	255	
255	255	255	
255	255	255	
255	255	255	
255	255	255	
255	255	255	
255	255	255	
255	255	255	
255	255	255	
255	255	255	
255	255	255	
255	255	255	
255	255	255	
255	255	255	
255	255	255	
255	255	255	
255	255	255	
255	255	255	
255	255	255	
255	255	255	
255	255	255	
255	255	255	
255	255	255	
255	255	255	
255	255	255	
255	255	255	
255	255	255	
255	255	255	
255	255	255	
255	255	255	
255	255	255	
255	255	255	
255	255	255	
255	255	255	
255	255	255	
255	255	255	
255	255	255	
255	255	255	
255	255	255	
255	255	255	
255	255	255	
255	255	255	
255	255	255	
255	255	255	
255	255	255	
255	255	255	
255	255	255	
255	255	255	
255	255	255	
255	255	255	
255	255	255	
255	255	255	
255	255	255	
255	255	255	
255	255	255	
255	255	255	
125	125	125	
255	255	255	
255	255	255	
255	255	255	
255	255	255	
255	255	255	
255	255	255	
255	255	255	
255	255	255	
255	255	255	
255	255	255	
255	255	255	
255	255	255	
255	255	255	
255	255	255	
255	255	255	
255	255	255	
255	255	255	
255	255	255	
255	255	255	
255	255	255	
255	255	255	
255	255	255	
255	255	255	
255	255	255	
255	255	255	
255	255	255	
255	255	255	
255	255	255	
255	255	255	
255	255	255	
255	255	255	
255	255	255	
255	255	255	
255	255	255	
255	255	255	
255	255	255	
255	255	255	
255	255	255	
255	255	255	
255	255	255	
255	255	255	
255	255	255	
255	255	255	
255	255	255	
255	255	255	
255	255	255	
255	255	255	
255	255	255	
255	255	255	
255	255	255	
255	255	255	
255	255	255	
255	255	255	
255	255	255	
255	255	255	
255	255	255	
255	255	255	
255	255	255	
255	255	255	
255	255	255	
255	255	255	
255	255	255	
255	255	255	
255	255	255	
255	255	255	
255	255	255	
255	255	255	
255	255	255	
255	255	255	
255	255	255	
255	255	255	
255	255	255	
255	255	255	
255	255	255	
255	255	255	
255	255	255	
255	255	255	
255	255	255	
255	255	255	
255	255	255	
255	255	255	
255	255	255	
255	255	255	
255	255	255	
255	255	255	
255	255	255	
255	255	255	
255	255	255	
255	255	255	
255	255	255	
255	255	255	
255	255	255	
255	255	255	
255	255	255	
255	255	255	
255	255	255	
255	255	255	
255	255	255	
255	255	255	
255	255	255	
255	255	255	
255	255	255	
255	255	255	
255	255	255	
255	255	255	
255	255	255	
255	255	255	
255	255	255	
255	255	255	
255	255	255	
255	255	255	
255	255	255	
255	255	255	
255	255	255	
255	255	255	
255	255	255	
255	255	255	
255	255	255	
255	255	255	
255	255	255	
255	255	255	
255	255	255	
255	255	255	
255	255	255	
255	255	255	
255	255	255	
255	255	255	
255	255	255	
255	255	255	
255	255	255	
255	255	255	
255	255	255	
255	255	255	
255	255	255	
255	255	255	
255	255	255	
255	255	255	
255	255	255	
255	255	255	
255	255	255	
255	255	255	
255	255	255	
255	255	255	
255	255	255	
255	255	255	
255	255	255	
255	255	255	
255	255	255	
255	255	255	
255	255	255	
255	255	255	
255	255	255	
255	255	255	
255	255	255	
255	255	255	
255	255	255	
255	255	255	
255	255	255	
255	255	255	
255	255	255	
255	255	255	
255	255	255	
255	255	255	
255	255	255	
255	255	255	
255	255	255	
255	255	255	
255	255	255	
255	255	255	
255	255	255	
255	255	255	
255	255	255	
255	255	255	
255	255	255	
255	255	255	
255	255	255	
255	255	255	
255	255	255	
255	255	255	
255	255	255	
255	255	255	
255	255	255	
255	255	255	
255	255	255	
255	255	255	
255	255	255	
255	255	255	
255	255	255	
255	255	255	
255	255	255	
255	255	255	
255	255	255	
255	255	255	
255	255	255	
255	255	255	
255	255	255	
255	255	255	
255	255	255	
255	255	255	
255	255	255	
255	255	255	
255	255	255	
255	255	255	
255	255	255	
255	255	255	
255	255	255	
255	255	255	
255	255	255	
255	255	255	
255	255	255	
255	255	255	
255	255	255	
255	255	255	
255	255	255	
255	255	255	
255	255	255	
255	255	255	
255	255	255	
255	255	255	
255	255	255	
255	255	255	
255	255	255	
255	255	255	
255	255	255	
255	255	255	
255	255	255	
255	255	255	
255	255	255	
255	255	255	
255	255	255	
255	255	255	
255	255	255	
255	255	255	
255	255	255	
255	255	255	
255	255	255	
255	255	255	
255	255	255	
255	255	255	
255	255	255	
255	255	255	
255	255	255	
255	255	255	
255	255	255	
255	255	255	
255	255	255	
255	255	255	
255	255	255	
255	255	255	
255	255	255	
255	255	255	
255	255	255	
255	255	255	
255	255	255	
255	255	255	
125	125	125	
255	255	255	
255	255	255	
255	255	255	
255	255	255	
255	255	255	
255	255	255	
255	255	255	
255	255	255	
255	255	255	
255	255	255	
255	255	255	
255	255	255	
255	255	255	
255	255	255	
255	255	255	
255	255	255	
255	255	255	
255	255	255	
255	255	255	
255	255	255	
255	255	255	
255	255	255	
255	255	255	
255	255	255	
255	255	255	
255	255	255	
255	255	255	
255	255	255	
255	255	255	
255	255	255	
255	255	255	
255	255	255	
255	255	255	
255	255	255	
255	255	255	
255	255	255	
255	255	255	
255	255	255	
255	255	255	
255	255	255	
255	255	255	
255	255	255	
255	255	255	
255	255	255	
255	255	255	
255	255	255	
255	255	255	
255	255	255	
255	255	255	
255	255	255	
255	255	255	
255	255	255	
255	255	255	
255	255	255	
255	255	255	
255	255	255	
255	255	255	
255	255	255	
255	255	255	
255	255	255	
255	255	255	
255	255	255	
255	255	255	
255	255	255	
255	255	255	
255	255	255	
255	255	255	
255	255	255	
255	255	255	
255	255	255	
255	255	255	
255	255	255	
255	255	255	
255	255	255	
255	255	255	
255	255	255	
255	255	255	
255	255	255	
255	255	255	
255	255	255	
255	255	255	
255	255	255	
255	255	255	
255	255	255	
255	255	255	
255	255	255	
255	255	255	
255	255	255	
255	255	255	
255	255	255	
255	255	255	
255	255	255	
255	255	255	
255	255	255	
255	255	255	
255	255	255	
255	255	255	
255	255	255	
255	255	255	
255	255	255	
255	255	255	
255	255	255	
255	255	255	
255	255	255	
255	255	255	
255	255	255	
255	255	255	
255	255	255	
255	255	255	
255	255	255	
255	255	255	
255	255	255	
255	255	255	
255	255	255	
255	255	255	
255	255	255	
255	255	255	
255	255	255	
255	255	255	
255	255	255	
255	255	255	
255	255	255	
255	255	255	
255	255	255	
255	255	255	
255	255	255	
255	255	255	
255	255	255	
255	255	255	
255	255	255	
255	255	255	
255	255	255	
255	255	255	
255	255	255	
255	255	255	
255	255	255	
255	255	255	
255	255	255	
255	255	255	
255	255	255	
255	255	255	
255	255	255	
255	255	255	
255	255	255	
255	255	255	
255	255	255	
255	255	255	
255	255	255	
255	255	255	
255	255	255	
255	255	255	
255	255	255	
255	255	255	
255	255	255	
255	255	255	
255	255	255	
255	255	255	
255	255	255	
255	255	255	
255	255	255	
255	255	255	
255	255	255	
255	255	255	
255	255	255	
255	255	255	
255	255	255	
255	255	255	
255	255	255	
255	255	255	
255	255	255	
255	255	255	
255	255	255	
255	255	255	
255	255	255	
255	255	255	
255	255	255	
255	255	255	
255	255	255	
255	255	255	
255	255	255	
255	255	255	
255	255	255	
255	255	255	
255	255	255	
255	255	255	
255	255	255	
255	255	255	
255	255	255	
255	255	255	
255	255	255	
255	255	255	
255	255	255	
255	255	255	
255	255	255	
255	255	255	
255	255	255	
255	255	255	
255	255	255	
255	255	255	
255	255	255	
255	255	255	
255	255	255	
255	255	255	
255	255	255	
255	255	255	
255	255	255	
255	255	255	
255	255	255	
255	255	255	
255	255	255	
255	255	255	
255	255	255	
255	255	255	
255	255	255	
255	255	255	
255	255	255	
255	255	255	
255	255	255	
255	255	255	
255	255	255	
255	255	255	
255	255	255	
255	255	255	
255	255	255	
255	255	255	
255	255	255	
255	255	255	
255	255	255	
255	255	255	
255	255	255	
255	255	255	
255	255	255	
255	255	255	
255	255	255	
255	255	255	
255	255	255	
255	255	255	
255	255	255	
255	255	255	
255	255	255	
255	255	255	
255	255	255	
255	255	255	
255	255	255	
255	255	255	
255	255	255	
255	255	255	
255	255	255	
255	255	255	
255	255	255	
255	255	255	
255	255	255	
255	255	255	
255	255	255	
255	255	255	
125	125	125	
255	255	255	
255	255	255	
255	255	255	
255	255	255	
255	255	255	
255	255	255	
255	255	255	
255	255	255	
255	255	255	
255	255	255	
255	255	255	
255	255	255	
255	255	255	
255	255	255	
255	255	255	
255	255	255	
255	255	255	
255	255	255	
255	255	255	
255	255	255	
255	255	255	
255	255	255	
255	255	255	
255	255	255	
255	255	255	
255	255	255	
255	255	255	
255	255	255	
255	255	255	
255	255	255	
255	255	255	
255	255	255	
255	255	255	
255	255	255	
255	255	255	
255	255	255	
255	255	255	
255	255	255	
255	255	255	
255	255	255	
255	255	255	
255	255	255	
255	255	255	
255	255	255	
255	255	255	
255	255	255	
255	255	255	
255	255	255	
255	255	255	
255	255	255	
255	255	255	
255	255	255	
255	255	255	
255	255	255	
255	255	255	
255	255	255	
255	255	255	
255	255	255	
255	255	255	
255	255	255	
255	255	255	
255	255	255	
255	255	255	
255	255	255	
255	255	255	
255	255	255	
255	255	255	
255	255	255	
255	255	255	
255	255	255	
255	255	255	
255	255	255	
255	255	255	
255	255	255	
255	255	255	
255	255	255	
255	255	255	
255	255	255	
255	255	255	
255	255	255	
255	255	255	
255	255	255	
255	255	255	
255	255	255	
255	255	255	
255	255	255	
255	255	255	
255	255	255	
255	255	255	
255	255	255	
255	255	255	
255	255	255	
255	255	255	
255	255	255	
255	255	255	
255	255	255	
255	255	255	
255	255	255	
255	255	255	
255	255	255	
255	255	255	
255	255	255	
255	255	255	
255	255	255	
255	255	255	
255	255	255	
255	255	255	
255	255	255	
255	255	255	
255	255	255	
255	255	255	
255	255	255	
255	255	255	
255	255	255	
255	255	255	
255	255	255	
255	255	255	
255	255	255	
255	255	255	
255	255	255	
255	255	255	
255	255	255	
255	255	255	
255	255	255	
255	255	255	
255	255	255	
255	255	255	
255	255	255	
255	255	255	
255	255	255	
255	255	255	
255	255	255	
255	255	255	
255	255	255	
255	255	255	
255	255	255	
255	255	255	
255	255	255	
255	255	255	
255	255	255	
255	255	255	
255	255	255	
255	255	255	
255	255	255	
255	255	255	
255	255	255	
255	255	255	
255	255	255	
255	255	255	
255	255	255	
255	255	255	
255	255	255	
255	255	255	
255	255	255	
255	255	255	
255	255	255	
255	255	255	
255	255	255	
255	255	255	
255	255	255	
255	255	255	
255	255	255	
255	255	255	
255	255	255	
255	255	255	
255	255	255	
255	255	255	
255	255	255	
255	255	255	
255	255	255	
255	255	255	
255	255	255	
255	255	255	
255	255	255	
255	255	255	
255	255	255	
255	255	255	
255	255	255	
255	255	255	
255	255	255	
255	255	255	
255	255	255	
255	255	255	
255	255	255	
255	255	255	
255	255	255	
255	255	255	
255	255	255	
255	255	255	
255	255	255	
255	255	255	
255	255	255	
255	255	255	
255	255	255	
255	255	255	
255	255	255	
255	255	255	
255	255	255	
255	255	255	
255	255	255	
255	255	255	
255	255	255	
255	255	255	
255	255	255	
255	255	255	
255	255	255	
255	255	255	
255	255	255	
255	255	255	
255	255	255	
255	255	255	
255	255	255	
255	255	255	
255	255	255	
255	255	255	
255	255	255	
255	255	255	
255	255	255	
255	255	255	
255	255	255	
255	255	255	
255	255	255	
255	255	255	
255	255	255	
255	255	255	
255	255	255	
255	255	255	
255	255	255	
255	255	255	
255	255	255	
255	255	255	
255	255	255	
255	255	255	
255	255	255	
255	255	255	
255	255	255	
255	255	255	
255	255	255	
255	255	255	
255	255	255	
255	255	255	
255	255	255	
255	255	255	
255	255	255	
255	255	255	
255	255	255	
255	255	255	
255	255	255	
255	255	255	
255	255	255	
255	255	255	
255	255	255	
255	255	255	
255	255	255	
255	255	255	
125	125	125	
255	255	255	
255	255	255	
255	255	255	
255	255	255	
255	255	255	
255	255	255	
255	255	255	
255	255	255	
255	255	255	
255	255	255	
255	255	255	
255	255	255	
255	255	255	
255	255	255	
255	255	255	
255	255	255	
255	255	255	
255	255	255	
255	255	255	
255	255	255	
255	255	255	
255	255	255	
255	255	255	
255	255	255	
255	255	255	
255	255	255	
255	255	255	
255	255	255	
255	255	255	
255	255	255	
255	255	255	
255	255	255	
255	255	255	
255	255	255	
255	255	255	
255	255	255	
255	255	255	
255	255	255	
255	255	255	
255	255	255	
255	255	255	
255	255	255	
255	255	255	
255	255	255	
255	255	255	
255	255	255	
255	255	255	
255	255	255	
255	255	255	
255	255	255	
255	255	255	
255	255	255	
255	255	255	
255	255	255	
255	255	255	
255	255	255	
255	255	255	
255	255	255	
255	255	255	
255	255	255	
255	255	255	
255	255	255	
255	255	255	
255	255	255	
255	255	255	
255	255	255	
255	255	255	
255	255	255	
255	255	255	
255	255	255	
255	255	255	
255	255	255	
255	255	255	
255	255	255	
255	255	255	
255	255	255	
255	255	255	
255	255	255	
255	255	255	
255	255	255	
255	255	255	
255	255	255	
255	255	255	
255	255	255	
255	255	255	
255	255	255	
255	255	255	
255	255	255	
255	255	255	
255	255	255	
255	255	255	
255	255	255	
255	255	255	
255	255	255	
255	255	255	
255	255	255	
255	255	255	
255	255	255	
255	255	255	
255	255	255	
255	255	255	
255	255	255	
255	255	255	
255	255	255	
255	255	255	
255	255	255	
255	255	255	
255	255	255	
255	255	255	
255	255	255	
255	255	255	
255	255	255	
255	255	255	
255	255	255	
255	255	255	
255	255	255	
255	255	255	
255	255	255	
255	255	255	
255	255	255	
255	255	255	
255	255	255	
255	255	255	
255	255	255	
255	255	255	
255	255	255	
255	255	255	
255	255	255	
255	255	255	
255	255	255	
255	255	255	
255	255	255	
255	255	255	
255	255	255	
255	255	255	
255	255	255	
255	255	255	
255	255	255	
255	255	255	
255	255	255	
255	255	255	
255	255	255	
255	255	255	
255	255	255	
255	255	255	
255	255	255	
255	255	255	
255	255	255	
255	255	255	
255	255	255	
255	255	255	
255	255	255	
255	255	255	
255	255	255	
255	255	255	
255	255	255	
255	255	255	
255	255	255	
255	255	255	
255	255	255	
255	255	255	
255	255	255	
255	255	255	
255	255	255	
255	255	255	
255	255	255	
255	255	255	
255	255	255	
255	255	255	
255	255	255	
255	255	255	
255	255	255	
255	255	255	
255	255	255	
255	255	255	
255	255	255	
255	255	255	
255	255	255	
255	255	255	
255	255	255	
255	255	255	
255	255	255	
255	255	255	
255	255	255	
255	255	255	
255	255	255	
255	255	255	
255	255	255	
255	255	255	
255	255	255	
255	255	255	
255	255	255	
255	255	255	
255	255	255	
255	255	255	
255	255	255	
255	255	255	
255	255	255	
255	255	255	
255	255	255	
255	255	255	
255	255	255	
255	255	255	
255	255	255	
255	255	255	
255	255	255	
255	255	255	
255	255	255	
255	255	255	
255	255	255	
255	255	255	
255	255	255	
255	255	255	
255	255	255	
255	255	255	
255	255	255	
255	255	255	
255	255	255	
255	255	255	
255	255	255	
255	255	255	
255	255	255	
255	255	255	
255	255	255	
255	255	255	
255	255	255	
255	255	255	
255	255	255	
255	255	255	
255	255	255	
255	255	255	
255	255	255	
255	255	255	
255	255	255	
255	255	255	
255	255	255	
255	255	255	
255	255	255	
255	255	255	
255	255	255	
255	255	255	
255	255	255	
255	255	255	
255	255	255	
255	255	255	
255	255	255	
255	255	255	
255	255	255	
255	255	255	
255	255	255	
255	255	255	
255	255	255	
255	255	255	
255	255	255	
255	255	255	
125	125	125	
255	255	255	
255	255	255	
255	255	255	
255	255	255	
255	255	255	
255	255	255	
255	255	255	
255	255	255	
255	255	255	
255	255	255	
255	255	255	
255	255	255	
255	255	255	
255	255	255	
255	255	255	
255	255	255	
255	255	255	
255	255	255	
255	255	255	
255	255	255	
255	255	255	
255	255	255	
255	255	255	
255	255	255	
255	255	255	
255	255	255	
255	255	255	
255	255	255	
255	255	255	
255	255	255	
255	255	255	
255	255	255	
255	255	255	
255	255	255	
255	255	255	
255	255	255	
255	255	255	
255	255	255	
255	255	255	
255	255	255	
255	255	255	
255	255	255	
255	255	255	
255	255	255	
255	255	255	
255	255	255	
255	255	255	
255	255	255	
255	255	255	
255	255	255	
255	255	255	
255	255	255	
255	255	255	
255	255	255	
255	255	255	
255	255	255	
255	255	255	
255	255	255	
255	255	255	
255	255	255	
255	255	255	
255	255	255	
255	255	255	
255	255	255	
255	255	255	
255	255	255	
255	255	255	
255	255	255	
255	255	255	
255	255	255	
255	255	255	
255	255	255	
255	255	255	
255	255	255	
255	255	255	
255	255	255	
255	255	255	
255	255	255	
255	255	255	
255	255	255	
255	255	255	
255	255	255	
255	255	255	
255	255	255	
255	255	255	
255	255	255	
255	255	255	
255	255	255	
255	255	255	
255	255	255	
255	255	255	
255	255	255	
255	255	255	
255	255	255	
255	255	255	
255	255	255	
255	255	255	
255	255	255	
255	255	255	
255	255	255	
255	255	255	
255	255	255	
255	255	255	
255	255	255	
255	255	255	
255	255	255	
255	255	255	
255	255	255	
255	255	255	
255	255	255	
255	255	255	
255	255	255	
255	255	255	
255	255	255	
255	255	255	
255	255	255	
255	255	255	
255	255	255	
255	255	255	
255	255	255	
255	255	255	
255	255	255	
255	255	255	
255	255	255	
255	255	255	
255	255	255	
255	255	255	
255	255	255	
255	255	255	
255	255	255	
255	255	255	
255	255	255	
255	255	255	
255	255	255	
255	255	255	
255	255	255	
255	255	255	
255	255	255	
255	255	255	
255	255	255	
255	255	255	
255	255	255	
255	255	255	
255	255	255	
255	255	255	
255	255	255	
255	255	255	
255	255	255	
255	255	255	
255	255	255	
255	255	255	
255	255	255	
255	255	255	
255	255	255	
255	255	255	
255	255	255	
255	255	255	
255	255	255	
255	255	255	
255	255	255	
255	255	255	
255	255	255	
255	255	255	
255	255	255	
255	255	255	
255	255	255	
255	255	255	
255	255	255	
255	255	255	
255	255	255	
255	255	255	
255	255	255	
255	255	255	
255	255	255	
255	255	255	
255	255	255	
255	255	255	
255	255	255	
255	255	255	
255	255	255	
255	255	255	
255	255	255	
255	255	255	
255	255	255	
255	255	255	
255	255	255	
255	255	255	
255	255	255	
255	255	255	
255	255	255	
255	255	255	
255	255	255	
255	255	255	
255	255	255	
255	255	255	
255	255	255	
255	255	255	
255	255	255	
255	255	255	
255	255	255	
255	255	255	
255	255	255	
255	255	255	
255	255	255	
255	255	255	
255	255	255	
255	255	255	
255	255	255	
255	255	255	
255	255	255	
255	255	255	
255	255	255	
255	255	255	
255	255	255	
255	255	255	
255	255	255	
255	255	255	
255	255	255	
255	255	255	
255	255	255	
255	255	255	
255	255	255	
255	255	255	
255	255	255	
255	255	255	
255	255	255	
255	255	255	
255	255	255	
255	255	255	
255	255	255	
255	255	255	
255	255	255	
255	255	255	
255	255	255	
255	255	255	
255	255	255	
255	255	255	
255	255	255	
255	255	255	
255	255	255	
255	255	255	
255	255	255	
255	255	255	
255	255	255	
255	255	255	
255	255	255	
255	255	255	
255	255	255	
255	255	255	
255	255	255	
255	255	255	
255	255	255	
255	255	255	
255	255	255	
255	255	255	
125	125	125	
255	255	255	
255	255	255	
255	255	255	
255	255	255	
255	255	255	
255	255	255	
255	255	255	
255	255	255	
255	255	255	
255	255	255	
255	255	255	
255	255	255	
255	255	255	
255	255	255	
255	255	255	
255	255	255	
255	255	255	
255	255	255	
255	255	255	
255	255	255	
255	255	255	
255	255	255	
255	255	255	
255	255	255	
255	255	255	
255	255	255	
255	255	255	
255	255	255	
255	255	255	
255	255	255	
255	255	255	
255	255	255	
255	255	255	
255	255	255	
255	255	255	
255	255	255	
255	255	255	
255	255	255	
255	255	255	
255	255	255	
255	255	255	
255	255	255	
255	255	255	
255	255	255	
255	255	255	
255	255	255	
255	255	255	
255	255	255	
255	255	255	
255	255	255	
255	255	255	
255	255	255	
255	255	255	
255	255	255	
255	255	255	
255	255	255	
255	255	255	
255	255	255	
255	255	255	
255	255	255	
255	255	255	
255	255	255	
255	255	255	
255	255	255	
255	255	255	
255	255	255	
255	255	255	
255	255	255	
255	255	255	
255	255	255	
255	255	255	
255	255	255	
255	255	255	
255	255	255	
255	255	255	
255	255	255	
255	255	255	
255	255	255	
255	255	255	
255	255	255	
255	255	255	
255	255	255	
255	255	255	
255	255	255	
255	255	255	
255	255	255	
255	255	255	
255	255	255	
255	255	255	
255	255	255	
255	255	255	
255	255	255	
255	255	255	
255	255	255	
255	255	255	
255	255	255	
255	255	255	
255	255	255	
255	255	255	
255	255	255	
255	255	255	
255	255	255	
255	255	255	
255	255	255	
255	255	255	
255	255	255	
255	255	255	
255	255	255	
255	255	255	
255	255	255	
255	255	255	
255	255	255	
255	255	255	
255	255	255	
255	255	255	
255	255	255	
255	255	255	
255	255	255	
255	255	255	
255	255	255	
255	255	255	
255	255	255	
255	255	255	
255	255	255	
255	255	255	
255	255	255	
255	255	255	
255	255	255	
255	255	255	
255	255	255	
255	255	255	
255	255	255	
255	255	255	
255	255	255	
255	255	255	
255	255	255	
255	255	255	
255	255	255	
255	255	255	
255	255	255	
255	255	255	
255	255	255	
255	255	255	
255	255	255	
255	255	255	
255	255	255	
255	255	255	
255	255	255	
255	255	255	
255	255	255	
255	255	255	
255	255	255	
255	255	255	
255	255	255	
255	255	255	
255	255	255	
255	255	255	
255	255	255	
255	255	255	
255	255	255	
255	255	255	
255	255	255	
255	255	255	
255	255	255	
255	255	255	
255	255	255	
255	255	255	
255	255	255	
255	255	255	
255	255	255	
255	255	255	
255	255	255	
255	255	255	
255	255	255	
255	255	255	
255	255	255	
255	255	255	
255	255	255	
255	255	255	
255	255	255	
255	255	255	
255	255	255	
255	255	255	
255	255	255	
255	255	255	
255	255	255	
255	255	255	
255	255	255	
255	255	255	
255	255	255	
255	255	255	
255	255	255	
255	255	255	
255	255	255	
255	255	255	
255	255	255	
255	255	255	
255	255	255	
255	255	255	
255	255	255	
255	255	255	
255	255	255	
255	255	255	
255	255	255	
255	255	255	
255	255	255	
255	255	255	
255	255	255	
255	255	255	
255	255	255	
255	255	255	
255	255	255	
255	255	255	
255	255	255	
255	255	255	
255	255	255	
255	255	255	
255	255	255	
255	255	255	
255	255	255	
255	255	255	
255	255	255	
255	255	255	
255	255	255	
255	255	255	
255	255	255	
255	255	255	
255	255	255	
255	255	255	
255	255	255	
255	255	255	
255	255	255	
255	255	255	
255	255	255	
255	255	255	
255	255	255	
255	255	255	
255	255	255	
255	255	255	
255	255	255	
255	255	255	
255	255	255	
255	255	255	
255	255	255	
255	255	255	
255	255	255	
255	255	255	
255	255	255	
255	255	255	
255	255	255	
255	255	255	
255	255	255	
255	255	255	
255	255	255	
255	255	255	
125	125	125	
255	255	255	
255	255	255	
255	255	255	
255	255	255	
255	255	255	
255	255	255	
255	255	255	
255	255	255	
255	255	255	
255	255	255	
255	255	255	
255	255	255	
255	255	255	
255	255	255	
255	255	255	
255	255	255	
255	255	255	
255	255	255	
255	255	255	
255	255	255	
255	255	255	
255	255	255	
255	255	255	
255	255	255	
255	255	255	
255	255	255	
255	255	255	
255	255	255	
255	255	255	
255	255	255	
255	255	255	
255	255	255	
255	255	255	
255	255	255	
255	255	255	
255	255	255	
255	255	255	
255	255	255	
255	255	255	
255	255	255	
255	255	255	
255	255	255	
255	255	255	
255	255	255	
255	255	255	
255	255	255	
255	255	255	
255	255	255	
255	255	255	
255	255	255	
255	255	255	
255	255	255	
255	255	255	
255	255	255	
255	255	255	
255	255	255	
255	255	255	
255	255	255	
255	255	255	
255	255	255	
255	255	255	
255	255	255	
255	255	255	
255	255	255	
255	255	255	
255	255	255	
255	255	255	
255	255	255	
255	255	255	
255	255	255	
255	255	255	
255	255	255	
255	255	255	
255	255	255	
255	255	255	
255	255	255	
255	255	255	
255	255	255	
255	255	255	
255	255	255	
255	255	255	
255	255	255	
255	255	255	
255	255	255	
255	255	255	
255	255	255	
255	255	255	
255	255	255	
255	255	255	
255	255	255	
255	255	255	
255	255	255	
255	255	255	
255	255	255	
255	255	255	
255	255	255	
255	255	255	
255	255	255	
255	255	255	
255	255	255	
255	255	255	
255	255	255	
255	255	255	
255	255	255	
255	255	255	
255	255	255	
255	255	255	
255	255	255	
255	255	255	
255	255	255	
255	255	255	
255	255	255	
255	255	255	
255	255	255	
255	255	255	
255	255	255	
255	255	255	
255	255	255	
255	255	255	
255	255	255	
255	255	255	
255	255	255	
255	255	255	
255	255	255	
255	255	255	
255	255	255	
255	255	255	
255	255	255	
255	255	255	
255	255	255	
255	255	255	
255	255	255	
255	255	255	
255	255	255	
255	255	255	
255	255	255	
255	255	255	
255	255	255	
255	255	255	
255	255	255	
255	255	255	
255	255	255	
255	255	255	
255	255	255	
255	255	255	
255	255	255	
255	255	255	
255	255	255	
255	255	255	
255	255	255	
255	255	255	
255	255	255	
255	255	255	
255	255	255	
255	255	255	
255	255	255	
255	255	255	
255	255	255	
255	255	255	
255	255	255	
255	255	255	
255	255	255	
255	255	255	
255	255	255	
255	255	255	
255	255	255	
255	255	255	
255	255	255	
255	255	255	
255	255	255	
255	255	255	
255	255	255	
255	255	255	
255	255	255	
255	255	255	
255	255	255	
255	255	255	
255	255	255	
255	255	255	
255	255	255	
255	255	255	
255	255	255	
255	255	255	
255	255	255	
255	255	255	
255	255	255	
255	255	255	
255	255	255	
255	255	255	
255	255	255	
255	255	255	
255	255	255	
255	255	255	
255	255	255	
255	255	255	
255	255	255	
255	255	255	
255	255	255	
255	255	255	
255	255	255	
255	255	255	
255	255	255	
255	255	255	
255	255	255	
255	255	255	
255	255	255	
255	255	255	
255	255	255	
255	255	255	
255	255	255	
255	255	255	
255	255	255	
255	255	255	
255	255	255	
255	255	255	
255	255	255	
255	255	255	
255	255	255	
255	255	255	
255	255	255	
255	255	255	
255	255	255	
255	255	255	
255	255	255	
255	255	255	
255	255	255	
255	255	255	
255	255	255	
255	255	255	
255	255	255	
255	255	255	
255	255	255	
255	255	255	
255	255	255	
255	255	255	
255	255	255	
255	255	255	
255	255	255	
255	255	255	
255	255	255	
255	255	255	
255	255	255	
255	255	255	
255	255	255	
255	255	255	
255	255	255	
255	255	255	
255	255	255	
255	255	255	
255	255	255	
255	255	255	
255	255	255	
255	255	255	
255	255	255	
255	255	255	
125	125	125	
255	255	255	
255	255	255	
255	255	255	
255	255	255	
255	255	255	
255	255	255	
255	255	255	
255	255	255	
255	255	255	
255	255	255	
255	255	255	
255	255	255	
255	255	255	
255	255	255	
255	255	255	
255	255	255	
255	255	255	
255	255	255	
255	255	255	
255	255	255	
255	255	255	
255	255	255	
255	255	255	
255	255	255	
255	255	255	
255	255	255	
255	255	255	
255	255	255	
255	255	255	
255	255	255	
255	255	255	
255	255	255	
255	255	255	
255	255	255	
255	255	255	
255	255	255	
255	255	255	
255	255	255	
255	255	255	
255	255	255	
255	255	255	
255	255	255	
255	255	255	
255	255	255	
255	255	255	
255	255	255	
255	255	255	
255	255	255	
255	255	255	
255	255	255	
255	255	255	
255	255	255	
255	255	255	
255	255	255	
255	255	255	
255	255	255	
255	255	255	
255	255	255	
255	255	255	
255	255	255	
255	255	255	
255	255	255	
255	255	255	
255	255	255	
255	255	255	
255	255	255	
255	255	255	
255	255	255	
255	255	255	
255	255	255	
255	255	255	
255	255	255	
255	255	255	
255	255	255	
255	255	255	
255	255	255	
255	255	255	
255	255	255	
255	255	255	
255	255	255	
255	255	255	
255	255	255	
255	255	255	
255	255	255	
255	255	255	
255	255	255	
255	255	255	
255	255	255	
255	255	255	
255	255	255	
255	255	255	
255	255	255	
255	255	255	
255	255	255	
255	255	255	
255	255	255	
255	255	255	
255	255	255	
255	255	255	
255	255	255	
255	255	255	
255	255	255	
255	255	255	
255	255	255	
255	255	255	
255	255	255	
255	255	255	
255	255	255	
255	255	255	
255	255	255	
255	255	255	
255	255	255	
255	255	255	
255	255	255	
255	255	255	
255	255	255	
255	255	255	
255	255	255	
255	255	255	
255	255	255	
255	255	255	
255	255	255	
255	255	255	
255	255	255	
255	255	255	
255	255	255	
255	255	255	
255	255	255	
255	255	255	
255	255	255	
255	255	255	
255	255	255	
255	255	255	
255	255	255	
255	255	255	
255	255	255	
255	255	255	
255	255	255	
255	255	255	
255	255	255	
255	255	255	
255	255	255	
255	255	255	
255	255	255	
255	255	255	
255	255	255	
255	255	255	
255	255	255	
255	255	255	
255	255	255	
255	255	255	
255	255	255	
255	255	255	
255	255	255	
255	255	255	
255	255	255	
255	255	255	
255	255	255	
255	255	255	
255	255	255	
255	255	255	
255	255	255	
255	255	255	
255	255	255	
255	255	255	
255	255	255	
255	255	255	
255	255	255	
255	255	255	
255	255	255	
255	255	255	
255	255	255	
255	255	255	
255	255	255	
255	255	255	
255	255	255	
255	255	255	
255	255	255	
255	255	255	
255	255	255	
255	255	255	
255	255	255	
255	255	255	
255	255	255	
255	255	255	
255	255	255	
255	255	255	
255	255	255	
255	255	255	
255	255	255	
255	255	255	
255	255	255	
255	255	255	
255	255	255	
255	255	255	
255	255	255	
255	255	255	
255	255	255	
255	255	255	
255	255	255	
255	255	255	
255	255	255	
255	255	255	
255	255	255	
255	255	255	
255	255	255	
255	255	255	
255	255	255	
255	255	255	
255	255	255	
255	255	255	
255	255	255	
255	255	255	
255	255	255	
255	255	255	
255	255	255	
255	255	255	
255	255	255	
255	255	255	
255	255	255	
255	255	255	
255	255	255	
255	255	255	
255	255	255	
255	255	255	
255	255	255	
255	255	255	
255	255	255	
255	255	255	
255	255	255	
255	255	255	
255	255	255	
255	255	255	
255	255	255	
255	255	255	
255	255	255	
255	255	255	
255	255	255	
255	255	255	
255	255	255	
255	255	255	
255	255	255	
255	255	255	
255	255	255	
255	255	255	
255	255	255	
255	255	255	
255	255	255	
255	255	255	
255	255	255	
255	255	255	
255	255	255	
255	255	255	
255	255	255	
255	255	255	
125	125	125	
255	255	255	
255	255	255	
255	255	255	
255	255	255	
255	255	255	
255	255	255	
255	255	255	
255	255	255	
255	255	255	
255	255	255	
255	255	255	
255	255	255	
255	255	255	
255	255	255	
255	255	255	
255	255	255	
255	255	255	
255	255	255	
255	255	255	
255	255	255	
255	255	255	
255	255	255	
255	255	255	
255	255	255	
255	255	255	
255	255	255	
255	255	255	
255	255	255	
255	255	255	
255	255	255	
255	255	255	
255	255	255	
255	255	255	
255	255	255	
255	255	255	
255	255	255	
255	255	255	
255	255	255	
255	255	255	
255	255	255	
255	255	255	
255	255	255	
255	255	255	
255	255	255	
255	255	255	
255	255	255	
255	255	255	
255	255	255	
255	255	255	
255	255	255	
255	255	255	
255	255	255	
255	255	255	
255	255	255	
255	255	255	
255	255	255	
255	255	255	
255	255	255	
255	255	255	
255	255	255	
255	255	255	
255	255	255	
255	255	255	
255	255	255	
255	255	255	
255	255	255	
255	255	255	
255	255	255	
255	255	255	
255	255	255	
255	255	255	
255	255	255	
255	255	255	
255	255	255	
255	255	255	
255	255	255	
255	255	255	
255	255	255	
255	255	255	
255	255	255	
255	255	255	
255	255	255	
255	255	255	
255	255	255	
255	255	255	
255	255	255	
255	255	255	
255	255	255	
255	255	255	
255	255	255	
255	255	255	
255	255	255	
255	255	255	
255	255	255	
255	255	255	
255	255	255	
255	255	255	
255	255	255	
255	255	255	
255	255	255	
255	255	255	
255	255	255	
255	255	255	
255	255	255	
255	255	255	
255	255	255	
255	255	255	
255	255	255	
255	255	255	
255	255	255	
255	255	255	
255	255	255	
255	255	255	
255	255	255	
255	255	255	
255	255	255	
255	255	255	
255	255	255	
255	255	255	
255	255	255	
255	255	255	
255	255	255	
255	255	255	
255	255	255	
255	255	255	
255	255	255	
255	255	255	
255	255	255	
255	255	255	
255	255	255	
255	255	255	
255	255	255	
255	255	255	
255	255	255	
255	255	255	
255	255	255	
255	255	255	
255	255	255	
255	255	255	
255	255	255	
255	255	255	
255	255	255	
255	255	255	
255	255	255	
255	255	255	
255	255	255	
255	255	255	
255	255	255	
255	255	255	
255	255	255	
255	255	255	
255	255	255	
255	255	255	
255	255	255	
255	255	255	
255	255	255	
255	255	255	
255	255	255	
255	255	255	
255	255	255	
255	255	255	
255	255	255	
255	255	255	
255	255	255	
255	255	255	
255	255	255	
255	255	255	
255	255	255	
255	255	255	
255	255	255	
255	255	255	
255	255	255	
255	255	255	
255	255	255	
255	255	255	
255	255	255	
255	255	255	
255	255	255	
255	255	255	
255	255	255	
255	255	255	
255	255	255	
255	255	255	
255	255	255	
255	255	255	
255	255	255	
255	255	255	
255	255	255	
255	255	255	
255	255	255	
255	255	255	
255	255	255	
255	255	255	
255	255	255	
255	255	255	
255	255	255	
255	255	255	
255	255	255	
255	255	255	
255	255	255	
255	255	255	
255	255	255	
255	255	255	
255	255	255	
255	255	255	
255	255	255	
255	255	255	
255	255	255	
255	255	255	
255	255	255	
255	255	255	
255	255	255	
255	255	255	
255	255	255	
255	255	255	
255	255	255	
255	255	255	
255	255	255	
255	255	255	
255	255	255	
255	255	255	
255	255	255	
255	255	255	
255	255	255	
255	255	255	
255	255	255	
255	255	255	
255	255	255	
255	255	255	
255	255	255	
255	255	255	
255	255	255	
255	255	255	
255	255	255	
255	255	255	
255	255	255	
255	255	255	
255	255	255	
255	255	255	
255	255	255	
255	255	255	
255	255	255	
255	255	255	
255	255	255	
255	255	255	
255	255	255	
255	255	255	
255	255	255	
255	255	255	
255	255	255	
255	255	255	
255	255	255	
255	255	255	
255	255	255	
255	255	255	
125	125	125	
255	255	255	
255	255	255	
255	255	255	
255	255	255	
255	255	255	
255	255	255	
255	255	255	
255	255	255	
255	255	255	
255	255	255	
255	255	255	
255	255	255	
255	255	255	
255	255	255	
255	255	255	
255	255	255	
255	255	255	
255	255	255	
255	255	255	
255	255	255	
255	255	255	
255	255	255	
255	255	255	
255	255	255	
255	255	255	
255	255	255	
255	255	255	
255	255	255	
255	255	255	
255	255	255	
255	255	255	
255	255	255	
255	255	255	
255	255	255	
255	255	255	
255	255	255	
255	255	255	
255	255	255	
255	255	255	
255	255	255	
255	255	255	
255	255	255	
255	255	255	
255	255	255	
255	255	255	
255	255	255	
255	255	255	
255	255	255	
255	255	255	
255	255	255	
255	255	255	
255	255	255	
255	255	255	
255	255	255	
255	255	255	
255	255	255	
255	255	255	
255	255	255	
255	255	255	
255	255	255	
255	255	255	
255	255	255	
255	255	255	
255	255	255	
255	255	255	
255	255	255	
255	255	255	
255	255	255	
255	255	255	
255	255	255	
255	255	255	
255	255	255	
255	255	255	
255	255	255	
255	255	255	
255	255	255	
255	255	255	
255	255	255	
255	255	255	
255	255	255	
255	255	255	
255	255	255	
255	255	255	
255	255	255	
255	255	255	
255	255	255	
255	255	255	
255	255	255	
255	255	255	
255	255	255	
255	255	255	
255	255	255	
255	255	255	
255	255	255	
255	255	255	
255	255	255	
255	255	255	
255	255	255	
255	255	255	
255	255	255	
255	255	255	
255	255	255	
255	255	255	
255	255	255	
255	255	255	
255	255	255	
255	255	255	
255	255	255	
255	255	255	
255	255	255	
255	255	255	
255	255	255	
255	255	255	
255	255	255	
255	255	255	
255	255	255	
255	255	255	
255	255	255	
255	255	255	
255	255	255	
255	255	255	
255	255	255	
255	255	255	
255	255	255	
255	255	255	
255	255	255	
255	255	255	
255	255	255	
255	255	255	
255	255	255	
255	255	255	
255	255	255	
255	255	255	
255	255	255	
255	255	255	
255	255	255	
255	255	255	
255	255	255	
255	255	255	
255	255	255	
255	255	255	
255	255	255	
255	255	255	
255	255	255	
255	255	255	
255	255	255	
255	255	255	
255	255	255	
255	255	255	
255	255	255	
255	255	255	
255	255	255	
255	255	255	
255	255	255	
255	255	255	
255	255	255	
255	255	255	
255	255	255	
255	255	255	
255	255	255	
255	255	255	
255	255	255	
255	255	255	
255	255	255	
255	255	255	
255	255	255	
255	255	255	
255	255	255	
255	255	255	
255	255	255	
255	255	255	
255	255	255	
255	255	255	
255	255	255	
255	255	255	
255	255	255	
255	255	255	
255	255	255	
255	255	255	
255	255	255	
255	255	255	
255	255	255	
255	255	255	
255	255	255	
255	255	255	
255	255	255	
255	255	255	
255	255	255	
255	255	255	
255	255	255	
255	255	255	
255	255	255	
255	255	255	
255	255	255	
255	255	255	
255	255	255	
255	255	255	
255	255	255	
255	255	255	
255	255	255	
255	255	255	
255	255	255	
255	255	255	
255	255	255	
255	255	255	
255	255	255	
255	255	255	
255	255	255	
255	255	255	
255	255	255	
255	255	255	
255	255	255	
255	255	255	
255	255	255	
255	255	255	
255	255	255	
255	255	255	
255	255	255	
255	255	255	
255	255	255	
255	255	255	
255	255	255	
255	255	255	
255	255	255	
255	255	255	
255	255	255	
255	255	255	
255	255	255	
255	255	255	
255	255	255	
255	255	255	
255	255	255	
255	255	255	
255	255	255	
255	255	255	
255	255	255	
255	255	255	
255	255	255	
255	255	255	
255	255	255	
255	255	255	
255	255	255	
255	255	255	
255	255	255	
255	255	255	
255	255	255	
255	255	255	
255	255	255	
255	255	255	
255	255	255	
255	255	255	
255	255	255	
255	255	255	
255	255	255	
255	255	255	
125	125	125	
255	255	255	
255	255	255	
255	255	255	
255	255	255	
255	255	255	
255	255	255	
255	255	255	
255	255	255	
255	255	255	
255	255	255	
255	255	255	
255	255	255	
255	255	255	
255	255	255	
255	255	255	
255	255	255	
255	255	255	
255	255	255	
255	255	255	
255	255	255	
255	255	255	
255	255	255	
255	255	255	
255	255	255	
255	255	255	
255	255	255	
255	255	255	
255	255	255	
255	255	255	
255	255	255	
255	255	255	
255	255	255	
255	255	255	
255	255	255	
255	255	255	
255	255	255	
255	255	255	
255	255	255	
255	255	255	
255	255	255	
255	255	255	
255	255	255	
255	255	255	
255	255	255	
255	255	255	
255	255	255	
255	255	255	
255	255	255	
255	255	255	
255	255	255	
255	255	255	
255	255	255	
255	255	255	
255	255	255	
255	255	255	
255	255	255	
255	255	255	
255	255	255	
255	255	255	
255	255	255	
255	255	255	
255	255	255	
255	255	255	
255	255	255	
255	255	255	
255	255	255	
255	255	255	
255	255	255	
255	255	255	
255	255	255	
255	255	255	
255	255	255	
255	255	255	
255	255	255	
255	255	255	
255	255	255	
255	255	255	
255	255	255	
255	255	255	
255	255	255	
255	255	255	
255	255	255	
255	255	255	
255	255	255	
255	255	255	
255	255	255	
255	255	255	
255	255	255	
255	255	255	
255	255	255	
255	255	255	
255	255	255	
255	255	255	
255	255	255	
255	255	255	
255	255	255	
255	255	255	
255	255	255	
255	255	255	
255	255	255	
255	255	255	
255	255	255	
255	255	255	
255	255	255	
255	255	255	
255	255	255	
255	255	255	
255	255	255	
255	255	255	
255	255	255	
255	255	255	
255	255	255	
255	255	255	
255	255	255	
255	255	255	
255	255	255	
255	255	255	
255	255	255	
255	255	255	
255	255	255	
255	255	255	
255	255	255	
255	255	255	
255	255	255	
255	255	255	
255	255	255	
255	255	255	
255	255	255	
255	255	255	
255	255	255	
255	255	255	
255	255	255	
255	255	255	
255	255	255	
255	255	255	
255	255	255	
255	255	255	
255	255	255	
255	255	255	
255	255	255	
255	255	255	
255	255	255	
255	255	255	
255	255	255	
255	255	255	
255	255	255	
255	255	255	
255	255	255	
255	255	255	
255	255	255	
255	255	255	
255	255	255	
255	255	255	
255	255	255	
255	255	255	
255	255	255	
255	255	255	
255	255	255	
255	255	255	
255	255	255	
255	255	255	
255	255	255	
255	255	255	
255	255	255	
255	255	255	
255	255	255	
255	255	255	
255	255	255	
255	255	255	
255	255	255	
255	255	255	
255	255	255	
255	255	255	
255	255	255	
255	255	255	
255	255	255	
255	255	255	
255	255	255	
255	255	255	
255	255	255	
255	255	255	
255	255	255	
255	255	255	
255	255	255	
255	255	255	
255	255	255	
255	255	255	
255	255	255	
255	255	255	
255	255	255	
255	255	255	
255	255	255	
255	255	255	
255	255	255	
255	255	255	
255	255	255	
255	255	255	
255	255	255	
255	255	255	
255	255	255	
255	255	255	
255	255	255	
255	255	255	
255	255	255	
255	255	255	
255	255	255	
255	255	255	
255	255	255	
255	255	255	
255	255	255	
255	255	255	
255	255	255	
255	255	255	
255	255	255	
255	255	255	
255	255	255	
255	255	255	
255	255	255	
255	255	255	
255	255	255	
255	255	255	
255	255	255	
255	255	255	
255	255	255	
255	255	255	
255	255	255	
255	255	255	
255	255	255	
255	255	255	
255	255	255	
255	255	255	
255	255	255	
255	255	255	
255	255	255	
255	255	255	
255	255	255	
255	255	255	
255	255	255	
255	255	255	
255	255	255	
255	255	255	
255	255	255	
255	255	255	
255	255	255	
255	255	255	
255	255	255	
255	255	255	
255	255	255	
255	255	255	
255	255	255	
255	255	255	
255	255	255	
255	255	255	
255	255	255	
255	255	255	
125	125	125	
255	255	255	
255	255	255	
255	255	255	
255	255	255	
255	255	255	
255	255	255	
255	255	255	
255	255	255	
255	255	255	
255	255	255	
255	255	255	
255	255	255	
255	255	255	
255	255	255	
255	255	255	
255	255	255	
255	255	255	
255	255	255	
255	255	255	
255	255	255	
255	255	255	
255	255	255	
255	255	255	
255	255	255	
255	255	255	
255	255	255	
255	255	255	
255	255	255	
255	255	255	
255	255	255	
255	255	255	
255	255	255	
255	255	255	
255	255	255	
255	255	255	
255	255	255	
255	255	255	
255	255	255	
255	255	255	
255	255	255	
255	255	255	
255	255	255	
255	255	255	
255	255	255	
255	255	255	
255	255	255	
255	255	255	
255	255	255	
255	255	255	
255	255	255	
255	255	255	
255	255	255	
255	255	255	
255	255	255	
255	255	255	
255	255	255	
255	255	255	
255	255	255	
255	255	255	
255	255	255	
255	255	255	
255	255	255	
255	255	255	
255	255	255	
255	255	255	
255	255	255	
255	255	255	
255	255	255	
255	255	255	
255	255	255	
255	255	255	
255	255	255	
255	255	255	
255	255	255	
255	255	255	
255	255	255	
255	255	255	
255	255	255	
255	255	255	
255	255	255	
255	255	255	
255	255	255	
255	255	255	
255	255	255	
255	255	255	
255	255	255	
255	255	255	
255	255	255	
255	255	255	
255	255	255	
255	255	255	
255	255	255	
255	255	255	
255	255	255	
255	255	255	
255	255	255	
255	255	255	
255	255	255	
255	255	255	
255	255	255	
255	255	255	
255	255	255	
255	255	255	
255	255	255	
255	255	255	
255	255	255	
255	255	255	
255	255	255	
255	255	255	
255	255	255	
255	255	255	
255	255	255	
255	255	255	
255	255	255	
255	255	255	
255	255	255	
255	255	255	
255	255	255	
255	255	255	
255	255	255	
255	255	255	
255	255	255	
255	255	255	
255	255	255	
255	255	255	
255	255	255	
255	255	255	
255	255	255	
255	255	255	
255	255	255	
255	255	255	
255	255	255	
255	255	255	
255	255	255	
255	255	255	
255	255	255	
255	255	255	
255	255	255	
255	255	255	
255	255	255	
255	255	255	
255	255	255	
255	255	255	
255	255	255	
255	255	255	
255	255	255	
255	255	255	
255	255	255	
255	255	255	
255	255	255	
255	255	255	
255	255	255	
255	255	255	
255	255	255	
255	255	255	
255	255	255	
255	255	255	
255	255	255	
255	255	255	
255	255	255	
255	255	255	
255	255	255	
255	255	255	
255	255	255	
255	255	255	
255	255	255	
255	255	255	
255	255	255	
255	255	255	
255	255	255	
255	255	255	
255	255	255	
255	255	255	
255	255	255	
255	255	255	
255	255	255	
255	255	255	
255	255	255	
255	255	255	
255	255	255	
255	255	255	
255	255	255	
255	255	255	
255	255	255	
255	255	255	
255	255	255	
255	255	255	
255	255	255	
255	255	255	
255	255	255	
255	255	255	
255	255	255	
255	255	255	
255	255	255	
255	255	255	
255	255	255	
255	255	255	
255	255	255	
255	255	255	
255	255	255	
255	255	255	
255	255	255	
255	255	255	
255	255	255	
255	255	255	
255	255	255	
255	255	255	
255	255	255	
255	255	255	
255	255	255	
255	255	255	
255	255	255	
255	255	255	
255	255	255	
255	255	255	
255	255	255	
255	255	255	
255	255	255	
255	255	255	
255	255	255	
255	255	255	
255	255	255	
255	255	255	
255	255	255	
255	255	255	
255	255	255	
255	255	255	
255	255	255	
255	255	255	
255	255	255	
255	255	255	
255	255	255	
255	255	255	
255	255	255	
255	255	255	
255	255	255	
255	255	255	
255	255	255	
255	255	255	
255	255	255	
255	255	255	
255	255	255	
255	255	255	
255	255	255	
255	255	255	
255	255	255	
255	255	255	
255	255	255	
255	255	255	
255	255	255	
255	255	255	
255	255	255	
255	255	255	
255	255	255	
255	255	255	
125	125	125	
255	255	255	
255	255	255	
255	255	255	
255	255	255	
255	255	255	
255	255	255	
255	255	255	
255	255	255	
255	255	255	
255	255	255	
255	255	255	
255	255	255	
255	255	255	
255	255	255	
255	255	255	
255	255	255	
255	255	255	
255	255	255	
255	255	255	
255	255	255	
255	255	255	
255	255	255	
255	255	255	
255	255	255	
255	255	255	
255	255	255	
255	255	255	
255	255	255	
255	255	255	
255	255	255	
255	255	255	
255	255	255	
255	255	255	
255	255	255	
255	255	255	
255	255	255	
255	255	255	
255	255	255	
255	255	255	
255	255	255	
255	255	255	
255	255	255	
255	255	255	
255	255	255	
255	255	255	
255	255	255	
255	255	255	
255	255	255	
255	255	255	
255	255	255	
255	255	255	
255	255	255	
255	255	255	
255	255	255	
255	255	255	
255	255	255	
255	255	255	
255	255	255	
255	255	255	
255	255	255	
255	255	255	
255	255	255	
255	255	255	
255	255	255	
255	255	255	
255	255	255	
255	255	255	
255	255	255	
255	255	255	
255	255	255	
255	255	255	
255	255	255	
255	255	255	
255	255	255	
255	255	255	
255	255	255	
255	255	255	
255	255	255	
255	255	255	
255	255	255	
255	255	255	
255	255	255	
255	255	255	
255	255	255	
255	255	255	
255	255	255	
255	255	255	
255	255	255	
255	255	255	
255	255	255	
255	255	255	
255	255	255	
255	255	255	
255	255	255	
255	255	255	
255	255	255	
255	255	255	
255	255	255	
255	255	255	
255	255	255	
255	255	255	
255	255	255	
255	255	255	
255	255	255	
255	255	255	
255	255	255	
255	255	255	
255	255	255	
255	255	255	
255	255	255	
255	255	255	
255	255	255	
255	255	255	
255	255	255	
255	255	255	
255	255	255	
255	255	255	
255	255	255	
255	255	255	
255	255	255	
255	255	255	
255	255	255	
255	255	255	
255	255	255	
255	255	255	
255	255	255	
255	255	255	
255	255	255	
255	255	255	
255	255	255	
255	255	255	
255	255	255	
255	255	255	
255	255	255	
255	255	255	
255	255	255	
255	255	255	
255	255	255	
255	255	255	
255	255	255	
255	255	255	
255	255	255	
255	255	255	
255	255	255	
255	255	255	
255	255	255	
255	255	255	
255	255	255	
255	255	255	
255	255	255	
255	255	255	
255	255	255	
255	255	255	
255	255	255	
255	255	255	
255	255	255	
255	255	255	
255	255	255	
255	255	255	
255	255	255	
255	255	255	
255	255	255	
255	255	255	
255	255	255	
255	255	255	
255	255	255	
255	255	255	
255	255	255	
255	255	255	
255	255	255	
255	255	255	
255	255	255	
255	255	255	
255	255	255	
255	255	255	
255	255	255	
255	255	255	
255	255	255	
255	255	255	
255	255	255	
255	255	255	
255	255	255	
255	255	255	
255	255	255	
255	255	255	
255	255	255	
255	255	255	
255	255	255	
255	255	255	
255	255	255	
255	255	255	
255	255	255	
255	255	255	
255	255	255	
255	255	255	
255	255	255	
255	255	255	
255	255	255	
255	255	255	
255	255	255	
255	255	255	
255	255	255	
255	255	255	
255	255	255	
255	255	255	
255	255	255	
255	255	255	
255	255	255	
255	255	255	
255	255	255	
255	255	255	
255	255	255	
255	255	255	
255	255	255	
255	255	255	
255	255	255	
255	255	255	
255	255	255	
255	255	255	
255	255	255	
255	255	255	
255	255	255	
255	255	255	
255	255	255	
255	255	255	
255	255	255	
255	255	255	
255	255	255	
255	255	255	
255	255	255	
255	255	255	
255	255	255	
255	255	255	
255	255	255	
255	255	255	
255	255	255	
255	255	255	
255	255	255	
255	255	255	
255	255	255	
255	255	255	
255	255	255	
255	255	255	
255	255	255	
255	255	255	
255	255	255	
255	255	255	
255	255	255	
255	255	255	
255	255	255	
255	255	255	
255	255	255	
255	255	255	
255	255	255	
255	255	255	
125	125	125	
255	255	255	
255	255	255	
255	255	255	
255	255	255	
255	255	255	
255	255	255	
255	255	255	
255	255	255	
255	255	255	
255	255	255	
255	255	255	
255	255	255	
255	255	255	
255	255	255	
255	255	255	
255	255	255	
255	255	255	
255	255	255	
255	255	255	
255	255	255	
255	255	255	
255	255	255	
255	255	255	
255	255	255	
255	255	255	
255	255	255	
255	255	255	
255	255	255	
255	255	255	
255	255	255	
255	255	255	
255	255	255	
255	255	255	
255	255	255	
255	255	255	
255	255	255	
255	255	255	
255	255	255	
255	255	255	
255	255	255	
255	255	255	
255	255	255	
255	255	255	
255	255	255	
255	255	255	
255	255	255	
255	255	255	
255	255	255	
255	255	255	
255	255	255	
255	255	255	
255	255	255	
255	255	255	
255	255	255	
255	255	255	
255	255	255	
255	255	255	
255	255	255	
255	255	255	
255	255	255	
255	255	255	
255	255	255	
255	255	255	
255	255	255	
255	255	255	
255	255	255	
255	255	255	
255	255	255	
255	255	255	
255	255	255	
255	255	255	
255	255	255	
255	255	255	
255	255	255	
255	255	255	
255	255	255	
255	255	255	
255	255	255	
255	255	255	
255	255	255	
255	255	255	
255	255	255	
255	255	255	
255	255	255	
255	255	255	
255	255	255	
255	255	255	
255	255	255	
255	255	255	
255	255	255	
255	255	255	
255	255	255	
255	255	255	
255	255	255	
255	255	255	
255	255	255	
255	255	255	
255	255	255	
255	255	255	
255	255	255	
255	255	255	
255	255	255	
255	255	255	
255	255	255	
255	255	255	
255	255	255	
255	255	255	
255	255	255	
255	255	255	
255	255	255	
255	255	255	
255	255	255	
255	255	255	
255	255	255	
255	255	255	
255	255	255	
255	255	255	
255	255	255	
255	255	255	
255	255	255	
255	255	255	
255	255	255	
255	255	255	
255	255	255	
255	255	255	
255	255	255	
255	255	255	
255	255	255	
255	255	255	
255	255	255	
255	255	255	
255	255	255	
255	255	255	
255	255	255	
255	255	255	
255	255	255	
255	255	255	
255	255	255	
255	255	255	
255	255	255	
255	255	255	
255	255	255	
255	255	255	
255	255	255	
255	255	255	
255	255	255	
255	255	255	
255	255	255	
255	255	255	
255	255	255	
255	255	255	
255	255	255	
255	255	255	
255	255	255	
255	255	255	
255	255	255	
255	255	255	
255	255	255	
255	255	255	
255	255	255	
255	255	255	
255	255	255	
255	255	255	
255	255	255	
255	255	255	
255	255	255	
255	255	255	
255	255	255	
255	255	255	
255	255	255	
255	255	255	
255	255	255	
255	255	255	
255	255	255	
255	255	255	
255	255	255	
255	255	255	
255	255	255	
255	255	255	
255	255	255	
255	255	255	
255	255	255	
255	255	255	
255	255	255	
255	255	255	
255	255	255	
255	255	255	
255	255	255	
255	255	255	
255	255	255	
255	255	255	
255	255	255	
255	255	255	
255	255	255	
255	255	255	
255	255	255	
255	255	255	
255	255	255	
255	255	255	
255	255	255	
255	255	255	
255	255	255	
255	255	255	
255	255	255	
255	255	255	
255	255	255	
255	255	255	
255	255	255	
255	255	255	
255	255	255	
255	255	255	
255	255	255	
255	255	255	
255	255	255	
255	255	255	
255	255	255	
255	255	255	
255	255	255	
255	255	255	
255	255	255	
255	255	255	
255	255	255	
255	255	255	
255	255	255	
255	255	255	
255	255	255	
255	255	255	
255	255	255	
255	255	255	
255	255	255	
255	255	255	
255	255	255	
255	255	255	
255	255	255	
255	255	255	
255	255	255	
255	255	255	
255	255	255	
255	255	255	
255	255	255	
255	255	255	
255	255	255	
255	255	255	
255	255	255	
255	255	255	
255	255	255	
255	255	255	
255	255	255	
255	255	255	
255	255	255	
255	255	255	
255	255	255	
255	255	255	
255	255	255	
255	255	255	
125	125	125	
255	255	255	
255	255	255	
255	255	255	
255	255	255	
255	255	255	
255	255	255	
255	255	255	
255	255	255	
255	255	255	
255	255	255	
255	255	255	
255	255	255	
255	255	255	
255	255	255	
255	255	255	
255	255	255	
255	255	255	
255	255	255	
255	255	255	
255	255	255	
255	255	255	
255	255	255	
255	255	255	
255	255	255	
255	255	255	
255	255	255	
255	255	255	
255	255	255	
255	255	255	
255	255	255	
255	255	255	
255	255	255	
255	255	255	
255	255	255	
255	255	255	
255	255	255	
255	255	255	
255	255	255	
255	255	255	
255	255	255	
255	255	255	
255	255	255	
255	255	255	
255	255	255	
255	255	255	
255	255	255	
255	255	255	
255	255	255	
255	255	255	
255	255	255	
255	255	255	
255	255	255	
255	255	255	
255	255	255	
255	255	255	
255	255	255	
255	255	255	
255	255	255	
255	255	255	
255	255	255	
255	255	255	
255	255	255	
255	255	255	
255	255	255	
255	255	255	
255	255	255	
255	255	255	
255	255	255	
255	255	255	
255	255	255	
255	255	255	
255	255	255	
255	255	255	
255	255	255	
255	255	255	
255	255	255	
255	255	255	
255	255	255	
255	255	255	
255	255	255	
255	255	255	
255	255	255	
255	255	255	
255	255	255	
255	255	255	
255	255	255	
255	255	255	
255	255	255	
255	255	255	
255	255	255	
255	255	255	
255	255	255	
255	255	255	
255	255	255	
255	255	255	
255	255	255	
255	255	255	
255	255	255	
255	255	255	
255	255	255	
255	255	255	
255	255	255	
255	255	255	
255	255	255	
255	255	255	
255	255	255	
255	255	255	
255	255	255	
255	255	255	
255	255	255	
255	255	255	
255	255	255	
255	255	255	
255	255	255	
255	255	255	
255	255	255	
255	255	255	
255	255	255	
255	255	255	
255	255	255	
255	255	255	
255	255	255	
255	255	255	
255	255	255	
255	255	255	
255	255	255	
255	255	255	
255	255	255	
255	255	255	
255	255	255	
255	255	255	
255	255	255	
255	255	255	
255	255	255	
255	255	255	
255	255	255	
255	255	255	
255	255	255	
255	255	255	
255	255	255	
255	255	255	
255	255	255	
255	255	255	
255	255	255	
255	255	255	
255	255	255	
255	255	255	
255	255	255	
255	255	255	
255	255	255	
255	255	255	
255	255	255	
255	255	255	
255	255	255	
255	255	255	
255	255	255	
255	255	255	
255	255	255	
255	255	255	
255	255	255	
255	255	255	
255	255	255	
255	255	255	
255	255	255	
255	255	255	
255	255	255	
255	255	255	
255	255	255	
255	255	255	
255	255	255	
255	255	255	
255	255	255	
255	255	255	
255	255	255	
255	255	255	
255	255	255	
255	255	255	
255	255	255	
255	255	255	
255	255	255	
255	255	255	
255	255	255	
255	255	255	
255	255	255	
255	255	255	
255	255	255	
255	255	255	
255	255	255	
255	255	255	
255	255	255	
255	255	255	
255	255	255	
255	255	255	
255	255	255	
255	255	255	
255	255	255	
255	255	255	
255	255	255	
255	255	255	
255	255	255	
255	255	255	
255	255	255	
255	255	255	
255	255	255	
255	255	255	
255	255	255	
255	255	255	
255	255	255	
255	255	255	
255	255	255	
255	255	255	
255	255	255	
255	255	255	
255	255	255	
255	255	255	
255	255	255	
255	255	255	
255	255	255	
255	255	255	
255	255	255	
255	255	255	
255	255	255	
255	255	255	
255	255	255	
255	255	255	
255	255	255	
255	255	255	
255	255	255	
255	255	255	
255	255	255	
255	255	255	
255	255	255	
255	255	255	
255	255	255	
255	255	255	
255	255	255	
255	255	255	
255	255	255	
255	255	255	
255	255	255	
255	255	255	
255	255	255	
255	255	255	
255	255	255	
255	255	255	
255	255	255	
255	255	255	
255	255	255	
255	255	255	
255	255	255	
255	255	255	
255	255	255	
255	255	255	
255	255	255	
255	255	255	
255	255	255	
125	125	125	
255	255	255	
255	255	255	
255	255	255	
255	255	255	
255	255	255	
255	255	255	
255	255	255	
255	255	255	
255	255	255	
255	255	255	
255	255	255	
255	255	255	
255	255	255	
255	255	255	
255	255	255	
255	255	255	
255	255	255	
255	255	255	
255	255	255	
255	255	255	
255	255	255	
255	255	255	
255	255	255	
255	255	255	
255	255	255	
255	255	255	
255	255	255	
255	255	255	
255	255	255	
255	255	255	
255	255	255	
255	255	255	
255	255	255	
255	255	255	
255	255	255	
255	255	255	
255	255	255	
255	255	255	
255	255	255	
255	255	255	
255	255	255	
255	255	255	
255	255	255	
255	255	255	
255	255	255	
255	255	255	
255	255	255	
255	255	255	
255	255	255	
255	255	255	
255	255	255	
255	255	255	
255	255	255	
255	255	255	
255	255	255	
255	255	255	
255	255	255	
255	255	255	
255	255	255	
255	255	255	
255	255	255	
255	255	255	
255	255	255	
255	255	255	
255	255	255	
255	255	255	
255	255	255	
255	255	255	
255	255	255	
255	255	255	
255	255	255	
255	255	255	
255	255	255	
255	255	255	
255	255	255	
255	255	255	
255	255	255	
255	255	255	
255	255	255	
255	255	255	
255	255	255	
255	255	255	
255	255	255	
255	255	255	
255	255	255	
255	255	255	
255	255	255	
255	255	255	
255	255	255	
255	255	255	
255	255	255	
255	255	255	
255	255	255	
255	255	255	
255	255	255	
255	255	255	
255	255	255	
255	255	255	
255	255	255	
255	255	255	
255	255	255	
255	255	255	
255	255	255	
255	255	255	
255	255	255	
255	255	255	
255	255	255	
255	255	255	
255	255	255	
255	255	255	
255	255	255	
255	255	255	
255	255	255	
255	255	255	
255	255	255	
255	255	255	
255	255	255	
255	255	255	
255	255	255	
255	255	255	
255	255	255	
255	255	255	
255	255	255	
255	255	255	
255	255	255	
255	255	255	
255	255	255	
255	255	255	
255	255	255	
255	255	255	
255	255	255	
255	255	255	
255	255	255	
255	255	255	
255	255	255	
255	255	255	
255	255	255	
255	255	255	
255	255	255	
255	255	255	
255	255	255	
255	255	255	
255	255	255	
255	255	255	
255	255	255	
255	255	255	
255	255	255	
255	255	255	
255	255	255	
255	255	255	
255	255	255	
255	255	255	
255	255	255	
255	255	255	
255	255	255	
255	255	255	
255	255	255	
255	255	255	
255	255	255	
255	255	255	
255	255	255	
255	255	255	
255	255	255	
255	255	255	
255	255	255	
255	255	255	
255	255	255	
255	255	255	
255	255	255	
255	255	255	
255	255	255	
255	255	255	
255	255	255	
255	255	255	
255	255	255	
255	255	255	
255	255	255	
255	255	255	
255	255	255	
255	255	255	
255	255	255	
255	255	255	
255	255	255	
255	255	255	
255	255	255	
255	255	255	
255	255	255	
255	255	255	
255	255	255	
255	255	255	
255	255	255	
255	255	255	
255	255	255	
255	255	255	
255	255	255	
255	255	255	
255	255	255	
255	255	255	
255	255	255	
255	255	255	
255	255	255	
255	255	255	
255	255	255	
255	255	255	
255	255	255	
255	255	255	
255	255	255	
255	255	255	
255	255	255	
255	255	255	
255	255	255	
255	255	255	
255	255	255	
255	255	255	
255	255	255	
255	255	255	
255	255	255	
255	255	255	
255	255	255	
255	255	255	
255	255	255	
255	255	255	
255	255	255	
255	255	255	
255	255	255	
255	255	255	
255	255	255	
255	255	255	
255	255	255	
255	255	255	
255	255	255	
255	255	255	
255	255	255	
255	255	255	
255	255	255	
255	255	255	
255	255	255	
255	255	255	
255	255	255	
255	255	255	
255	255	255	
255	255	255	
255	255	255	
255	255	255	
255	255	255	
255	255	255	
255	255	255	
255	255	255	
255	255	255	
255	255	255	
255	255	255	
255	255	255	
255	255	255	
255	255	255	
255	255	255	
125	125	125	
255	255	255	
255	255	255	
255	255	255	
255	255	255	
255	255	255	
255	255	255	
255	255	255	
255	255	255	
255	255	255	
255	255	255	
255	255	255	
255	255	255	
255	255	255	
255	255	255	
255	255	255	
255	255	255	
255	255	255	
255	255	255	
255	255	255	
255	255	255	
255	255	255	
255	255	255	
255	255	255	
255	255	255	
255	255	255	
255	255	255	
255	255	255	
255	255	255	
255	255	255	
255	255	255	
255	255	255	
255	255	255	
255	255	255	
255	255	255	
255	255	255	
255	255	255	
255	255	255	
255	255	255	
255	255	255	
255	255	255	
255	255	255	
255	255	255	
255	255	255	
255	255	255	
255	255	255	
255	255	255	
255	255	255	
255	255	255	
255	255	255	
255	255	255	
255	255	255	
255	255	255	
255	255	255	
255	255	255	
255	255	255	
255	255	255	
255	255	255	
255	255	255	
255	255	255	
255	255	255	
255	255	255	
255	255	255	
255	255	255	
255	255	255	
255	255	255	
255	255	255	
255	255	255	
255	255	255	
255	255	255	
255	255	255	
255	255	255	
255	255	255	
255	255	255	
255	255	255	
255	255	255	
255	255	255	
255	255	255	
255	255	255	
255	255	255	
255	255	255	
255	255	255	
255	255	255	
255	255	255	
255	255	255	
255	255	255	
255	255	255	
255	255	255	
255	255	255	
255	255	255	
255	255	255	
255	255	255	
255	255	255	
255	255	255	
255	255	255	
255	255	255	
255	255	255	
255	255	255	
255	255	255	
255	255	255	
255	255	255	
255	255	255	
255	255	255	
255	255	255	
255	255	255	
255	255	255	
255	255	255	
255	255	255	
255	255	255	
255	255	255	
255	255	255	
255	255	255	
255	255	255	
255	255	255	
255	255	255	
255	255	255	
255	255	255	
255	255	255	
255	255	255	
255	255	255	
255	255	255	
255	255	255	
255	255	255	
255	255	255	
255	255	255	
255	255	255	
255	255	255	
255	255	255	
255	255	255	
255	255	255	
255	255	255	
255	255	255	
255	255	255	
255	255	255	
255	255	255	
255	255	255	
255	255	255	
255	255	255	
255	255	255	
255	255	255	
255	255	255	
255	255	255	
255	255	255	
255	255	255	
255	255	255	
255	255	255	
255	255	255	
255	255	255	
255	255	255	
255	255	255	
255	255	255	
255	255	255	
255	255	255	
255	255	255	
255	255	255	
255	255	255	
255	255	255	
255	255	255	
255	255	255	
255	255	255	
255	255	255	
255	255	255	
255	255	255	
255	255	255	
255	255	255	
255	255	255	
255	255	255	
255	255	255	
255	255	255	
255	255	255	
255	255	255	
255	255	255	
255	255	255	
255	255	255	
255	255	255	
255	255	255	
255	255	255	
255	255	255	
255	255	255	
255	255	255	
255	255	255	
255	255	255	
255	255	255	
255	255	255	
255	255	255	
255	255	255	
255	255	255	
255	255	255	
255	255	255	
255	255	255	
255	255	255	
255	255	255	
255	255	255	
255	255	255	
255	255	255	
255	255	255	
255	255	255	
255	255	255	
255	255	255	
255	255	255	
255	255	255	
255	255	255	
255	255	255	
255	255	255	
255	255	255	
255	255	255	
255	255	255	
255	255	255	
255	255	255	
255	255	255	
255	255	255	
255	255	255	
255	255	255	
255	255	255	
255	255	255	
255	255	255	
255	255	255	
255	255	255	
255	255	255	
255	255	255	
255	255	255	
255	255	255	
255	255	255	
255	255	255	
255	255	255	
255	255	255	
255	255	255	
255	255	255	
255	255	255	
255	255	255	
255	255	255	
255	255	255	
255	255	255	
255	255	255	
255	255	255	
255	255	255	
255	255	255	
255	255	255	
255	255	255	
255	255	255	
255	255	255	
255	255	255	
255	255	255	
255	255	255	
255	255	255	
255	255	255	
255	255	255	
255	255	255	
255	255	255	
255	255	255	
255	255	255	
255	255	255	
255	255	255	
255	255	255	
255	255	255	
255	255	255	
125	125	125	
255	255	255	
255	255	255	
255	255	255	
255	255	255	
255	255	255	
255	255	255	
255	255	255	
255	255	255	
255	255	255	
255	255	255	
255	255	255	
255	255	255	
255	255	255	
255	255	255	
255	255	255	
255	255	255	
255	255	255	
255	255	255	
255	255	255	
255	255	255	
255	255	255	
255	255	255	
255	255	255	
255	255	255	
255	255	255	
255	255	255	
255	255	255	
255	255	255	
255	255	255	
255	255	255	
255	255	255	
255	255	255	
255	255	255	
255	255	255	
255	255	255	
255	255	255	
255	255	255	
255	255	255	
255	255	255	
255	255	255	
255	255	255	
255	255	255	
255	255	255	
255	255	255	
255	255	255	
255	255	255	
255	255	255	
255	255	255	
255	255	255	
255	255	255	
255	255	255	
255	255	255	
255	255	255	
255	255	255	
255	255	255	
255	255	255	
255	255	255	
255	255	255	
255	255	255	
255	255	255	
255	255	255	
255	255	255	
255	255	255	
255	255	255	
255	255	255	
255	255	255	
255	255	255	
255	255	255	
255	255	255	
255	255	255	
255	255	255	
255	255	255	
255	255	255	
255	255	255	
255	255	255	
255	255	255	
255	255	255	
255	255	255	
255	255	255	
255	255	255	
255	255	255	
255	255	255	
255	255	255	
255	255	255	
255	255	255	
255	255	255	
255	255	255	
255	255	255	
255	255	255	
255	255	255	
255	255	255	
255	255	255	
255	255	255	
255	255	255	
255	255	255	
255	255	255	
255	255	255	
255	255	255	
255	255	255	
255	255	255	
255	255	255	
255	255	255	
255	255	255	
255	255	255	
255	255	255	
255	255	255	
255	255	255	
255	255	255	
255	255	255	
255	255	255	
255	255	255	
255	255	255	
255	255	255	
255	255	255	
255	255	255	
255	255	255	
255	255	255	
255	255	255	
255	255	255	
255	255	255	
255	255	255	
255	255	255	
255	255	255	
255	255	255	
255	255	255	
255	255	255	
255	255	255	
255	255	255	
255	255	255	
255	255	255	
255	255	255	
255	255	255	
255	255	255	
255	255	255	
255	255	255	
255	255	255	
255	255	255	
255	255	255	
255	255	255	
255	255	255	
255	255	255	
255	255	255	
255	255	255	
255	255	255	
255	255	255	
255	255	255	
255	255	255	
255	255	255	
255	255	255	
255	255	255	
255	255	255	
255	255	255	
255	255	255	
255	255	255	
255	255	255	
255	255	255	
255	255	255	
255	255	255	
255	255	255	
255	255	255	
255	255	255	
255	255	255	
255	255	255	
255	255	255	
255	255	255	
255	255	255	
255	255	255	
255	255	255	
255	255	255	
255	255	255	
255	255	255	
255	255	255	
255	255	255	
255	255	255	
255	255	255	
255	255	255	
255	255	255	
255	255	255	
255	255	255	
255	255	255	
255	255	255	
255	255	255	
255	255	255	
255	255	255	
255	255	255	
255	255	255	
255	255	255	
255	255	255	
255	255	255	
255	255	255	
255	255	255	
255	255	255	
255	255	255	
255	255	255	
255	255	255	
255	255	255	
255	255	255	
255	255	255	
255	255	255	
255	255	255	
255	255	255	
255	255	255	
255	255	255	
255	255	255	
255	255	255	
255	255	255	
255	255	255	
255	255	255	
255	255	255	
255	255	255	
255	255	255	
255	255	255	
255	255	255	
255	255	255	
255	255	255	
255	255	255	
255	255	255	
255	255	255	
255	255	255	
255	255	255	
255	255	255	
255	255	255	
255	255	255	
255	255	255	
255	255	255	
255	255	255	
255	255	255	
255	255	255	
255	255	255	
255	255	255	
255	255	255	
255	255	255	
255	255	255	
255	255	255	
255	255	255	
255	255	255	
255	255	255	
255	255	255	
255	255	255	
255	255	255	
255	255	255	
255	255	255	
255	255	255	
255	255	255	
255	255	255	
255	255	255	
255	255	255	
255	255	255	
255	255	255	
255	255	255	
255	255	255	
255	255	255	
255	255	255	
255	255	255	
255	255	255	
125	125	125	
255	255	255	
255	255	255	
255	255	255	
255	255	255	
255	255	255	
255	255	255	
255	255	255	
255	255	255	
255	255	255	
255	255	255	
255	255	255	
255	255	255	
255	255	255	
255	255	255	
255	255	255	
255	255	255	
255	255	255	
255	255	255	
255	255	255	
255	255	255	
255	255	255	
255	255	255	
255	255	255	
255	255	255	
255	255	255	
255	255	255	
255	255	255	
255	255	255	
255	255	255	
255	255	255	
255	255	255	
255	255	255	
255	255	255	
255	255	255	
255	255	255	
255	255	255	
255	255	255	
255	255	255	
255	255	255	
255	255	255	
255	255	255	
255	255	255	
255	255	255	
255	255	255	
255	255	255	
255	255	255	
255	255	255	
255	255	255	
255	255	255	
255	255	255	
255	255	255	
255	255	255	
255	255	255	
255	255	255	
255	255	255	
255	255	255	
255	255	255	
255	255	255	
255	255	255	
255	255	255	
255	255	255	
255	255	255	
255	255	255	
255	255	255	
255	255	255	
255	255	255	
255	255	255	
255	255	255	
255	255	255	
255	255	255	
255	255	255	
255	255	255	
255	255	255	
255	255	255	
255	255	255	
255	255	255	
255	255	255	
255	255	255	
255	255	255	
255	255	255	
255	255	255	
255	255	255	
255	255	255	
255	255	255	
255	255	255	
255	255	255	
255	255	255	
255	255	255	
255	255	255	
255	255	255	
255	255	255	
255	255	255	
255	255	255	
255	255	255	
255	255	255	
255	255	255	
255	255	255	
255	255	255	
255	255	255	
255	255	255	
255	255	255	
255	255	255	
255	255	255	
255	255	255	
255	255	255	
255	255	255	
255	255	255	
255	255	255	
255	255	255	
255	255	255	
255	255	255	
255	255	255	
255	255	255	
255	255	255	
255	255	255	
255	255	255	
255	255	255	
255	255	255	
255	255	255	
255	255	255	
255	255	255	
255	255	255	
255	255	255	
255	255	255	
255	255	255	
255	255	255	
255	255	255	
255	255	255	
255	255	255	
255	255	255	
255	255	255	
255	255	255	
255	255	255	
255	255	255	
255	255	255	
255	255	255	
255	255	255	
255	255	255	
255	255	255	
255	255	255	
255	255	255	
255	255	255	
255	255	255	
255	255	255	
255	255	255	
255	255	255	
255	255	255	
255	255	255	
255	255	255	
255	255	255	
255	255	255	
255	255	255	
255	255	255	
255	255	255	
255	255	255	
255	255	255	
255	255	255	
255	255	255	
255	255	255	
255	255	255	
255	255	255	
255	255	255	
255	255	255	
255	255	255	
255	255	255	
255	255	255	
255	255	255	
255	255	255	
255	255	255	
255	255	255	
255	255	255	
255	255	255	
255	255	255	
255	255	255	
255	255	255	
255	255	255	
255	255	255	
255	255	255	
255	255	255	
255	255	255	
255	255	255	
255	255	255	
255	255	255	
255	255	255	
255	255	255	
255	255	255	
255	255	255	
255	255	255	
255	255	255	
255	255	255	
255	255	255	
255	255	255	
255	255	255	
255	255	255	
255	255	255	
255	255	255	
255	255	255	
255	255	255	
255	255	255	
255	255	255	
255	255	255	
255	255	255	
255	255	255	
255	255	255	
255	255	255	
255	255	255	
255	255	255	
255	255	255	
255	255	255	
255	255	255	
255	255	255	
255	255	255	
255	255	255	
255	255	255	
255	255	255	
255	255	255	
255	255	255	
255	255	255	
255	255	255	
255	255	255	
255	255	255	
255	255	255	
255	255	255	
255	255	255	
255	255	255	
255	255	255	
255	255	255	
255	255	255	
255	255	255	
255	255	255	
255	255	255	
255	255	255	
255	255	255	
255	255	255	
255	255	255	
255	255	255	
255	255	255	
255	255	255	
255	255	255	
255	255	255	
255	255	255	
255	255	255	
255	255	255	
255	255	255	
255	255	255	
255	255	255	
255	255	255	
255	255	255	
255	255	255	
255	255	255	
255	255	255	
255	255	255	
255	255	255	
255	255	255	
255	255	255	
125	125	125	
255	255	255	
255	255	255	
255	255	255	
255	255	255	
255	255	255	
255	255	255	
255	255	255	
255	255	255	
255	255	255	
255	255	255	
255	255	255	
255	255	255	
255	255	255	
255	255	255	
255	255	255	
255	255	255	
255	255	255	
255	255	255	
255	255	255	
255	255	255	
255	255	255	
255	255	255	
255	255	255	
255	255	255	
255	255	255	
255	255	255	
255	255	255	
255	255	255	
255	255	255	
255	255	255	
255	255	255	
255	255	255	
255	255	255	
255	255	255	
255	255	255	
255	255	255	
255	255	255	
255	255	255	
255	255	255	
255	255	255	
255	255	255	
255	255	255	
255	255	255	
255	255	255	
255	255	255	
255	255	255	
255	255	255	
255	255	255	
255	255	255	
255	255	255	
255	255	255	
255	255	255	
255	255	255	
255	255	255	
255	255	255	
255	255	255	
255	255	255	
255	255	255	
255	255	255	
255	255	255	
255	255	255	
255	255	255	
255	255	255	
255	255	255	
255	255	255	
255	255	255	
255	255	255	
255	255	255	
255	255	255	
255	255	255	
255	255	255	
255	255	255	
255	255	255	
255	255	255	
255	255	255	
255	255	255	
255	255	255	
255	255	255	
255	255	255	
255	255	255	
255	255	255	
255	255	255	
255	255	255	
255	255	255	
255	255	255	
255	255	255	
255	255	255	
255	255	255	
255	255	255	
255	255	255	
255	255	255	
255	255	255	
255	255	255	
255	255	255	
255	255	255	
255	255	255	
255	255	255	
255	255	255	
255	255	255	
255	255	255	
255	255	255	
255	255	255	
255	255	255	
255	255	255	
255	255	255	
255	255	255	
255	255	255	
255	255	255	
255	255	255	
255	255	255	
255	255	255	
255	255	255	
255	255	255	
255	255	255	
255	255	255	
255	255	255	
255	255	255	
255	255	255	
255	255	255	
255	255	255	
255	255	255	
255	255	255	
255	255	255	
255	255	255	
255	255	255	
255	255	255	
255	255	255	
255	255	255	
255	255	255	
255	255	255	
255	255	255	
255	255	255	
255	255	255	
255	255	255	
255	255	255	
255	255	255	
255	255	255	
255	255	255	
255	255	255	
255	255	255	
255	255	255	
255	255	255	
255	255	255	
255	255	255	
255	255	255	
255	255	255	
255	255	255	
255	255	255	
255	255	255	
255	255	255	
255	255	255	
255	255	255	
255	255	255	
255	255	255	
255	255	255	
255	255	255	
255	255	255	
255	255	255	
255	255	255	
255	255	255	
255	255	255	
255	255	255	
255	255	255	
255	255	255	
255	255	255	
255	255	255	
255	255	255	
255	255	255	
255	255	255	
255	255	255	
255	255	255	
255	255	255	
255	255	255	
255	255	255	
255	255	255	
255	255	255	
255	255	255	
255	255	255	
255	255	255	
255	255	255	
255	255	255	
255	255	255	
255	255	255	
255	255	255	
255	255	255	
255	255	255	
255	255	255	
255	255	255	
255	255	255	
255	255	255	
255	255	255	
255	255	255	
255	255	255	
255	255	255	
255	255	255	
255	255	255	
255	255	255	
255	255	255	
255	255	255	
255	255	255	
255	255	255	
255	255	255	
255	255	255	
255	255	255	
255	255	255	
255	255	255	
255	255	255	
255	255	255	
255	255	255	
255	255	255	
255	255	255	
255	255	255	
255	255	255	
255	255	255	
255	255	255	
255	255	255	
255	255	255	
255	255	255	
255	255	255	
255	255	255	
255	255	255	
255	255	255	
255	255	255	
255	255	255	
255	255	255	
255	255	255	
255	255	255	
255	255	255	
255	255	255	
255	255	255	
255	255	255	
255	255	255	
255	255	255	
255	255	255	
255	255	255	
255	255	255	
255	255	255	
255	255	255	
255	255	255	
255	255	255	
255	255	255	
255	255	255	
255	255	255	
255	255	255	
255	255	255	
255	255	255	
255	255	255	
255	255	255	
255	255	255	
255	255	255	
255	255	255	
255	255	255	
255	255	255	
255	255	255	
255	255	255	
125	125	125	
255	255	255	
255	255	255	
255	255	255	
255	255	255	
255	255	255	
255	255	255	
255	255	255	
255	255	255	
255	255	255	
255	255	255	
255	255	255	
255	255	255	
255	255	255	
255	255	255	
255	255	255	
255	255	255	
255	255	255	
255	255	255	
255	255	255	
255	255	255	
255	255	255	
255	255	255	
255	255	255	
255	255	255	
255	255	255	
255	255	255	
255	255	255	
255	255	255	
255	255	255	
255	255	255	
255	255	255	
255	255	255	
255	255	255	
255	255	255	
255	255	255	
255	255	255	
255	255	255	
255	255	255	
255	255	255	
255	255	255	
255	255	255	
255	255	255	
255	255	255	
255	255	255	
255	255	255	
255	255	255	
255	255	255	
255	255	255	
255	255	255	
255	255	255	
255	255	255	
255	255	255	
255	255	255	
255	255	255	
255	255	255	
255	255	255	
255	255	255	
255	255	255	
255	255	255	
255	255	255	
255	255	255	
255	255	255	
255	255	255	
255	255	255	
255	255	255	
255	255	255	
255	255	255	
255	255	255	
255	255	255	
255	255	255	
255	255	255	
255	255	255	
255	255	255	
255	255	255	
255	255	255	
255	255	255	
255	255	255	
255	255	255	
255	255	255	
255	255	255	
255	255	255	
255	255	255	
255	255	255	
255	255	255	
255	255	255	
255	255	255	
255	255	255	
255	255	255	
255	255	255	
255	255	255	
255	255	255	
255	255	255	
255	255	255	
255	255	255	
255	255	255	
255	255	255	
255	255	255	
255	255	255	
255	255	255	
255	255	255	
255	255	255	
255	255	255	
255	255	255	
255	255	255	
255	255	255	
255	255	255	
255	255	255	
255	255	255	
255	255	255	
255	255	255	
255	255	255	
255	255	255	
255	255	255	
255	255	255	
255	255	255	
255	255	255	
255	255	255	
255	255	255	
255	255	255	
255	255	255	
255	255	255	
255	255	255	
255	255	255	
255	255	255	
255	255	255	
255	255	255	
255	255	255	
255	255	255	
255	255	255	
255	255	255	
255	255	255	
255	255	255	
255	255	255	
255	255	255	
255	255	255	
255	255	255	
255	255	255	
255	255	255	
255	255	255	
255	255	255	
255	255	255	
255	255	255	
255	255	255	
255	255	255	
255	255	255	
255	255	255	
255	255	255	
255	255	255	
255	255	255	
255	255	255	
255	255	255	
255	255	255	
255	255	255	
255	255	255	
255	255	255	
255	255	255	
255	255	255	
255	255	255	
255	255	255	
255	255	255	
255	255	255	
255	255	255	
255	255	255	
255	255	255	
255	255	255	
255	255	255	
255	255	255	
255	255	255	
255	255	255	
255	255	255	
255	255	255	
255	255	255	
255	255	255	
255	255	255	
255	255	255	
255	255	255	
255	255	255	
255	255	255	
255	255	255	
255	255	255	
255	255	255	
255	255	255	
255	255	255	
255	255	255	
255	255	255	
255	255	255	
255	255	255	
255	255	255	
255	255	255	
255	255	255	
255	255	255	
255	255	255	
255	255	255	
255	255	255	
255	255	255	
255	255	255	
255	255	255	
255	255	255	
255	255	255	
255	255	255	
255	255	255	
255	255	255	
255	255	255	
255	255	255	
255	255	255	
255	255	255	
255	255	255	
255	255	255	
255	255	255	
255	255	255	
255	255	255	
255	255	255	
255	255	255	
255	255	255	
255	255	255	
255	255	255	
255	255	255	
255	255	255	
255	255	255	
255	255	255	
255	255	255	
255	255	255	
255	255	255	
255	255	255	
255	255	255	
255	255	255	
255	255	255	
255	255	255	
255	255	255	
255	255	255	
255	255	255	
255	255	255	
255	255	255	
255	255	255	
255	255	255	
255	255	255	
255	255	255	
255	255	255	
255	255	255	
255	255	255	
255	255	255	
255	255	255	
255	255	255	
255	255	255	
255	255	255	
255	255	255	
255	255	255	
255	255	255	
255	255	255	
255	255	255	
255	255	255	
255	255	255	
255	255	255	
255	255	255	
255	255	255	
125	125	125	
255	255	255	
255	255	255	
255	255	255	
255	255	255	
255	255	255	
255	255	255	
255	255	255	
255	255	255	
255	255	255	
255	255	255	
255	255	255	
255	255	255	
255	255	255	
255	255	255	
255	255	255	
255	255	255	
255	255	255	
255	255	255	
255	255	255	
255	255	255	
255	255	255	
255	255	255	
255	255	255	
255	255	255	
255	255	255	
255	255	255	
255	255	255	
255	255	255	
255	255	255	
255	255	255	
255	255	255	
255	255	255	
255	255	255	
255	255	255	
255	255	255	
255	255	255	
255	255	255	
255	255	255	
255	255	255	
255	255	255	
255	255	255	
255	255	255	
255	255	255	
255	255	255	
255	255	255	
255	255	255	
255	255	255	
255	255	255	
255	255	255	
255	255	255	
255	255	255	
255	255	255	
255	255	255	
255	255	255	
255	255	255	
255	255	255	
255	255	255	
255	255	255	
255	255	255	
255	255	255	
255	255	255	
255	255	255	
255	255	255	
255	255	255	
255	255	255	
255	255	255	
255	255	255	
255	255	255	
255	255	255	
255	255	255	
255	255	255	
255	255	255	
255	255	255	
255	255	255	
255	255	255	
255	255	255	
255	255	255	
255	255	255	
255	255	255	
255	255	255	
255	255	255	
255	255	255	
255	255	255	
255	255	255	
255	255	255	
255	255	255	
255	255	255	
255	255	255	
255	255	255	
255	255	255	
255	255	255	
255	255	255	
255	255	255	
255	255	255	
255	255	255	
255	255	255	
255	255	255	
255	255	255	
255	255	255	
255	255	255	
255	255	255	
255	255	255	
255	255	255	
255	255	255	
255	255	255	
255	255	255	
255	255	255	
255	255	255	
255	255	255	
255	255	255	
255	255	255	
255	255	255	
255	255	255	
255	255	255	
255	255	255	
255	255	255	
255	255	255	
255	255	255	
255	255	255	
255	255	255	
255	255	255	
255	255	255	
255	255	255	
255	255	255	
255	255	255	
255	255	255	
255	255	255	
255	255	255	
255	255	255	
255	255	255	
255	255	255	
255	255	255	
255	255	255	
255	255	255	
255	255	255	
255	255	255	
255	255	255	
255	255	255	
255	255	255	
255	255	255	
255	255	255	
255	255	255	
255	255	255	
255	255	255	
255	255	255	
255	255	255	
255	255	255	
255	255	255	
255	255	255	
255	255	255	
255	255	255	
255	255	255	
255	255	255	
255	255	255	
255	255	255	
255	255	255	
255	255	255	
255	255	255	
255	255	255	
255	255	255	
255	255	255	
255	255	255	
255	255	255	
255	255	255	
255	255	255	
255	255	255	
255	255	255	
255	255	255	
255	255	255	
255	255	255	
255	255	255	
255	255	255	
255	255	255	
255	255	255	
255	255	255	
255	255	255	
255	255	255	
255	255	255	
255	255	255	
255	255	255	
255	255	255	
255	255	255	
255	255	255	
255	255	255	
255	255	255	
255	255	255	
255	255	255	
255	255	255	
255	255	255	
255	255	255	
255	255	255	
255	255	255	
255	255	255	
255	255	255	
255	255	255	
255	255	255	
255	255	255	
255	255	255	
255	255	255	
255	255	255	
255	255	255	
255	255	255	
255	255	255	
255	255	255	
255	255	255	
255	255	255	
255	255	255	
255	255	255	
255	255	255	
255	255	255	
255	255	255	
255	255	255	
255	255	255	
255	255	255	
255	255	255	
255	255	255	
255	255	255	
255	255	255	
255	255	255	
255	255	255	
255	255	255	
255	255	255	
255	255	255	
255	255	255	
255	255	255	
255	255	255	
255	255	255	
255	255	255	
255	255	255	
255	255	255	
255	255	255	
255	255	255	
255	255	255	
255	255	255	
255	255	255	
255	255	255	
255	255	255	
255	255	255	
255	255	255	
255	255	255	
255	255	255	
255	255	255	
255	255	255	
255	255	255	
255	255	255	
255	255	255	
255	255	255	
255	255	255	
255	255	255	
255	255	255	
255	255	255	
255	255	255	
255	255	255	
255	255	255	
255	255	255	
125	125	125	
255	255	255	
255	255	255	
255	255	255	
255	255	255	
255	255	255	
255	255	255	
255	255	255	
255	255	255	
255	255	255	
255	255	255	
255	255	255	
255	255	255	
255	255	255	
255	255	255	
255	255	255	
255	255	255	
255	255	255	
255	255	255	
255	255	255	
255	255	255	
255	255	255	
255	255	255	
255	255	255	
255	255	255	
255	255	255	
255	255	255	
255	255	255	
255	255	255	
255	255	255	
255	255	255	
255	255	255	
255	255	255	
255	255	255	
255	255	255	
255	255	255	
255	255	255	
255	255	255	
255	255	255	
255	255	255	
255	255	255	
255	255	255	
255	255	255	
255	255	255	
255	255	255	
255	255	255	
255	255	255	
255	255	255	
255	255	255	
255	255	255	
255	255	255	
255	255	255	
255	255	255	
255	255	255	
255	255	255	
255	255	255	
255	255	255	
255	255	255	
255	255	255	
255	255	255	
255	255	255	
255	255	255	
255	255	255	
255	255	255	
255	255	255	
255	255	255	
255	255	255	
255	255	255	
255	255	255	
255	255	255	
255	255	255	
255	255	255	
255	255	255	
255	255	255	
255	255	255	
255	255	255	
255	255	255	
255	255	255	
255	255	255	
255	255	255	
255	255	255	
255	255	255	
255	255	255	
255	255	255	
255	255	255	
255	255	255	
255	255	255	
255	255	255	
255	255	255	
255	255	255	
255	255	255	
255	255	255	
255	255	255	
255	255	255	
255	255	255	
255	255	255	
255	255	255	
255	255	255	
255	255	255	
255	255	255	
255	255	255	
255	255	255	
255	255	255	
255	255	255	
255	255	255	
255	255	255	
255	255	255	
255	255	255	
255	255	255	
255	255	255	
255	255	255	
255	255	255	
255	255	255	
255	255	255	
255	255	255	
255	255	255	
255	255	255	
255	255	255	
255	255	255	
255	255	255	
255	255	255	
255	255	255	
255	255	255	
255	255	255	
255	255	255	
255	255	255	
255	255	255	
255	255	255	
255	255	255	
255	255	255	
255	255	255	
255	255	255	
255	255	255	
255	255	255	
255	255	255	
255	255	255	
255	255	255	
255	255	255	
255	255	255	
255	255	255	
255	255	255	
255	255	255	
255	255	255	
255	255	255	
255	255	255	
255	255	255	
255	255	255	
255	255	255	
255	255	255	
255	255	255	
255	255	255	
255	255	255	
255	255	255	
255	255	255	
255	255	255	
255	255	255	
255	255	255	
255	255	255	
255	255	255	
255	255	255	
255	255	255	
255	255	255	
255	255	255	
255	255	255	
255	255	255	
255	255	255	
255	255	255	
255	255	255	
255	255	255	
255	255	255	
255	255	255	
255	255	255	
255	255	255	
255	255	255	
255	255	255	
255	255	255	
255	255	255	
255	255	255	
255	255	255	
255	255	255	
255	255	255	
255	255	255	
255	255	255	
255	255	255	
255	255	255	
255	255	255	
255	255	255	
255	255	255	
255	255	255	
255	255	255	
255	255	255	
255	255	255	
255	255	255	
255	255	255	
255	255	255	
255	255	255	
255	255	255	
255	255	255	
255	255	255	
255	255	255	
255	255	255	
255	255	255	
255	255	255	
255	255	255	
255	255	255	
255	255	255	
255	255	255	
255	255	255	
255	255	255	
255	255	255	
255	255	255	
255	255	255	
255	255	255	
255	255	255	
255	255	255	
255	255	255	
255	255	255	
255	255	255	
255	255	255	
255	255	255	
255	255	255	
255	255	255	
255	255	255	
255	255	255	
255	255	255	
255	255	255	
255	255	255	
255	255	255	
255	255	255	
255	255	255	
255	255	255	
255	255	255	
255	255	255	
255	255	255	
255	255	255	
255	255	255	
255	255	255	
255	255	255	
255	255	255	
255	255	255	
255	255	255	
255	255	255	
255	255	255	
255	255	255	
255	255	255	
255	255	255	
255	255	255	
255	255	255	
255	255	255	
255	255	255	
255	255	255	
255	255	255	
255	255	255	
255	255	255	
255	255	255	
255	255	255	
125	125	125	
255	255	255	
255	255	255	
255	255	255	
255	255	255	
255	255	255	
255	255	255	
255	255	255	
255	255	255	
255	255	255	
255	255	255	
255	255	255	
255	255	255	
255	255	255	
255	255	255	
255	255	255	
255	255	255	
255	255	255	
255	255	255	
255	255	255	
255	255	255	
255	255	255	
255	255	255	
255	255	255	
255	255	255	
255	255	255	
255	255	255	
255	255	255	
255	255	255	
255	255	255	
255	255	255	
255	255	255	
255	255	255	
255	255	255	
255	255	255	
255	255	255	
255	255	255	
255	255	255	
255	255	255	
255	255	255	
255	255	255	
255	255	255	
255	255	255	
255	255	255	
255	255	255	
255	255	255	
255	255	255	
255	255	255	
255	255	255	
255	255	255	
255	255	255	
255	255	255	
255	255	255	
255	255	255	
255	255	255	
255	255	255	
255	255	255	
255	255	255	
255	255	255	
255	255	255	
255	255	255	
255	255	255	
255	255	255	
255	255	255	
255	255	255	
255	255	255	
255	255	255	
255	255	255	
255	255	255	
255	255	255	
255	255	255	
255	255	255	
255	255	255	
255	255	255	
255	255	255	
255	255	255	
255	255	255	
255	255	255	
255	255	255	
255	255	255	
255	255	255	
255	255	255	
255	255	255	
255	255	255	
255	255	255	
255	255	255	
255	255	255	
255	255	255	
255	255	255	
255	255	255	
255	255	255	
255	255	255	
255	255	255	
255	255	255	
255	255	255	
255	255	255	
255	255	255	
255	255	255	
255	255	255	
255	255	255	
255	255	255	
255	255	255	
255	255	255	
255	255	255	
255	255	255	
255	255	255	
255	255	255	
255	255	255	
255	255	255	
255	255	255	
255	255	255	
255	255	255	
255	255	255	
255	255	255	
255	255	255	
255	255	255	
255	255	255	
255	255	255	
255	255	255	
255	255	255	
255	255	255	
255	255	255	
255	255	255	
255	255	255	
255	255	255	
255	255	255	
255	255	255	
255	255	255	
255	255	255	
255	255	255	
255	255	255	
255	255	255	
255	255	255	
255	255	255	
255	255	255	
255	255	255	
255	255	255	
255	255	255	
255	255	255	
255	255	255	
255	255	255	
255	255	255	
255	255	255	
255	255	255	
255	255	255	
255	255	255	
255	255	255	
255	255	255	
255	255	255	
255	255	255	
255	255	255	
255	255	255	
255	255	255	
255	255	255	
255	255	255	
255	255	255	
255	255	255	
255	255	255	
255	255	255	
255	255	255	
255	255	255	
255	255	255	
255	255	255	
255	255	255	
255	255	255	
255	255	255	
255	255	255	
255	255	255	
255	255	255	
255	255	255	
255	255	255	
255	255	255	
255	255	255	
255	255	255	
255	255	255	
255	255	255	
255	255	255	
255	255	255	
255	255	255	
255	255	255	
255	255	255	
255	255	255	
255	255	255	
255	255	255	
255	255	255	
255	255	255	
255	255	255	
255	255	255	
255	255	255	
255	255	255	
255	255	255	
255	255	255	
255	255	255	
255	255	255	
255	255	255	
255	255	255	
255	255	255	
255	255	255	
255	255	255	
255	255	255	
255	255	255	
255	255	255	
255	255	255	
255	255	255	
255	255	255	
255	255	255	
255	255	255	
255	255	255	
255	255	255	
255	255	255	
255	255	255	
255	255	255	
255	255	255	
255	255	255	
255	255	255	
255	255	255	
255	255	255	
255	255	255	
255	255	255	
255	255	255	
255	255	255	
255	255	255	
255	255	255	
255	255	255	
255	255	255	
255	255	255	
255	255	255	
255	255	255	
255	255	255	
255	255	255	
255	255	255	
255	255	255	
255	255	255	
255	255	255	
255	255	255	
255	255	255	
255	255	255	
255	255	255	
255	255	255	
255	255	255	
255	255	255	
255	255	255	
255	255	255	
255	255	255	
255	255	255	
255	255	255	
255	255	255	
255	255	255	
255	255	255	
255	255	255	
255	255	255	
255	255	255	
255	255	255	
255	255	255	
255	255	255	
255	255	255	
125	125	125	
255	255	255	
255	255	255	
255	255	255	
255	255	255	
255	255	255	
255	255	255	
255	255	255	
255	255	255	
255	255	255	
255	255	255	
255	255	255	
255	255	255	
255	255	255	
255	255	255	
255	255	255	
255	255	255	
255	255	255	
255	255	255	
255	255	255	
255	255	255	
255	255	255	
255	255	255	
255	255	255	
255	255	255	
255	255	255	
255	255	255	
255	255	255	
255	255	255	
255	255	255	
255	255	255	
255	255	255	
255	255	255	
255	255	255	
255	255	255	
255	255	255	
255	255	255	
255	255	255	
255	255	255	
255	255	255	
255	255	255	
255	255	255	
255	255	255	
255	255	255	
255	255	255	
255	255	255	
255	255	255	
255	255	255	
255	255	255	
255	255	255	
255	255	255	
255	255	255	
255	255	255	
255	255	255	
255	255	255	
255	255	255	
255	255	255	
255	255	255	
255	255	255	
255	255	255	
255	255	255	
255	255	255	
255	255	255	
255	255	255	
255	255	255	
255	255	255	
255	255	255	
255	255	255	
255	255	255	
255	255	255	
255	255	255	
255	255	255	
255	255	255	
255	255	255	
255	255	255	
255	255	255	
255	255	255	
255	255	255	
255	255	255	
255	255	255	
255	255	255	
255	255	255	
255	255	255	
255	255	255	
255	255	255	
255	255	255	
255	255	255	
255	255	255	
255	255	255	
255	255	255	
255	255	255	
255	255	255	
255	255	255	
255	255	255	
255	255	255	
255	255	255	
255	255	255	
255	255	255	
255	255	255	
255	255	255	
255	255	255	
255	255	255	
255	255	255	
255	255	255	
255	255	255	
255	255	255	
255	255	255	
255	255	255	
255	255	255	
255	255	255	
255	255	255	
255	255	255	
255	255	255	
255	255	255	
255	255	255	
255	255	255	
255	255	255	
255	255	255	
255	255	255	
255	255	255	
255	255	255	
255	255	255	
255	255	255	
255	255	255	
255	255	255	
255	255	255	
255	255	255	
255	255	255	
255	255	255	
255	255	255	
255	255	255	
255	255	255	
255	255	255	
255	255	255	
255	255	255	
255	255	255	
255	255	255	
255	255	255	
255	255	255	
255	255	255	
255	255	255	
255	255	255	
255	255	255	
255	255	255	
255	255	255	
255	255	255	
255	255	255	
255	255	255	
255	255	255	
255	255	255	
255	255	255	
255	255	255	
255	255	255	
255	255	255	
255	255	255	
255	255	255	
255	255	255	
255	255	255	
255	255	255	
255	255	255	
255	255	255	
255	255	255	
255	255	255	
255	255	255	
255	255	255	
255	255	255	
255	255	255	
255	255	255	
255	255	255	
255	255	255	
255	255	255	
255	255	255	
255	255	255	
255	255	255	
255	255	255	
255	255	255	
255	255	255	
255	255	255	
255	255	255	
255	255	255	
255	255	255	
255	255	255	
255	255	255	
255	255	255	
255	255	255	
255	255	255	
255	255	255	
255	255	255	
255	255	255	
255	255	255	
255	255	255	
255	255	255	
255	255	255	
255	255	255	
255	255	255	
255	255	255	
255	255	255	
255	255	255	
255	255	255	
255	255	255	
255	255	255	
255	255	255	
255	255	255	
255	255	255	
255	255	255	
255	255	255	
255	255	255	
255	255	255	
255	255	255	
255	255	255	
255	255	255	
255	255	255	
255	255	255	
255	255	255	
255	255	255	
255	255	255	
255	255	255	
255	255	255	
255	255	255	
255	255	255	
255	255	255	
255	255	255	
255	255	255	
255	255	255	
255	255	255	
255	255	255	
255	255	255	
255	255	255	
255	255	255	
255	255	255	
255	255	255	
255	255	255	
255	255	255	
255	255	255	
255	255	255	
255	255	255	
255	255	255	
255	255	255	
255	255	255	
255	255	255	
255	255	255	
255	255	255	
255	255	255	
255	255	255	
255	255	255	
255	255	255	
255	255	255	
255	255	255	
255	255	255	
255	255	255	
255	255	255	
255	255	255	
255	255	255	
255	255	255	
255	255	255	
255	255	255	
125	125	125	
255	255	255	
255	255	255	
255	255	255	
255	255	255	
255	255	255	
255	255	255	
255	255	255	
255	255	255	
255	255	255	
255	255	255	
255	255	255	
255	255	255	
255	255	255	
255	255	255	
255	255	255	
255	255	255	
255	255	255	
255	255	255	
255	255	255	
255	255	255	
255	255	255	
255	255	255	
255	255	255	
255	255	255	
255	255	255	
255	255	255	
255	255	255	
255	255	255	
255	255	255	
255	255	255	
255	255	255	
255	255	255	
255	255	255	
255	255	255	
255	255	255	
255	255	255	
255	255	255	
255	255	255	
255	255	255	
255	255	255	
255	255	255	
255	255	255	
255	255	255	
255	255	255	
255	255	255	
255	255	255	
255	255	255	
255	255	255	
255	255	255	
255	255	255	
255	255	255	
255	255	255	
255	255	255	
255	255	255	
255	255	255	
255	255	255	
255	255	255	
255	255	255	
255	255	255	
255	255	255	
255	255	255	
255	255	255	
255	255	255	
255	255	255	
255	255	255	
255	255	255	
255	255	255	
255	255	255	
255	255	255	
255	255	255	
255	255	255	
255	255	255	
255	255	255	
255	255	255	
255	255	255	
255	255	255	
255	255	255	
255	255	255	
255	255	255	
255	255	255	
255	255	255	
255	255	255	
255	255	255	
255	255	255	
255	255	255	
255	255	255	
255	255	255	
255	255	255	
255	255	255	
255	255	255	
255	255	255	
255	255	255	
255	255	255	
255	255	255	
255	255	255	
255	255	255	
255	255	255	
255	255	255	
255	255	255	
255	255	255	
255	255	255	
255	255	255	
255	255	255	
255	255	255	
255	255	255	
255	255	255	
255	255	255	
255	255	255	
255	255	255	
255	255	255	
255	255	255	
255	255	255	
255	255	255	
255	255	255	
255	255	255	
255	255	255	
255	255	255	
255	255	255	
255	255	255	
255	255	255	
255	255	255	
255	255	255	
255	255	255	
255	255	255	
255	255	255	
255	255	255	
255	255	255	
255	255	255	
255	255	255	
255	255	255	
255	255	255	
255	255	255	
255	255	255	
255	255	255	
255	255	255	
255	255	255	
255	255	255	
255	255	255	
255	255	255	
255	255	255	
255	255	255	
255	255	255	
255	255	255	
255	255	255	
255	255	255	
255	255	255	
255	255	255	
255	255	255	
255	255	255	
255	255	255	
255	255	255	
255	255	255	
255	255	255	
255	255	255	
255	255	255	
255	255	255	
255	255	255	
255	255	255	
255	255	255	
255	255	255	
255	255	255	
255	255	255	
255	255	255	
255	255	255	
255	255	255	
255	255	255	
255	255	255	
255	255	255	
255	255	255	
255	255	255	
255	255	255	
255	255	255	
255	255	255	
255	255	255	
255	255	255	
255	255	255	
255	255	255	
255	255	255	
255	255	255	
255	255	255	
255	255	255	
255	255	255	
255	255	255	
255	255	255	
255	255	255	
255	255	255	
255	255	255	
255	255	255	
255	255	255	
255	255	255	
255	255	255	
255	255	255	
255	255	255	
255	255	255	
255	255	255	
255	255	255	
255	255	255	
255	255	255	
255	255	255	
255	255	255	
255	255	255	
255	255	255	
255	255	255	
255	255	255	
255	255	255	
255	255	255	
255	255	255	
255	255	255	
255	255	255	
255	255	255	
255	255	255	
255	255	255	
255	255	255	
255	255	255	
255	255	255	
255	255	255	
255	255	255	
255	255	255	
255	255	255	
255	255	255	
255	255	255	
255	255	255	
255	255	255	
255	255	255	
255	255	255	
255	255	255	
255	255	255	
255	255	255	
255	255	255	
255	255	255	
255	255	255	
255	255	255	
255	255	255	
255	255	255	
255	255	255	
255	255	255	
255	255	255	
255	255	255	
255	255	255	
255	255	255	
255	255	255	
255	255	255	
255	255	255	
255	255	255	
255	255	255	
255	255	255	
255	255	255	
255	255	255	
255	255	255	
255	255	255	
255	255	255	
255	255	255	
255	255	255	
255	255	255	
255	255	255	
125	125	125	
255	255	255	
255	255	255	
255	255	255	
255	255	255	
255	255	255	
255	255	255	
255	255	255	
255	255	255	
255	255	255	
255	255	255	
255	255	255	
255	255	255	
255	255	255	
255	255	255	
255	255	255	
255	255	255	
255	255	255	
255	255	255	
255	255	255	
255	255	255	
255	255	255	
255	255	255	
255	255	255	
255	255	255	
255	255	255	
255	255	255	
255	255	255	
255	255	255	
255	255	255	
255	255	255	
255	255	255	
255	255	255	
255	255	255	
255	255	255	
255	255	255	
255	255	255	
255	255	255	
255	255	255	
255	255	255	
255	255	255	
255	255	255	
255	255	255	
255	255	255	
255	255	255	
255	255	255	
255	255	255	
255	255	255	
255	255	255	
255	255	255	
255	255	255	
255	255	255	
255	255	255	
255	255	255	
255	255	255	
255	255	255	
255	255	255	
255	255	255	
255	255	255	
255	255	255	
255	255	255	
255	255	255	
255	255	255	
255	255	255	
255	255	255	
255	255	255	
255	255	255	
255	255	255	
255	255	255	
255	255	255	
255	255	255	
255	255	255	
255	255	255	
255	255	255	
255	255	255	
255	255	255	
255	255	255	
255	255	255	
255	255	255	
255	255	255	
255	255	255	
255	255	255	
255	255	255	
255	255	255	
255	255	255	
255	255	255	
255	255	255	
255	255	255	
255	255	255	
255	255	255	
255	255	255	
255	255	255	
255	255	255	
255	255	255	
255	255	255	
255	255	255	
255	255	255	
255	255	255	
255	255	255	
255	255	255	
255	255	255	
255	255	255	
255	255	255	
255	255	255	
255	255	255	
255	255	255	
255	255	255	
255	255	255	
255	255	255	
255	255	255	
255	255	255	
255	255	255	
255	255	255	
255	255	255	
255	255	255	
255	255	255	
255	255	255	
255	255	255	
255	255	255	
255	255	255	
255	255	255	
255	255	255	
255	255	255	
255	255	255	
255	255	255	
255	255	255	
255	255	255	
255	255	255	
255	255	255	
255	255	255	
255	255	255	
255	255	255	
255	255	255	
255	255	255	
255	255	255	
255	255	255	
255	255	255	
255	255	255	
255	255	255	
255	255	255	
255	255	255	
255	255	255	
255	255	255	
255	255	255	
255	255	255	
255	255	255	
255	255	255	
255	255	255	
255	255	255	
255	255	255	
255	255	255	
255	255	255	
255	255	255	
255	255	255	
255	255	255	
255	255	255	
255	255	255	
255	255	255	
255	255	255	
255	255	255	
255	255	255	
255	255	255	
255	255	255	
255	255	255	
255	255	255	
255	255	255	
255	255	255	
255	255	255	
255	255	255	
255	255	255	
255	255	255	
255	255	255	
255	255	255	
255	255	255	
255	255	255	
255	255	255	
255	255	255	
255	255	255	
255	255	255	
255	255	255	
255	255	255	
255	255	255	
255	255	255	
255	255	255	
255	255	255	
255	255	255	
255	255	255	
255	255	255	
255	255	255	
255	255	255	
255	255	255	
255	255	255	
255	255	255	
255	255	255	
255	255	255	
255	255	255	
255	255	255	
255	255	255	
255	255	255	
255	255	255	
255	255	255	
255	255	255	
255	255	255	
255	255	255	
255	255	255	
255	255	255	
255	255	255	
255	255	255	
255	255	255	
255	255	255	
255	255	255	
255	255	255	
255	255	255	
255	255	255	
255	255	255	
255	255	255	
255	255	255	
255	255	255	
255	255	255	
255	255	255	
255	255	255	
255	255	255	
255	255	255	
255	255	255	
255	255	255	
255	255	255	
255	255	255	
255	255	255	
255	255	255	
255	255	255	
255	255	255	
255	255	255	
255	255	255	
255	255	255	
255	255	255	
255	255	255	
255	255	255	
255	255	255	
255	255	255	
255	255	255	
255	255	255	
255	255	255	
255	255	255	
255	255	255	
255	255	255	
255	255	255	
255	255	255	
255	255	255	
255	255	255	
255	255	255	
255	255	255	
255	255	255	
255	255	255	
255	255	255	
255	255	255	
255	255	255	
125	125	125	
255	255	255	
255	255	255	
255	255	255	
255	255	255	
255	255	255	
255	255	255	
255	255	255	
255	255	255	
255	255	255	
255	255	255	
255	255	255	
255	255	255	
255	255	255	
255	255	255	
255	255	255	
255	255	255	
255	255	255	
255	255	255	
255	255	255	
255	255	255	
255	255	255	
255	255	255	
255	255	255	
255	255	255	
255	255	255	
255	255	255	
255	255	255	
255	255	255	
255	255	255	
255	255	255	
255	255	255	
255	255	255	
255	255	255	
255	255	255	
255	255	255	
255	255	255	
255	255	255	
255	255	255	
255	255	255	
255	255	255	
255	255	255	
255	255	255	
255	255	255	
255	255	255	
255	255	255	
255	255	255	
255	255	255	
255	255	255	
255	255	255	
255	255	255	
255	255	255	
255	255	255	
255	255	255	
255	255	255	
255	255	255	
255	255	255	
255	255	255	
255	255	255	
255	255	255	
255	255	255	
255	255	255	
255	255	255	
255	255	255	
255	255	255	
255	255	255	
255	255	255	
255	255	255	
255	255	255	
255	255	255	
255	255	255	
255	255	255	
255	255	255	
255	255	255	
255	255	255	
255	255	255	
255	255	255	
255	255	255	
255	255	255	
255	255	255	
255	255	255	
255	255	255	
255	255	255	
255	255	255	
255	255	255	
255	255	255	
255	255	255	
255	255	255	
255	255	255	
255	255	255	
255	255	255	
255	255	255	
255	255	255	
255	255	255	
255	255	255	
255	255	255	
255	255	255	
255	255	255	
255	255	255	
255	255	255	
255	255	255	
255	255	255	
255	255	255	
255	255	255	
255	255	255	
255	255	255	
255	255	255	
255	255	255	
255	255	255	
255	255	255	
255	255	255	
255	255	255	
255	255	255	
255	255	255	
255	255	255	
255	255	255	
255	255	255	
255	255	255	
255	255	255	
255	255	255	
255	255	255	
255	255	255	
255	255	255	
255	255	255	
255	255	255	
255	255	255	
255	255	255	
255	255	255	
255	255	255	
255	255	255	
255	255	255	
255	255	255	
255	255	255	
255	255	255	
255	255	255	
255	255	255	
255	255	255	
255	255	255	
255	255	255	
255	255	255	
255	255	255	
255	255	255	
255	255	255	
255	255	255	
255	255	255	
255	255	255	
255	255	255	
255	255	255	
255	255	255	
255	255	255	
255	255	255	
255	255	255	
255	255	255	
255	255	255	
255	255	255	
255	255	255	
255	255	255	
255	255	255	
255	255	255	
255	255	255	
255	255	255	
255	255	255	
255	255	255	
255	255	255	
255	255	255	
255	255	255	
255	255	255	
255	255	255	
255	255	255	
255	255	255	
255	255	255	
255	255	255	
255	255	255	
255	255	255	
255	255	255	
255	255	255	
255	255	255	
255	255	255	
255	255	255	
255	255	255	
255	255	255	
255	255	255	
255	255	255	
255	255	255	
255	255	255	
255	255	255	
255	255	255	
255	255	255	
255	255	255	
255	255	255	
255	255	255	
255	255	255	
255	255	255	
255	255	255	
255	255	255	
255	255	255	
255	255	255	
255	255	255	
255	255	255	
255	255	255	
255	255	255	
255	255	255	
255	255	255	
255	255	255	
255	255	255	
255	255	255	
255	255	255	
255	255	255	
255	255	255	
255	255	255	
255	255	255	
255	255	255	
255	255	255	
255	255	255	
255	255	255	
255	255	255	
255	255	255	
255	255	255	
255	255	255	
255	255	255	
255	255	255	
255	255	255	
255	255	255	
255	255	255	
255	255	255	
255	255	255	
255	255	255	
255	255	255	
255	255	255	
255	255	255	
255	255	255	
255	255	255	
255	255	255	
255	255	255	
255	255	255	
255	255	255	
255	255	255	
255	255	255	
255	255	255	
255	255	255	
255	255	255	
255	255	255	
255	255	255	
255	255	255	
255	255	255	
255	255	255	
255	255	255	
255	255	255	
255	255	255	
255	255	255	
255	255	255	
255	255	255	
255	255	255	
255	255	255	
255	255	255	
255	255	255	
125	125	125	
255	255	255	
255	255	255	
255	255	255	
255	255	255	
255	255	255	
255	255	255	
255	255	255	
255	255	255	
255	255	255	
255	255	255	
255	255	255	
255	255	255	
255	255	255	
255	255	255	
255	255	255	
255	255	255	
255	255	255	
255	255	255	
255	255	255	
255	255	255	
255	255	255	
255	255	255	
255	255	255	
255	255	255	
255	255	255	
255	255	255	
255	255	255	
255	255	255	
255	255	255	
255	255	255	
255	255	255	
255	255	255	
255	255	255	
255	255	255	
255	255	255	
255	255	255	
255	255	255	
255	255	255	
255	255	255	
255	255	255	
255	255	255	
255	255	255	
255	255	255	
255	255	255	
255	255	255	
255	255	255	
255	255	255	
255	255	255	
255	255	255	
255	255	255	
255	255	255	
255	255	255	
255	255	255	
255	255	255	
255	255	255	
255	255	255	
255	255	255	
255	255	255	
255	255	255	
255	255	255	
255	255	255	
255	255	255	
255	255	255	
255	255	255	
255	255	255	
255	255	255	
255	255	255	
255	255	255	
255	255	255	
255	255	255	
255	255	255	
255	255	255	
255	255	255	
255	255	255	
255	255	255	
255	255	255	
255	255	255	
255	255	255	
255	255	255	
255	255	255	
255	255	255	
255	255	255	
255	255	255	
255	255	255	
255	255	255	
255	255	255	
255	255	255	
255	255	255	
255	255	255	
255	255	255	
255	255	255	
255	255	255	
255	255	255	
255	255	255	
255	255	255	
255	255	255	
255	255	255	
255	255	255	
255	255	255	
255	255	255	
255	255	255	
255	255	255	
255	255	255	
255	255	255	
255	255	255	
255	255	255	
255	255	255	
255	255	255	
255	255	255	
255	255	255	
255	255	255	
255	255	255	
255	255	255	
255	255	255	
255	255	255	
255	255	255	
255	255	255	
255	255	255	
255	255	255	
255	255	255	
255	255	255	
255	255	255	
255	255	255	
255	255	255	
255	255	255	
255	255	255	
255	255	255	
255	255	255	
255	255	255	
255	255	255	
255	255	255	
255	255	255	
255	255	255	
255	255	255	
255	255	255	
255	255	255	
255	255	255	
255	255	255	
255	255	255	
255	255	255	
255	255	255	
255	255	255	
255	255	255	
255	255	255	
255	255	255	
255	255	255	
255	255	255	
255	255	255	
255	255	255	
255	255	255	
255	255	255	
255	255	255	
255	255	255	
255	255	255	
255	255	255	
255	255	255	
255	255	255	
255	255	255	
255	255	255	
255	255	255	
255	255	255	
255	255	255	
255	255	255	
255	255	255	
255	255	255	
255	255	255	
255	255	255	
255	255	255	
255	255	255	
255	255	255	
255	255	255	
255	255	255	
255	255	255	
255	255	255	
255	255	255	
255	255	255	
255	255	255	
255	255	255	
255	255	255	
255	255	255	
255	255	255	
255	255	255	
255	255	255	
255	255	255	
255	255	255	
255	255	255	
255	255	255	
255	255	255	
255	255	255	
255	255	255	
255	255	255	
255	255	255	
255	255	255	
255	255	255	
255	255	255	
255	255	255	
255	255	255	
255	255	255	
255	255	255	
255	255	255	
255	255	255	
255	255	255	
255	255	255	
255	255	255	
255	255	255	
255	255	255	
255	255	255	
255	255	255	
255	255	255	
255	255	255	
255	255	255	
255	255	255	
255	255	255	
255	255	255	
255	255	255	
255	255	255	
255	255	255	
255	255	255	
255	255	255	
255	255	255	
255	255	255	
255	255	255	
255	255	255	
255	255	255	
255	255	255	
255	255	255	
255	255	255	
255	255	255	
255	255	255	
255	255	255	
255	255	255	
255	255	255	
255	255	255	
255	255	255	
255	255	255	
255	255	255	
255	255	255	
255	255	255	
255	255	255	
255	255	255	
255	255	255	
255	255	255	
255	255	255	
255	255	255	
255	255	255	
255	255	255	
255	255	255	
255	255	255	
255	255	255	
255	255	255	
255	255	255	
255	255	255	
255	255	255	
255	255	255	
255	255	255	
255	255	255	
125	125	125	
255	255	255	
255	255	255	
255	255	255	
255	255	255	
255	255	255	
255	255	255	
255	255	255	
255	255	255	
255	255	255	
255	255	255	
255	255	255	
255	255	255	
255	255	255	
255	255	255	
255	255	255	
255	255	255	
255	255	255	
255	255	255	
255	255	255	
255	255	255	
255	255	255	
255	255	255	
255	255	255	
255	255	255	
255	255	255	
255	255	255	
255	255	255	
255	255	255	
255	255	255	
255	255	255	
255	255	255	
255	255	255	
255	255	255	
255	255	255	
255	255	255	
255	255	255	
255	255	255	
255	255	255	
255	255	255	
255	255	255	
255	255	255	
255	255	255	
255	255	255	
255	255	255	
255	255	255	
255	255	255	
255	255	255	
255	255	255	
255	255	255	
255	255	255	
255	255	255	
255	255	255	
255	255	255	
255	255	255	
255	255	255	
255	255	255	
255	255	255	
255	255	255	
255	255	255	
255	255	255	
255	255	255	
255	255	255	
255	255	255	
255	255	255	
255	255	255	
255	255	255	
255	255	255	
255	255	255	
255	255	255	
255	255	255	
255	255	255	
255	255	255	
255	255	255	
255	255	255	
255	255	255	
255	255	255	
255	255	255	
255	255	255	
255	255	255	
255	255	255	
255	255	255	
255	255	255	
255	255	255	
255	255	255	
255	255	255	
255	255	255	
255	255	255	
255	255	255	
255	255	255	
255	255	255	
255	255	255	
255	255	255	
255	255	255	
255	255	255	
255	255	255	
255	255	255	
255	255	255	
255	255	255	
255	255	255	
255	255	255	
255	255	255	
255	255	255	
255	255	255	
255	255	255	
255	255	255	
255	255	255	
255	255	255	
255	255	255	
255	255	255	
255	255	255	
255	255	255	
255	255	255	
255	255	255	
255	255	255	
255	255	255	
255	255	255	
255	255	255	
255	255	255	
255	255	255	
255	255	255	
255	255	255	
255	255	255	
255	255	255	
255	255	255	
255	255	255	
255	255	255	
255	255	255	
255	255	255	
255	255	255	
255	255	255	
255	255	255	
255	255	255	
255	255	255	
255	255	255	
255	255	255	
255	255	255	
255	255	255	
255	255	255	
255	255	255	
255	255	255	
255	255	255	
255	255	255	
255	255	255	
255	255	255	
255	255	255	
255	255	255	
255	255	255	
255	255	255	
255	255	255	
255	255	255	
255	255	255	
255	255	255	
255	255	255	
255	255	255	
255	255	255	
255	255	255	
255	255	255	
255	255	255	
255	255	255	
255	255	255	
255	255	255	
255	255	255	
255	255	255	
255	255	255	
255	255	255	
255	255	255	
255	255	255	
255	255	255	
255	255	255	
255	255	255	
255	255	255	
255	255	255	
255	255	255	
255	255	255	
255	255	255	
255	255	255	
255	255	255	
255	255	255	
255	255	255	
255	255	255	
255	255	255	
255	255	255	
255	255	255	
255	255	255	
255	255	255	
255	255	255	
255	255	255	
255	255	255	
255	255	255	
255	255	255	
255	255	255	
255	255	255	
255	255	255	
255	255	255	
255	255	255	
255	255	255	
255	255	255	
255	255	255	
255	255	255	
255	255	255	
255	255	255	
255	255	255	
255	255	255	
255	255	255	
255	255	255	
255	255	255	
255	255	255	
255	255	255	
255	255	255	
255	255	255	
255	255	255	
255	255	255	
255	255	255	
255	255	255	
255	255	255	
255	255	255	
255	255	255	
255	255	255	
255	255	255	
255	255	255	
255	255	255	
255	255	255	
255	255	255	
255	255	255	
255	255	255	
255	255	255	
255	255	255	
255	255	255	
255	255	255	
255	255	255	
255	255	255	
255	255	255	
255	255	255	
255	255	255	
255	255	255	
255	255	255	
255	255	255	
255	255	255	
255	255	255	
255	255	255	
255	255	255	
255	255	255	
255	255	255	
255	255	255	
255	255	255	
255	255	255	
255	255	255	
255	255	255	
255	255	255	
255	255	255	
255	255	255	
255	255	255	
255	255	255	
255	255	255	
255	255	255	
125	125	125	
255	255	255	
255	255	255	
255	255	255	
255	255	255	
255	255	255	
255	255	255	
255	255	255	
255	255	255	
255	255	255	
255	255	255	
255	255	255	
255	255	255	
255	255	255	
255	255	255	
255	255	255	
255	255	255	
255	255	255	
255	255	255	
255	255	255	
255	255	255	
255	255	255	
255	255	255	
255	255	255	
255	255	255	
255	255	255	
255	255	255	
255	255	255	
255	255	255	
255	255	255	
255	255	255	
255	255	255	
255	255	255	
255	255	255	
255	255	255	
255	255	255	
255	255	255	
255	255	255	
255	255	255	
255	255	255	
255	255	255	
255	255	255	
255	255	255	
255	255	255	
255	255	255	
255	255	255	
255	255	255	
255	255	255	
255	255	255	
255	255	255	
255	255	255	
255	255	255	
255	255	255	
255	255	255	
255	255	255	
255	255	255	
255	255	255	
255	255	255	
255	255	255	
255	255	255	
255	255	255	
255	255	255	
255	255	255	
255	255	255	
255	255	255	
255	255	255	
255	255	255	
255	255	255	
255	255	255	
255	255	255	
255	255	255	
255	255	255	
255	255	255	
255	255	255	
255	255	255	
255	255	255	
255	255	255	
255	255	255	
255	255	255	
255	255	255	
255	255	255	
255	255	255	
255	255	255	
255	255	255	
255	255	255	
255	255	255	
255	255	255	
255	255	255	
255	255	255	
255	255	255	
255	255	255	
255	255	255	
255	255	255	
255	255	255	
255	255	255	
255	255	255	
255	255	255	
255	255	255	
255	255	255	
255	255	255	
255	255	255	
255	255	255	
255	255	255	
255	255	255	
255	255	255	
255	255	255	
255	255	255	
255	255	255	
255	255	255	
255	255	255	
255	255	255	
255	255	255	
255	255	255	
255	255	255	
255	255	255	
255	255	255	
255	255	255	
255	255	255	
255	255	255	
255	255	255	
255	255	255	
255	255	255	
255	255	255	
255	255	255	
255	255	255	
255	255	255	
255	255	255	
255	255	255	
255	255	255	
255	255	255	
255	255	255	
255	255	255	
255	255	255	
255	255	255	
255	255	255	
255	255	255	
255	255	255	
255	255	255	
255	255	255	
255	255	255	
255	255	255	
255	255	255	
255	255	255	
255	255	255	
255	255	255	
255	255	255	
255	255	255	
255	255	255	
255	255	255	
255	255	255	
255	255	255	
255	255	255	
255	255	255	
255	255	255	
255	255	255	
255	255	255	
255	255	255	
255	255	255	
255	255	255	
255	255	255	
255	255	255	
255	255	255	
255	255	255	
255	255	255	
255	255	255	
255	255	255	
255	255	255	
255	255	255	
255	255	255	
255	255	255	
255	255	255	
255	255	255	
255	255	255	
255	255	255	
255	255	255	
255	255	255	
255	255	255	
255	255	255	
255	255	255	
255	255	255	
255	255	255	
255	255	255	
255	255	255	
255	255	255	
255	255	255	
255	255	255	
255	255	255	
255	255	255	
255	255	255	
255	255	255	
255	255	255	
255	255	255	
255	255	255	
255	255	255	
255	255	255	
255	255	255	
255	255	255	
255	255	255	
255	255	255	
255	255	255	
255	255	255	
255	255	255	
255	255	255	
255	255	255	
255	255	255	
255	255	255	
255	255	255	
255	255	255	
255	255	255	
255	255	255	
255	255	255	
255	255	255	
255	255	255	
255	255	255	
255	255	255	
255	255	255	
255	255	255	
255	255	255	
255	255	255	
255	255	255	
255	255	255	
255	255	255	
255	255	255	
255	255	255	
255	255	255	
255	255	255	
255	255	255	
255	255	255	
255	255	255	
255	255	255	
255	255	255	
255	255	255	
255	255	255	
255	255	255	
255	255	255	
255	255	255	
255	255	255	
255	255	255	
255	255	255	
255	255	255	
255	255	255	
255	255	255	
255	255	255	
255	255	255	
255	255	255	
255	255	255	
255	255	255	
255	255	255	
255	255	255	
255	255	255	
255	255	255	
255	255	255	
255	255	255	
255	255	255	
255	255	255	
255	255	255	
125	125	125	
255	255	255	
255	255	255	
255	255	255	
255	255	255	
255	255	255	
255	255	255	
255	255	255	
255	255	255	
255	255	255	
255	255	255	
255	255	255	
255	255	255	
255	255	255	
255	255	255	
255	255	255	
255	255	255	
255	255	255	
255	255	255	
255	255	255	
255	255	255	
255	255	255	
255	255	255	
255	255	255	
255	255	255	
255	255	255	
255	255	255	
255	255	255	
255	255	255	
255	255	255	
255	255	255	
255	255	255	
255	255	255	
255	255	255	
255	255	255	
255	255	255	
255	255	255	
255	255	255	
255	255	255	
255	255	255	
255	255	255	
255	255	255	
255	255	255	
255	255	255	
255	255	255	
255	255	255	
255	255	255	
255	255	255	
255	255	255	
255	255	255	
255	255	255	
255	255	255	
255	255	255	
255	255	255	
255	255	255	
255	255	255	
255	255	255	
255	255	255	
255	255	255	
255	255	255	
255	255	255	
255	255	255	
255	255	255	
255	255	255	
255	255	255	
255	255	255	
255	255	255	
255	255	255	
255	255	255	
255	255	255	
255	255	255	
255	255	255	
255	255	255	
255	255	255	
255	255	255	
255	255	255	
255	255	255	
255	255	255	
255	255	255	
255	255	255	
255	255	255	
255	255	255	
255	255	255	
255	255	255	
255	255	255	
255	255	255	
255	255	255	
255	255	255	
255	255	255	
255	255	255	
255	255	255	
255	255	255	
255	255	255	
255	255	255	
255	255	255	
255	255	255	
255	255	255	
255	255	255	
255	255	255	
255	255	255	
255	255	255	
255	255	255	
255	255	255	
255	255	255	
255	255	255	
255	255	255	
255	255	255	
255	255	255	
255	255	255	
255	255	255	
255	255	255	
255	255	255	
255	255	255	
255	255	255	
255	255	255	
255	255	255	
255	255	255	
255	255	255	
255	255	255	
255	255	255	
255	255	255	
255	255	255	
255	255	255	
255	255	255	
255	255	255	
255	255	255	
255	255	255	
255	255	255	
255	255	255	
255	255	255	
255	255	255	
255	255	255	
255	255	255	
255	255	255	
255	255	255	
255	255	255	
255	255	255	
255	255	255	
255	255	255	
255	255	255	
255	255	255	
255	255	255	
255	255	255	
255	255	255	
255	255	255	
255	255	255	
255	255	255	
255	255	255	
255	255	255	
255	255	255	
255	255	255	
255	255	255	
255	255	255	
255	255	255	
255	255	255	
255	255	255	
255	255	255	
255	255	255	
255	255	255	
255	255	255	
255	255	255	
255	255	255	
255	255	255	
255	255	255	
255	255	255	
255	255	255	
255	255	255	
255	255	255	
255	255	255	
255	255	255	
255	255	255	
255	255	255	
255	255	255	
255	255	255	
255	255	255	
255	255	255	
255	255	255	
255	255	255	
255	255	255	
255	255	255	
255	255	255	
255	255	255	
255	255	255	
255	255	255	
255	255	255	
255	255	255	
255	255	255	
255	255	255	
255	255	255	
255	255	255	
255	255	255	
255	255	255	
255	255	255	
255	255	255	
255	255	255	
255	255	255	
255	255	255	
255	255	255	
255	255	255	
255	255	255	
255	255	255	
255	255	255	
255	255	255	
255	255	255	
255	255	255	
255	255	255	
255	255	255	
255	255	255	
255	255	255	
255	255	255	
255	255	255	
255	255	255	
255	255	255	
255	255	255	
255	255	255	
255	255	255	
255	255	255	
255	255	255	
255	255	255	
255	255	255	
255	255	255	
255	255	255	
255	255	255	
255	255	255	
255	255	255	
255	255	255	
255	255	255	
255	255	255	
255	255	255	
255	255	255	
255	255	255	
255	255	255	
255	255	255	
255	255	255	
255	255	255	
255	255	255	
255	255	255	
255	255	255	
255	255	255	
255	255	255	
255	255	255	
255	255	255	
255	255	255	
255	255	255	
255	255	255	
255	255	255	
255	255	255	
255	255	255	
255	255	255	
255	255	255	
255	255	255	
255	255	255	
255	255	255	
255	255	255	
255	255	255	
255	255	255	
125	125	125	
255	255	255	
255	255	255	
255	255	255	
255	255	255	
255	255	255	
255	255	255	
255	255	255	
255	255	255	
255	255	255	
255	255	255	
255	255	255	
255	255	255	
255	255	255	
255	255	255	
255	255	255	
255	255	255	
255	255	255	
255	255	255	
255	255	255	
255	255	255	
255	255	255	
255	255	255	
255	255	255	
255	255	255	
255	255	255	
255	255	255	
255	255	255	
255	255	255	
255	255	255	
255	255	255	
255	255	255	
255	255	255	
255	255	255	
255	255	255	
255	255	255	
255	255	255	
255	255	255	
255	255	255	
255	255	255	
255	255	255	
255	255	255	
255	255	255	
255	255	255	
255	255	255	
255	255	255	
255	255	255	
255	255	255	
255	255	255	
255	255	255	
255	255	255	
255	255	255	
255	255	255	
255	255	255	
255	255	255	
255	255	255	
255	255	255	
255	255	255	
255	255	255	
255	255	255	
255	255	255	
255	255	255	
255	255	255	
255	255	255	
255	255	255	
255	255	255	
255	255	255	
255	255	255	
255	255	255	
255	255	255	
255	255	255	
255	255	255	
255	255	255	
255	255	255	
255	255	255	
255	255	255	
255	255	255	
255	255	255	
255	255	255	
255	255	255	
255	255	255	
255	255	255	
255	255	255	
255	255	255	
255	255	255	
255	255	255	
255	255	255	
255	255	255	
255	255	255	
255	255	255	
255	255	255	
255	255	255	
255	255	255	
255	255	255	
255	255	255	
255	255	255	
255	255	255	
255	255	255	
255	255	255	
255	255	255	
255	255	255	
255	255	255	
255	255	255	
255	255	255	
255	255	255	
255	255	255	
255	255	255	
255	255	255	
255	255	255	
255	255	255	
255	255	255	
255	255	255	
255	255	255	
255	255	255	
255	255	255	
255	255	255	
255	255	255	
255	255	255	
255	255	255	
255	255	255	
255	255	255	
255	255	255	
255	255	255	
255	255	255	
255	255	255	
255	255	255	
255	255	255	
255	255	255	
255	255	255	
255	255	255	
255	255	255	
255	255	255	
255	255	255	
255	255	255	
255	255	255	
255	255	255	
255	255	255	
255	255	255	
255	255	255	
255	255	255	
255	255	255	
255	255	255	
255	255	255	
255	255	255	
255	255	255	
255	255	255	
255	255	255	
255	255	255	
255	255	255	
255	255	255	
255	255	255	
255	255	255	
255	255	255	
255	255	255	
255	255	255	
255	255	255	
255	255	255	
255	255	255	
255	255	255	
255	255	255	
255	255	255	
255	255	255	
255	255	255	
255	255	255	
255	255	255	
255	255	255	
255	255	255	
255	255	255	
255	255	255	
255	255	255	
255	255	255	
255	255	255	
255	255	255	
255	255	255	
255	255	255	
255	255	255	
255	255	255	
255	255	255	
255	255	255	
255	255	255	
255	255	255	
255	255	255	
255	255	255	
255	255	255	
255	255	255	
255	255	255	
255	255	255	
255	255	255	
255	255	255	
255	255	255	
255	255	255	
255	255	255	
255	255	255	
255	255	255	
255	255	255	
255	255	255	
255	255	255	
255	255	255	
255	255	255	
255	255	255	
255	255	255	
255	255	255	
255	255	255	
255	255	255	
255	255	255	
255	255	255	
255	255	255	
255	255	255	
255	255	255	
255	255	255	
255	255	255	
255	255	255	
255	255	255	
255	255	255	
255	255	255	
255	255	255	
255	255	255	
255	255	255	
255	255	255	
255	255	255	
255	255	255	
255	255	255	
255	255	255	
255	255	255	
255	255	255	
255	255	255	
255	255	255	
255	255	255	
255	255	255	
255	255	255	
255	255	255	
255	255	255	
255	255	255	
255	255	255	
255	255	255	
255	255	255	
255	255	255	
255	255	255	
255	255	255	
255	255	255	
255	255	255	
255	255	255	
255	255	255	
255	255	255	
255	255	255	
255	255	255	
255	255	255	
255	255	255	
255	255	255	
255	255	255	
255	255	255	
255	255	255	
255	255	255	
255	255	255	
255	255	255	
255	255	255	
125	125	125	
255	255	255	
255	255	255	
255	255	255	
255	255	255	
255	255	255	
255	255	255	
255	255	255	
255	255	255	
255	255	255	
255	255	255	
255	255	255	
255	255	255	
255	255	255	
255	255	255	
255	255	255	
255	255	255	
255	255	255	
255	255	255	
255	255	255	
255	255	255	
255	255	255	
255	255	255	
255	255	255	
255	255	255	
255	255	255	
255	255	255	
255	255	255	
255	255	255	
255	255	255	
255	255	255	
255	255	255	
255	255	255	
255	255	255	
255	255	255	
255	255	255	
255	255	255	
255	255	255	
255	255	255	
255	255	255	
255	255	255	
255	255	255	
255	255	255	
255	255	255	
255	255	255	
255	255	255	
255	255	255	
255	255	255	
255	255	255	
255	255	255	
255	255	255	
255	255	255	
255	255	255	
255	255	255	
255	255	255	
255	255	255	
255	255	255	
255	255	255	
255	255	255	
255	255	255	
255	255	255	
255	255	255	
255	255	255	
255	255	255	
255	255	255	
255	255	255	
255	255	255	
255	255	255	
255	255	255	
255	255	255	
255	255	255	
255	255	255	
255	255	255	
255	255	255	
255	255	255	
255	255	255	
255	255	255	
255	255	255	
255	255	255	
255	255	255	
255	255	255	
255	255	255	
255	255	255	
255	255	255	
255	255	255	
255	255	255	
255	255	255	
255	255	255	
255	255	255	
255	255	255	
255	255	255	
255	255	255	
255	255	255	
255	255	255	
255	255	255	
255	255	255	
255	255	255	
255	255	255	
255	255	255	
255	255	255	
255	255	255	
255	255	255	
255	255	255	
255	255	255	
255	255	255	
255	255	255	
255	255	255	
255	255	255	
255	255	255	
255	255	255	
255	255	255	
255	255	255	
255	255	255	
255	255	255	
255	255	255	
255	255	255	
255	255	255	
255	255	255	
255	255	255	
255	255	255	
255	255	255	
255	255	255	
255	255	255	
255	255	255	
255	255	255	
255	255	255	
255	255	255	
255	255	255	
255	255	255	
255	255	255	
255	255	255	
255	255	255	
255	255	255	
255	255	255	
255	255	255	
255	255	255	
255	255	255	
255	255	255	
255	255	255	
255	255	255	
255	255	255	
255	255	255	
255	255	255	
255	255	255	
255	255	255	
255	255	255	
255	255	255	
255	255	255	
255	255	255	
255	255	255	
255	255	255	
255	255	255	
255	255	255	
255	255	255	
255	255	255	
255	255	255	
255	255	255	
255	255	255	
255	255	255	
255	255	255	
255	255	255	
255	255	255	
255	255	255	
255	255	255	
255	255	255	
255	255	255	
255	255	255	
255	255	255	
255	255	255	
255	255	255	
255	255	255	
255	255	255	
255	255	255	
255	255	255	
255	255	255	
255	255	255	
255	255	255	
255	255	255	
255	255	255	
255	255	255	
255	255	255	
255	255	255	
255	255	255	
255	255	255	
255	255	255	
255	255	255	
255	255	255	
255	255	255	
255	255	255	
255	255	255	
255	255	255	
255	255	255	
255	255	255	
255	255	255	
255	255	255	
255	255	255	
255	255	255	
255	255	255	
255	255	255	
255	255	255	
255	255	255	
255	255	255	
255	255	255	
255	255	255	
255	255	255	
255	255	255	
255	255	255	
255	255	255	
255	255	255	
255	255	255	
255	255	255	
255	255	255	
255	255	255	
255	255	255	
255	255	255	
255	255	255	
255	255	255	
255	255	255	
255	255	255	
255	255	255	
255	255	255	
255	255	255	
255	255	255	
255	255	255	
255	255	255	
255	255	255	
255	255	255	
255	255	255	
255	255	255	
255	255	255	
255	255	255	
255	255	255	
255	255	255	
255	255	255	
255	255	255	
255	255	255	
255	255	255	
255	255	255	
255	255	255	
255	255	255	
255	255	255	
255	255	255	
255	255	255	
255	255	255	
255	255	255	
255	255	255	
255	255	255	
255	255	255	
255	255	255	
255	255	255	
255	255	255	
255	255	255	
255	255	255	
255	255	255	
255	255	255	
255	255	255	
125	125	125	
255	255	255	
255	255	255	
255	255	255	
255	255	255	
255	255	255	
255	255	255	
255	255	255	
255	255	255	
255	255	255	
255	255	255	
255	255	255	
255	255	255	
255	255	255	
255	255	255	
255	255	255	
255	255	255	
255	255	255	
255	255	255	
255	255	255	
255	255	255	
255	255	255	
255	255	255	
255	255	255	
255	255	255	
255	255	255	
255	255	255	
255	255	255	
255	255	255	
255	255	255	
255	255	255	
255	255	255	
255	255	255	
255	255	255	
255	255	255	
255	255	255	
255	255	255	
255	255	255	
255	255	255	
255	255	255	
255	255	255	
255	255	255	
255	255	255	
255	255	255	
255	255	255	
255	255	255	
255	255	255	
255	255	255	
255	255	255	
255	255	255	
255	255	255	
255	255	255	
255	255	255	
255	255	255	
255	255	255	
255	255	255	
255	255	255	
255	255	255	
255	255	255	
255	255	255	
255	255	255	
255	255	255	
255	255	255	
255	255	255	
255	255	255	
255	255	255	
255	255	255	
255	255	255	
255	255	255	
255	255	255	
255	255	255	
255	255	255	
255	255	255	
255	255	255	
255	255	255	
255	255	255	
255	255	255	
255	255	255	
255	255	255	
255	255	255	
255	255	255	
255	255	255	
255	255	255	
255	255	255	
255	255	255	
255	255	255	
255	255	255	
255	255	255	
255	255	255	
255	255	255	
255	255	255	
255	255	255	
255	255	255	
255	255	255	
255	255	255	
255	255	255	
255	255	255	
255	255	255	
255	255	255	
255	255	255	
255	255	255	
255	255	255	
255	255	255	
255	255	255	
255	255	255	
255	255	255	
255	255	255	
255	255	255	
255	255	255	
255	255	255	
255	255	255	
255	255	255	
255	255	255	
255	255	255	
255	255	255	
255	255	255	
255	255	255	
255	255	255	
255	255	255	
255	255	255	
255	255	255	
255	255	255	
255	255	255	
255	255	255	
255	255	255	
255	255	255	
255	255	255	
255	255	255	
255	255	255	
255	255	255	
255	255	255	
255	255	255	
255	255	255	
255	255	255	
255	255	255	
255	255	255	
255	255	255	
255	255	255	
255	255	255	
255	255	255	
255	255	255	
255	255	255	
255	255	255	
255	255	255	
255	255	255	
255	255	255	
255	255	255	
255	255	255	
255	255	255	
255	255	255	
255	255	255	
255	255	255	
255	255	255	
255	255	255	
255	255	255	
255	255	255	
255	255	255	
255	255	255	
255	255	255	
255	255	255	
255	255	255	
255	255	255	
255	255	255	
255	255	255	
255	255	255	
255	255	255	
255	255	255	
255	255	255	
255	255	255	
255	255	255	
255	255	255	
255	255	255	
255	255	255	
255	255	255	
255	255	255	
255	255	255	
255	255	255	
255	255	255	
255	255	255	
255	255	255	
255	255	255	
255	255	255	
255	255	255	
255	255	255	
255	255	255	
255	255	255	
255	255	255	
255	255	255	
255	255	255	
255	255	255	
255	255	255	
255	255	255	
255	255	255	
255	255	255	
255	255	255	
255	255	255	
255	255	255	
255	255	255	
255	255	255	
255	255	255	
255	255	255	
255	255	255	
255	255	255	
255	255	255	
255	255	255	
255	255	255	
255	255	255	
255	255	255	
255	255	255	
255	255	255	
255	255	255	
255	255	255	
255	255	255	
255	255	255	
255	255	255	
255	255	255	
255	255	255	
255	255	255	
255	255	255	
255	255	255	
255	255	255	
255	255	255	
255	255	255	
255	255	255	
255	255	255	
255	255	255	
255	255	255	
255	255	255	
255	255	255	
255	255	255	
255	255	255	
255	255	255	
255	255	255	
255	255	255	
255	255	255	
255	255	255	
255	255	255	
255	255	255	
255	255	255	
255	255	255	
255	255	255	
255	255	255	
255	255	255	
255	255	255	
255	255	255	
255	255	255	
255	255	255	
255	255	255	
255	255	255	
255	255	255	
255	255	255	
255	255	255	
255	255	255	
255	255	255	
255	255	255	
255	255	255	
125	125	125	
255	255	255	
255	255	255	
255	255	255	
255	255	255	
255	255	255	
255	255	255	
255	255	255	
255	255	255	
255	255	255	
255	255	255	
255	255	255	
255	255	255	
255	255	255	
255	255	255	
255	255	255	
255	255	255	
255	255	255	
255	255	255	
255	255	255	
255	255	255	
255	255	255	
255	255	255	
255	255	255	
255	255	255	
255	255	255	
255	255	255	
255	255	255	
255	255	255	
255	255	255	
255	255	255	
255	255	255	
255	255	255	
255	255	255	
255	255	255	
255	255	255	
255	255	255	
255	255	255	
255	255	255	
255	255	255	
255	255	255	
255	255	255	
255	255	255	
255	255	255	
255	255	255	
255	255	255	
255	255	255	
255	255	255	
255	255	255	
255	255	255	
255	255	255	
255	255	255	
255	255	255	
255	255	255	
255	255	255	
255	255	255	
255	255	255	
255	255	255	
255	255	255	
255	255	255	
255	255	255	
255	255	255	
255	255	255	
255	255	255	
255	255	255	
255	255	255	
255	255	255	
255	255	255	
255	255	255	
255	255	255	
255	255	255	
255	255	255	
255	255	255	
255	255	255	
255	255	255	
255	255	255	
255	255	255	
255	255	255	
255	255	255	
255	255	255	
255	255	255	
255	255	255	
255	255	255	
255	255	255	
255	255	255	
255	255	255	
255	255	255	
255	255	255	
255	255	255	
255	255	255	
255	255	255	
255	255	255	
255	255	255	
255	255	255	
255	255	255	
255	255	255	
255	255	255	
255	255	255	
255	255	255	
255	255	255	
255	255	255	
255	255	255	
255	255	255	
255	255	255	
255	255	255	
255	255	255	
255	255	255	
255	255	255	
255	255	255	
255	255	255	
255	255	255	
255	255	255	
255	255	255	
255	255	255	
255	255	255	
255	255	255	
255	255	255	
255	255	255	
255	255	255	
255	255	255	
255	255	255	
255	255	255	
255	255	255	
255	255	255	
255	255	255	
255	255	255	
255	255	255	
255	255	255	
255	255	255	
255	255	255	
255	255	255	
255	255	255	
255	255	255	
255	255	255	
255	255	255	
255	255	255	
255	255	255	
255	255	255	
255	255	255	
255	255	255	
255	255	255	
255	255	255	
255	255	255	
255	255	255	
255	255	255	
255	255	255	
255	255	255	
255	255	255	
255	255	255	
255	255	255	
255	255	255	
255	255	255	
255	255	255	
255	255	255	
255	255	255	
255	255	255	
255	255	255	
255	255	255	
255	255	255	
255	255	255	
255	255	255	
255	255	255	
255	255	255	
255	255	255	
255	255	255	
255	255	255	
255	255	255	
255	255	255	
255	255	255	
255	255	255	
255	255	255	
255	255	255	
255	255	255	
255	255	255	
255	255	255	
255	255	255	
255	255	255	
255	255	255	
255	255	255	
255	255	255	
255	255	255	
255	255	255	
255	255	255	
255	255	255	
255	255	255	
255	255	255	
255	255	255	
255	255	255	
255	255	255	
255	255	255	
255	255	255	
255	255	255	
255	255	255	
255	255	255	
255	255	255	
255	255	255	
255	255	255	
255	255	255	
255	255	255	
255	255	255	
255	255	255	
255	255	255	
255	255	255	
255	255	255	
255	255	255	
255	255	255	
255	255	255	
255	255	255	
255	255	255	
255	255	255	
255	255	255	
255	255	255	
255	255	255	
255	255	255	
255	255	255	
255	255	255	
255	255	255	
255	255	255	
255	255	255	
255	255	255	
255	255	255	
255	255	255	
255	255	255	
255	255	255	
255	255	255	
255	255	255	
255	255	255	
255	255	255	
255	255	255	
255	255	255	
255	255	255	
255	255	255	
255	255	255	
255	255	255	
255	255	255	
255	255	255	
255	255	255	
255	255	255	
255	255	255	
255	255	255	
255	255	255	
255	255	255	
255	255	255	
255	255	255	
255	255	255	
255	255	255	
255	255	255	
255	255	255	
255	255	255	
255	255	255	
255	255	255	
255	255	255	
255	255	255	
255	255	255	
255	255	255	
255	255	255	
125	125	125	
255	255	255	
255	255	255	
255	255	255	
255	255	255	
255	255	255	
255	255	255	
255	255	255	
255	255	255	
255	255	255	
255	255	255	
255	255	255	
255	255	255	
255	255	255	
255	255	255	
255	255	255	
255	255	255	
255	255	255	
255	255	255	
255	255	255	
255	255	255	
255	255	255	
255	255	255	
255	255	255	
255	255	255	
255	255	255	
255	255	255	
255	255	255	
255	255	255	
255	255	255	
255	255	255	
255	255	255	
255	255	255	
255	255	255	
255	255	255	
255	255	255	
255	255	255	
255	255	255	
255	255	255	
255	255	255	
255	255	255	
255	255	255	
255	255	255	
255	255	255	
255	255	255	
255	255	255	
255	255	255	
255	255	255	
255	255	255	
255	255	255	
255	255	255	
255	255	255	
255	255	255	
255	255	255	
255	255	255	
255	255	255	
255	255	255	
255	255	255	
255	255	255	
255	255	255	
255	255	255	
255	255	255	
255	255	255	
255	255	255	
255	255	255	
255	255	255	
255	255	255	
255	255	255	
255	255	255	
255	255	255	
255	255	255	
255	255	255	
255	255	255	
255	255	255	
255	255	255	
255	255	255	
255	255	255	
255	255	255	
255	255	255	
255	255	255	
255	255	255	
255	255	255	
255	255	255	
255	255	255	
255	255	255	
255	255	255	
255	255	255	
255	255	255	
255	255	255	
255	255	255	
255	255	255	
255	255	255	
255	255	255	
255	255	255	
255	255	255	
255	255	255	
255	255	255	
255	255	255	
255	255	255	
255	255	255	
255	255	255	
255	255	255	
255	255	255	
255	255	255	
255	255	255	
255	255	255	
255	255	255	
255	255	255	
255	255	255	
255	255	255	
255	255	255	
255	255	255	
255	255	255	
255	255	255	
255	255	255	
255	255	255	
255	255	255	
255	255	255	
255	255	255	
255	255	255	
255	255	255	
255	255	255	
255	255	255	
255	255	255	
255	255	255	
255	255	255	
255	255	255	
255	255	255	
255	255	255	
255	255	255	
255	255	255	
255	255	255	
255	255	255	
255	255	255	
255	255	255	
255	255	255	
255	255	255	
255	255	255	
255	255	255	
255	255	255	
255	255	255	
255	255	255	
255	255	255	
255	255	255	
255	255	255	
255	255	255	
255	255	255	
255	255	255	
255	255	255	
255	255	255	
255	255	255	
255	255	255	
255	255	255	
255	255	255	
255	255	255	
255	255	255	
255	255	255	
255	255	255	
255	255	255	
255	255	255	
255	255	255	
255	255	255	
255	255	255	
255	255	255	
255	255	255	
255	255	255	
255	255	255	
255	255	255	
255	255	255	
255	255	255	
255	255	255	
255	255	255	
255	255	255	
255	255	255	
255	255	255	
255	255	255	
255	255	255	
255	255	255	
255	255	255	
255	255	255	
255	255	255	
255	255	255	
255	255	255	
255	255	255	
255	255	255	
255	255	255	
255	255	255	
255	255	255	
255	255	255	
255	255	255	
255	255	255	
255	255	255	
255	255	255	
255	255	255	
255	255	255	
255	255	255	
255	255	255	
255	255	255	
255	255	255	
255	255	255	
255	255	255	
255	255	255	
255	255	255	
255	255	255	
255	255	255	
255	255	255	
255	255	255	
255	255	255	
255	255	255	
255	255	255	
255	255	255	
255	255	255	
255	255	255	
255	255	255	
255	255	255	
255	255	255	
255	255	255	
255	255	255	
255	255	255	
255	255	255	
255	255	255	
255	255	255	
255	255	255	
255	255	255	
255	255	255	
255	255	255	
255	255	255	
255	255	255	
255	255	255	
255	255	255	
255	255	255	
255	255	255	
255	255	255	
255	255	255	
255	255	255	
255	255	255	
255	255	255	
255	255	255	
255	255	255	
255	255	255	
255	255	255	
255	255	255	
255	255	255	
255	255	255	
255	255	255	
255	255	255	
255	255	255	
255	255	255	
255	255	255	
255	255	255	
255	255	255	
255	255	255	
255	255	255	
255	255	255	
255	255	255	
255	255	255	
125	125	125	
255	255	255	
255	255	255	
255	255	255	
255	255	255	
255	255	255	
255	255	255	
255	255	255	
255	255	255	
255	255	255	
255	255	255	
255	255	255	
255	255	255	
255	255	255	
255	255	255	
255	255	255	
255	255	255	
255	255	255	
255	255	255	
255	255	255	
255	255	255	
255	255	255	
255	255	255	
255	255	255	
255	255	255	
255	255	255	
255	255	255	
255	255	255	
255	255	255	
255	255	255	
255	255	255	
255	255	255	
255	255	255	
255	255	255	
255	255	255	
255	255	255	
255	255	255	
255	255	255	
255	255	255	
255	255	255	
255	255	255	
255	255	255	
255	255	255	
255	255	255	
255	255	255	
255	255	255	
255	255	255	
255	255	255	
255	255	255	
255	255	255	
255	255	255	
255	255	255	
255	255	255	
255	255	255	
255	255	255	
255	255	255	
255	255	255	
255	255	255	
255	255	255	
255	255	255	
255	255	255	
255	255	255	
255	255	255	
255	255	255	
255	255	255	
255	255	255	
255	255	255	
255	255	255	
255	255	255	
255	255	255	
255	255	255	
255	255	255	
255	255	255	
255	255	255	
255	255	255	
255	255	255	
255	255	255	
255	255	255	
255	255	255	
255	255	255	
255	255	255	
255	255	255	
255	255	255	
255	255	255	
255	255	255	
255	255	255	
255	255	255	
255	255	255	
255	255	255	
255	255	255	
255	255	255	
255	255	255	
255	255	255	
255	255	255	
255	255	255	
255	255	255	
255	255	255	
255	255	255	
255	255	255	
255	255	255	
255	255	255	
255	255	255	
255	255	255	
255	255	255	
255	255	255	
255	255	255	
255	255	255	
255	255	255	
255	255	255	
255	255	255	
255	255	255	
255	255	255	
255	255	255	
255	255	255	
255	255	255	
255	255	255	
255	255	255	
255	255	255	
255	255	255	
255	255	255	
255	255	255	
255	255	255	
255	255	255	
255	255	255	
255	255	255	
255	255	255	
255	255	255	
255	255	255	
255	255	255	
255	255	255	
255	255	255	
255	255	255	
255	255	255	
255	255	255	
255	255	255	
255	255	255	
255	255	255	
255	255	255	
255	255	255	
255	255	255	
255	255	255	
255	255	255	
255	255	255	
255	255	255	
255	255	255	
255	255	255	
255	255	255	
255	255	255	
255	255	255	
255	255	255	
255	255	255	
255	255	255	
255	255	255	
255	255	255	
255	255	255	
255	255	255	
255	255	255	
255	255	255	
255	255	255	
255	255	255	
255	255	255	
255	255	255	
255	255	255	
255	255	255	
255	255	255	
255	255	255	
255	255	255	
255	255	255	
255	255	255	
255	255	255	
255	255	255	
255	255	255	
255	255	255	
255	255	255	
255	255	255	
255	255	255	
255	255	255	
255	255	255	
255	255	255	
255	255	255	
255	255	255	
255	255	255	
255	255	255	
255	255	255	
255	255	255	
255	255	255	
255	255	255	
255	255	255	
255	255	255	
255	255	255	
255	255	255	
255	255	255	
255	255	255	
255	255	255	
255	255	255	
255	255	255	
255	255	255	
255	255	255	
255	255	255	
255	255	255	
255	255	255	
255	255	255	
255	255	255	
255	255	255	
255	255	255	
255	255	255	
255	255	255	
255	255	255	
255	255	255	
255	255	255	
255	255	255	
255	255	255	
255	255	255	
255	255	255	
255	255	255	
255	255	255	
255	255	255	
255	255	255	
255	255	255	
255	255	255	
255	255	255	
255	255	255	
255	255	255	
255	255	255	
255	255	255	
255	255	255	
255	255	255	
255	255	255	
255	255	255	
255	255	255	
255	255	255	
255	255	255	
255	255	255	
255	255	255	
255	255	255	
255	255	255	
255	255	255	
255	255	255	
255	255	255	
255	255	255	
255	255	255	
255	255	255	
255	255	255	
255	255	255	
255	255	255	
255	255	255	
255	255	255	
255	255	255	
255	255	255	
255	255	255	
255	255	255	
255	255	255	
255	255	255	
255	255	255	
255	255	255	
255	255	255	
125	125	125	
255	255	255	
255	255	255	
255	255	255	
255	255	255	
255	255	255	
255	255	255	
255	255	255	
255	255	255	
255	255	255	
255	255	255	
255	255	255	
255	255	255	
255	255	255	
255	255	255	
255	255	255	
255	255	255	
255	255	255	
255	255	255	
255	255	255	
255	255	255	
255	255	255	
255	255	255	
255	255	255	
255	255	255	
255	255	255	
255	255	255	
255	255	255	
255	255	255	
255	255	255	
255	255	255	
255	255	255	
255	255	255	
255	255	255	
255	255	255	
255	255	255	
255	255	255	
255	255	255	
255	255	255	
255	255	255	
255	255	255	
255	255	255	
255	255	255	
255	255	255	
255	255	255	
255	255	255	
255	255	255	
255	255	255	
255	255	255	
255	255	255	
255	255	255	
255	255	255	
255	255	255	
255	255	255	
255	255	255	
255	255	255	
255	255	255	
255	255	255	
255	255	255	
255	255	255	
255	255	255	
255	255	255	
255	255	255	
255	255	255	
255	255	255	
255	255	255	
255	255	255	
255	255	255	
255	255	255	
255	255	255	
255	255	255	
255	255	255	
255	255	255	
255	255	255	
255	255	255	
255	255	255	
255	255	255	
255	255	255	
255	255	255	
255	255	255	
255	255	255	
255	255	255	
255	255	255	
255	255	255	
255	255	255	
255	255	255	
255	255	255	
255	255	255	
255	255	255	
255	255	255	
255	255	255	
255	255	255	
255	255	255	
255	255	255	
255	255	255	
255	255	255	
255	255	255	
255	255	255	
255	255	255	
255	255	255	
255	255	255	
255	255	255	
255	255	255	
255	255	255	
255	255	255	
255	255	255	
255	255	255	
255	255	255	
255	255	255	
255	255	255	
255	255	255	
255	255	255	
255	255	255	
255	255	255	
255	255	255	
255	255	255	
255	255	255	
255	255	255	
255	255	255	
255	255	255	
255	255	255	
255	255	255	
255	255	255	
255	255	255	
255	255	255	
255	255	255	
255	255	255	
255	255	255	
255	255	255	
255	255	255	
255	255	255	
255	255	255	
255	255	255	
255	255	255	
255	255	255	
255	255	255	
255	255	255	
255	255	255	
255	255	255	
255	255	255	
255	255	255	
255	255	255	
255	255	255	
255	255	255	
255	255	255	
255	255	255	
255	255	255	
255	255	255	
255	255	255	
255	255	255	
255	255	255	
255	255	255	
255	255	255	
255	255	255	
255	255	255	
255	255	255	
255	255	255	
255	255	255	
255	255	255	
255	255	255	
255	255	255	
255	255	255	
255	255	255	
255	255	255	
255	255	255	
255	255	255	
255	255	255	
255	255	255	
255	255	255	
255	255	255	
255	255	255	
255	255	255	
255	255	255	
255	255	255	
255	255	255	
255	255	255	
255	255	255	
255	255	255	
255	255	255	
255	255	255	
255	255	255	
255	255	255	
255	255	255	
255	255	255	
255	255	255	
255	255	255	
255	255	255	
255	255	255	
255	255	255	
255	255	255	
255	255	255	
255	255	255	
255	255	255	
255	255	255	
255	255	255	
255	255	255	
255	255	255	
255	255	255	
255	255	255	
255	255	255	
255	255	255	
255	255	255	
255	255	255	
255	255	255	
255	255	255	
255	255	255	
255	255	255	
255	255	255	
255	255	255	
255	255	255	
255	255	255	
255	255	255	
255	255	255	
255	255	255	
255	255	255	
255	255	255	
255	255	255	
255	255	255	
255	255	255	
255	255	255	
255	255	255	
255	255	255	
255	255	255	
255	255	255	
255	255	255	
255	255	255	
255	255	255	
255	255	255	
255	255	255	
255	255	255	
255	255	255	
255	255	255	
255	255	255	
255	255	255	
255	255	255	
255	255	255	
255	255	255	
255	255	255	
255	255	255	
255	255	255	
255	255	255	
255	255	255	
255	255	255	
255	255	255	
255	255	255	
255	255	255	
255	255	255	
255	255	255	
255	255	255	
255	255	255	
255	255	255	
255	255	255	
255	255	255	
255	255	255	
255	255	255	
255	255	255	
125	125	125	
255	255	255	
255	255	255	
255	255	255	
255	255	255	
255	255	255	
255	255	255	
255	255	255	
255	255	255	
255	255	255	
255	255	255	
255	255	255	
255	255	255	
255	255	255	
255	255	255	
255	255	255	
255	255	255	
255	255	255	
255	255	255	
255	255	255	
255	255	255	
255	255	255	
255	255	255	
255	255	255	
255	255	255	
255	255	255	
255	255	255	
255	255	255	
255	255	255	
255	255	255	
255	255	255	
255	255	255	
255	255	255	
255	255	255	
255	255	255	
255	255	255	
255	255	255	
255	255	255	
255	255	255	
255	255	255	
255	255	255	
255	255	255	
255	255	255	
255	255	255	
255	255	255	
255	255	255	
255	255	255	
255	255	255	
255	255	255	
255	255	255	
255	255	255	
255	255	255	
255	255	255	
255	255	255	
255	255	255	
255	255	255	
255	255	255	
255	255	255	
255	255	255	
255	255	255	
255	255	255	
255	255	255	
255	255	255	
255	255	255	
255	255	255	
255	255	255	
255	255	255	
255	255	255	
255	255	255	
255	255	255	
255	255	255	
255	255	255	
255	255	255	
255	255	255	
255	255	255	
255	255	255	
255	255	255	
255	255	255	
255	255	255	
255	255	255	
255	255	255	
255	255	255	
255	255	255	
255	255	255	
255	255	255	
255	255	255	
255	255	255	
255	255	255	
255	255	255	
255	255	255	
255	255	255	
255	255	255	
255	255	255	
255	255	255	
255	255	255	
255	255	255	
255	255	255	
255	255	255	
255	255	255	
255	255	255	
255	255	255	
255	255	255	
255	255	255	
255	255	255	
255	255	255	
255	255	255	
255	255	255	
255	255	255	
255	255	255	
255	255	255	
255	255	255	
255	255	255	
255	255	255	
255	255	255	
255	255	255	
255	255	255	
255	255	255	
255	255	255	
255	255	255	
255	255	255	
255	255	255	
255	255	255	
255	255	255	
255	255	255	
255	255	255	
255	255	255	
255	255	255	
255	255	255	
255	255	255	
255	255	255	
255	255	255	
255	255	255	
255	255	255	
255	255	255	
255	255	255	
255	255	255	
255	255	255	
255	255	255	
255	255	255	
255	255	255	
255	255	255	
255	255	255	
255	255	255	
255	255	255	
255	255	255	
255	255	255	
255	255	255	
255	255	255	
255	255	255	
255	255	255	
255	255	255	
255	255	255	
255	255	255	
255	255	255	
255	255	255	
255	255	255	
255	255	255	
255	255	255	
255	255	255	
255	255	255	
255	255	255	
255	255	255	
255	255	255	
255	255	255	
255	255	255	
255	255	255	
255	255	255	
255	255	255	
255	255	255	
255	255	255	
255	255	255	
255	255	255	
255	255	255	
255	255	255	
255	255	255	
255	255	255	
255	255	255	
255	255	255	
255	255	255	
255	255	255	
255	255	255	
255	255	255	
255	255	255	
255	255	255	
255	255	255	
255	255	255	
255	255	255	
255	255	255	
255	255	255	
255	255	255	
255	255	255	
255	255	255	
255	255	255	
255	255	255	
255	255	255	
255	255	255	
255	255	255	
255	255	255	
255	255	255	
255	255	255	
255	255	255	
255	255	255	
255	255	255	
255	255	255	
255	255	255	
255	255	255	
255	255	255	
255	255	255	
255	255	255	
255	255	255	
255	255	255	
255	255	255	
255	255	255	
255	255	255	
255	255	255	
255	255	255	
255	255	255	
255	255	255	
255	255	255	
255	255	255	
255	255	255	
255	255	255	
255	255	255	
255	255	255	
255	255	255	
255	255	255	
255	255	255	
255	255	255	
255	255	255	
255	255	255	
255	255	255	
255	255	255	
255	255	255	
255	255	255	
255	255	255	
255	255	255	
255	255	255	
255	255	255	
255	255	255	
255	255	255	
255	255	255	
255	255	255	
255	255	255	
255	255	255	
255	255	255	
255	255	255	
255	255	255	
255	255	255	
255	255	255	
255	255	255	
255	255	255	
255	255	255	
255	255	255	
255	255	255	
255	255	255	
255	255	255	
125	125	125	
255	255	255	
255	255	255	
255	255	255	
255	255	255	
255	255	255	
255	255	255	
255	255	255	
255	255	255	
255	255	255	
255	255	255	
255	255	255	
255	255	255	
255	255	255	
255	255	255	
255	255	255	
255	255	255	
255	255	255	
255	255	255	
255	255	255	
255	255	255	
255	255	255	
255	255	255	
255	255	255	
255	255	255	
255	255	255	
255	255	255	
255	255	255	
255	255	255	
255	255	255	
255	255	255	
255	255	255	
255	255	255	
255	255	255	
255	255	255	
255	255	255	
255	255	255	
255	255	255	
255	255	255	
255	255	255	
255	255	255	
255	255	255	
255	255	255	
255	255	255	
255	255	255	
255	255	255	
255	255	255	
255	255	255	
255	255	255	
255	255	255	
255	255	255	
255	255	255	
255	255	255	
255	255	255	
255	255	255	
255	255	255	
255	255	255	
255	255	255	
255	255	255	
255	255	255	
255	255	255	
255	255	255	
255	255	255	
255	255	255	
255	255	255	
255	255	255	
255	255	255	
255	255	255	
255	255	255	
255	255	255	
255	255	255	
255	255	255	
255	255	255	
255	255	255	
255	255	255	
255	255	255	
255	255	255	
255	255	255	
255	255	255	
255	255	255	
255	255	255	
255	255	255	
255	255	255	
255	255	255	
255	255	255	
255	255	255	
255	255	255	
255	255	255	
255	255	255	
255	255	255	
255	255	255	
255	255	255	
255	255	255	
255	255	255	
255	255	255	
255	255	255	
255	255	255	
255	255	255	
255	255	255	
255	255	255	
255	255	255	
255	255	255	
255	255	255	
255	255	255	
255	255	255	
255	255	255	
255	255	255	
255	255	255	
255	255	255	
255	255	255	
255	255	255	
255	255	255	
255	255	255	
255	255	255	
255	255	255	
255	255	255	
255	255	255	
255	255	255	
255	255	255	
255	255	255	
255	255	255	
255	255	255	
255	255	255	
255	255	255	
255	255	255	
255	255	255	
255	255	255	
255	255	255	
255	255	255	
255	255	255	
255	255	255	
255	255	255	
255	255	255	
255	255	255	
255	255	255	
255	255	255	
255	255	255	
255	255	255	
255	255	255	
255	255	255	
255	255	255	
255	255	255	
255	255	255	
255	255	255	
255	255	255	
255	255	255	
255	255	255	
255	255	255	
255	255	255	
255	255	255	
255	255	255	
255	255	255	
255	255	255	
255	255	255	
255	255	255	
255	255	255	
255	255	255	
255	255	255	
255	255	255	
255	255	255	
255	255	255	
255	255	255	
255	255	255	
255	255	255	
255	255	255	
255	255	255	
255	255	255	
255	255	255	
255	255	255	
255	255	255	
255	255	255	
255	255	255	
255	255	255	
255	255	255	
255	255	255	
255	255	255	
255	255	255	
255	255	255	
255	255	255	
255	255	255	
255	255	255	
255	255	255	
255	255	255	
255	255	255	
255	255	255	
255	255	255	
255	255	255	
255	255	255	
255	255	255	
255	255	255	
255	255	255	
255	255	255	
255	255	255	
255	255	255	
255	255	255	
255	255	255	
255	255	255	
255	255	255	
255	255	255	
255	255	255	
255	255	255	
255	255	255	
255	255	255	
255	255	255	
255	255	255	
255	255	255	
255	255	255	
255	255	255	
255	255	255	
255	255	255	
255	255	255	
255	255	255	
255	255	255	
255	255	255	
255	255	255	
255	255	255	
255	255	255	
255	255	255	
255	255	255	
255	255	255	
255	255	255	
255	255	255	
255	255	255	
255	255	255	
255	255	255	
255	255	255	
255	255	255	
255	255	255	
255	255	255	
255	255	255	
255	255	255	
255	255	255	
255	255	255	
255	255	255	
255	255	255	
255	255	255	
255	255	255	
255	255	255	
255	255	255	
255	255	255	
255	255	255	
255	255	255	
255	255	255	
255	255	255	
255	255	255	
255	255	255	
255	255	255	
255	255	255	
255	255	255	
255	255	255	
255	255	255	
255	255	255	
255	255	255	
255	255	255	
255	255	255	
255	255	255	
125	125	125	
255	255	255	
255	255	255	
255	255	255	
255	255	255	
255	255	255	
255	255	255	
255	255	255	
255	255	255	
255	255	255	
255	255	255	
255	255	255	
255	255	255	
255	255	255	
255	255	255	
255	255	255	
255	255	255	
255	255	255	
255	255	255	
255	255	255	
255	255	255	
255	255	255	
255	255	255	
255	255	255	
255	255	255	
255	255	255	
255	255	255	
255	255	255	
255	255	255	
255	255	255	
255	255	255	
255	255	255	
255	255	255	
255	255	255	
255	255	255	
255	255	255	
255	255	255	
255	255	255	
255	255	255	
255	255	255	
255	255	255	
255	255	255	
255	255	255	
255	255	255	
255	255	255	
255	255	255	
255	255	255	
255	255	255	
255	255	255	
255	255	255	
255	255	255	
255	255	255	
255	255	255	
255	255	255	
255	255	255	
255	255	255	
255	255	255	
255	255	255	
255	255	255	
255	255	255	
255	255	255	
255	255	255	
255	255	255	
255	255	255	
255	255	255	
255	255	255	
255	255	255	
255	255	255	
255	255	255	
255	255	255	
255	255	255	
255	255	255	
255	255	255	
255	255	255	
255	255	255	
255	255	255	
255	255	255	
255	255	255	
255	255	255	
255	255	255	
255	255	255	
255	255	255	
255	255	255	
255	255	255	
255	255	255	
255	255	255	
255	255	255	
255	255	255	
255	255	255	
255	255	255	
255	255	255	
255	255	255	
255	255	255	
255	255	255	
255	255	255	
255	255	255	
255	255	255	
255	255	255	
255	255	255	
255	255	255	
255	255	255	
255	255	255	
255	255	255	
255	255	255	
255	255	255	
255	255	255	
255	255	255	
255	255	255	
255	255	255	
255	255	255	
255	255	255	
255	255	255	
255	255	255	
255	255	255	
255	255	255	
255	255	255	
255	255	255	
255	255	255	
255	255	255	
255	255	255	
255	255	255	
255	255	255	
255	255	255	
255	255	255	
255	255	255	
255	255	255	
255	255	255	
255	255	255	
255	255	255	
255	255	255	
255	255	255	
255	255	255	
255	255	255	
255	255	255	
255	255	255	
255	255	255	
255	255	255	
255	255	255	
255	255	255	
255	255	255	
255	255	255	
255	255	255	
255	255	255	
255	255	255	
255	255	255	
255	255	255	
255	255	255	
255	255	255	
255	255	255	
255	255	255	
255	255	255	
255	255	255	
255	255	255	
255	255	255	
255	255	255	
255	255	255	
255	255	255	
255	255	255	
255	255	255	
255	255	255	
255	255	255	
255	255	255	
255	255	255	
255	255	255	
255	255	255	
255	255	255	
255	255	255	
255	255	255	
255	255	255	
255	255	255	
255	255	255	
255	255	255	
255	255	255	
255	255	255	
255	255	255	
255	255	255	
255	255	255	
255	255	255	
255	255	255	
255	255	255	
255	255	255	
255	255	255	
255	255	255	
255	255	255	
255	255	255	
255	255	255	
255	255	255	
255	255	255	
255	255	255	
255	255	255	
255	255	255	
255	255	255	
255	255	255	
255	255	255	
255	255	255	
255	255	255	
255	255	255	
255	255	255	
255	255	255	
255	255	255	
255	255	255	
255	255	255	
255	255	255	
255	255	255	
255	255	255	
255	255	255	
255	255	255	
255	255	255	
255	255	255	
255	255	255	
255	255	255	
255	255	255	
255	255	255	
255	255	255	
255	255	255	
255	255	255	
255	255	255	
255	255	255	
255	255	255	
255	255	255	
255	255	255	
255	255	255	
255	255	255	
255	255	255	
255	255	255	
255	255	255	
255	255	255	
255	255	255	
255	255	255	
255	255	255	
255	255	255	
255	255	255	
255	255	255	
255	255	255	
255	255	255	
255	255	255	
255	255	255	
255	255	255	
255	255	255	
255	255	255	
255	255	255	
255	255	255	
255	255	255	
255	255	255	
255	255	255	
255	255	255	
255	255	255	
255	255	255	
255	255	255	
255	255	255	
255	255	255	
255	255	255	
255	255	255	
255	255	255	
255	255	255	
255	255	255	
125	125	125	
255	255	255	
255	255	255	
255	255	255	
255	255	255	
255	255	255	
255	255	255	
255	255	255	
255	255	255	
255	255	255	
255	255	255	
255	255	255	
255	255	255	
255	255	255	
255	255	255	
255	255	255	
255	255	255	
255	255	255	
255	255	255	
255	255	255	
255	255	255	
255	255	255	
255	255	255	
255	255	255	
255	255	255	
255	255	255	
255	255	255	
255	255	255	
255	255	255	
255	255	255	
255	255	255	
255	255	255	
255	255	255	
255	255	255	
255	255	255	
255	255	255	
255	255	255	
255	255	255	
255	255	255	
255	255	255	
255	255	255	
255	255	255	
255	255	255	
255	255	255	
255	255	255	
255	255	255	
255	255	255	
255	255	255	
255	255	255	
255	255	255	
255	255	255	
255	255	255	
255	255	255	
255	255	255	
255	255	255	
255	255	255	
255	255	255	
255	255	255	
255	255	255	
255	255	255	
255	255	255	
255	255	255	
255	255	255	
255	255	255	
255	255	255	
255	255	255	
255	255	255	
255	255	255	
255	255	255	
255	255	255	
255	255	255	
255	255	255	
255	255	255	
255	255	255	
255	255	255	
255	255	255	
255	255	255	
255	255	255	
255	255	255	
255	255	255	
255	255	255	
255	255	255	
255	255	255	
255	255	255	
255	255	255	
255	255	255	
255	255	255	
255	255	255	
255	255	255	
255	255	255	
255	255	255	
255	255	255	
255	255	255	
255	255	255	
255	255	255	
255	255	255	
255	255	255	
255	255	255	
255	255	255	
255	255	255	
255	255	255	
255	255	255	
255	255	255	
255	255	255	
255	255	255	
255	255	255	
255	255	255	
255	255	255	
255	255	255	
255	255	255	
255	255	255	
255	255	255	
255	255	255	
255	255	255	
255	255	255	
255	255	255	
255	255	255	
255	255	255	
255	255	255	
255	255	255	
255	255	255	
255	255	255	
255	255	255	
255	255	255	
255	255	255	
255	255	255	
255	255	255	
255	255	255	
255	255	255	
255	255	255	
255	255	255	
255	255	255	
255	255	255	
255	255	255	
255	255	255	
255	255	255	
255	255	255	
255	255	255	
255	255	255	
255	255	255	
255	255	255	
255	255	255	
255	255	255	
255	255	255	
255	255	255	
255	255	255	
255	255	255	
255	255	255	
255	255	255	
255	255	255	
255	255	255	
255	255	255	
255	255	255	
255	255	255	
255	255	255	
255	255	255	
255	255	255	
255	255	255	
255	255	255	
255	255	255	
255	255	255	
255	255	255	
255	255	255	
255	255	255	
255	255	255	
255	255	255	
255	255	255	
255	255	255	
255	255	255	
255	255	255	
255	255	255	
255	255	255	
255	255	255	
255	255	255	
255	255	255	
255	255	255	
255	255	255	
255	255	255	
255	255	255	
255	255	255	
255	255	255	
255	255	255	
255	255	255	
255	255	255	
255	255	255	
255	255	255	
255	255	255	
255	255	255	
255	255	255	
255	255	255	
255	255	255	
255	255	255	
255	255	255	
255	255	255	
255	255	255	
255	255	255	
255	255	255	
255	255	255	
255	255	255	
255	255	255	
255	255	255	
255	255	255	
255	255	255	
255	255	255	
255	255	255	
255	255	255	
255	255	255	
255	255	255	
255	255	255	
255	255	255	
255	255	255	
255	255	255	
255	255	255	
255	255	255	
255	255	255	
255	255	255	
255	255	255	
255	255	255	
255	255	255	
255	255	255	
255	255	255	
255	255	255	
255	255	255	
255	255	255	
255	255	255	
255	255	255	
255	255	255	
255	255	255	
255	255	255	
255	255	255	
255	255	255	
255	255	255	
255	255	255	
255	255	255	
255	255	255	
255	255	255	
255	255	255	
255	255	255	
255	255	255	
255	255	255	
255	255	255	
255	255	255	
255	255	255	
255	255	255	
255	255	255	
255	255	255	
255	255	255	
255	255	255	
255	255	255	
255	255	255	
255	255	255	
255	255	255	
255	255	255	
255	255	255	
255	255	255	
255	255	255	
255	255	255	
125	125	125	
255	255	255	
255	255	255	
255	255	255	
255	255	255	
255	255	255	
255	255	255	
255	255	255	
255	255	255	
255	255	255	
255	255	255	
255	255	255	
255	255	255	
255	255	255	
255	255	255	
255	255	255	
255	255	255	
255	255	255	
255	255	255	
255	255	255	
255	255	255	
255	255	255	
255	255	255	
255	255	255	
255	255	255	
255	255	255	
255	255	255	
255	255	255	
255	255	255	
255	255	255	
255	255	255	
255	255	255	
255	255	255	
255	255	255	
255	255	255	
255	255	255	
255	255	255	
255	255	255	
255	255	255	
255	255	255	
255	255	255	
255	255	255	
255	255	255	
255	255	255	
255	255	255	
255	255	255	
255	255	255	
255	255	255	
255	255	255	
255	255	255	
255	255	255	
255	255	255	
255	255	255	
255	255	255	
255	255	255	
255	255	255	
255	255	255	
255	255	255	
255	255	255	
255	255	255	
255	255	255	
255	255	255	
255	255	255	
255	255	255	
255	255	255	
255	255	255	
255	255	255	
255	255	255	
255	255	255	
255	255	255	
255	255	255	
255	255	255	
255	255	255	
255	255	255	
255	255	255	
255	255	255	
255	255	255	
255	255	255	
255	255	255	
255	255	255	
255	255	255	
255	255	255	
255	255	255	
255	255	255	
255	255	255	
255	255	255	
255	255	255	
255	255	255	
255	255	255	
255	255	255	
255	255	255	
255	255	255	
255	255	255	
255	255	255	
255	255	255	
255	255	255	
255	255	255	
255	255	255	
255	255	255	
255	255	255	
255	255	255	
255	255	255	
255	255	255	
255	255	255	
255	255	255	
255	255	255	
255	255	255	
255	255	255	
255	255	255	
255	255	255	
255	255	255	
255	255	255	
255	255	255	
255	255	255	
255	255	255	
255	255	255	
255	255	255	
255	255	255	
255	255	255	
255	255	255	
255	255	255	
255	255	255	
255	255	255	
255	255	255	
255	255	255	
255	255	255	
255	255	255	
255	255	255	
255	255	255	
255	255	255	
255	255	255	
255	255	255	
255	255	255	
255	255	255	
255	255	255	
255	255	255	
255	255	255	
255	255	255	
255	255	255	
255	255	255	
255	255	255	
255	255	255	
255	255	255	
255	255	255	
255	255	255	
255	255	255	
255	255	255	
255	255	255	
255	255	255	
255	255	255	
255	255	255	
255	255	255	
255	255	255	
255	255	255	
255	255	255	
255	255	255	
255	255	255	
255	255	255	
255	255	255	
255	255	255	
255	255	255	
255	255	255	
255	255	255	
255	255	255	
255	255	255	
255	255	255	
255	255	255	
255	255	255	
255	255	255	
255	255	255	
255	255	255	
255	255	255	
255	255	255	
255	255	255	
255	255	255	
255	255	255	
255	255	255	
255	255	255	
255	255	255	
255	255	255	
255	255	255	
255	255	255	
255	255	255	
255	255	255	
255	255	255	
255	255	255	
255	255	255	
255	255	255	
255	255	255	
255	255	255	
255	255	255	
255	255	255	
255	255	255	
255	255	255	
255	255	255	
255	255	255	
255	255	255	
255	255	255	
255	255	255	
255	255	255	
255	255	255	
255	255	255	
255	255	255	
255	255	255	
255	255	255	
255	255	255	
255	255	255	
255	255	255	
255	255	255	
255	255	255	
255	255	255	
255	255	255	
255	255	255	
255	255	255	
255	255	255	
255	255	255	
255	255	255	
255	255	255	
255	255	255	
255	255	255	
255	255	255	
255	255	255	
255	255	255	
255	255	255	
255	255	255	
255	255	255	
255	255	255	
255	255	255	
255	255	255	
255	255	255	
255	255	255	
255	255	255	
255	255	255	
255	255	255	
255	255	255	
255	255	255	
255	255	255	
255	255	255	
255	255	255	
255	255	255	
255	255	255	
255	255	255	
255	255	255	
255	255	255	
255	255	255	
255	255	255	
255	255	255	
255	255	255	
255	255	255	
255	255	255	
255	255	255	
255	255	255	
255	255	255	
255	255	255	
255	255	255	
255	255	255	
125	125	125	
255	255	255	
255	255	255	
255	255	255	
255	255	255	
255	255	255	
255	255	255	
255	255	255	
255	255	255	
255	255	255	
255	255	255	
255	255	255	
255	255	255	
255	255	255	
255	255	255	
255	255	255	
255	255	255	
255	255	255	
255	255	255	
255	255	255	
255	255	255	
255	255	255	
255	255	255	
255	255	255	
255	255	255	
255	255	255	
255	255	255	
255	255	255	
255	255	255	
255	255	255	
255	255	255	
255	255	255	
255	255	255	
255	255	255	
255	255	255	
255	255	255	
255	255	255	
255	255	255	
255	255	255	
255	255	255	
255	255	255	
255	255	255	
255	255	255	
255	255	255	
255	255	255	
255	255	255	
255	255	255	
255	255	255	
255	255	255	
255	255	255	
255	255	255	
255	255	255	
255	255	255	
255	255	255	
255	255	255	
255	255	255	
255	255	255	
255	255	255	
255	255	255	
255	255	255	
255	255	255	
255	255	255	
255	255	255	
255	255	255	
255	255	255	
255	255	255	
255	255	255	
255	255	255	
255	255	255	
255	255	255	
255	255	255	
255	255	255	
255	255	255	
255	255	255	
255	255	255	
255	255	255	
255	255	255	
255	255	255	
255	255	255	
255	255	255	
255	255	255	
255	255	255	
255	255	255	
255	255	255	
255	255	255	
255	255	255	
255	255	255	
255	255	255	
255	255	255	
255	255	255	
255	255	255	
255	255	255	
255	255	255	
255	255	255	
255	255	255	
255	255	255	
255	255	255	
255	255	255	
255	255	255	
255	255	255	
255	255	255	
255	255	255	
255	255	255	
255	255	255	
255	255	255	
255	255	255	
255	255	255	
255	255	255	
255	255	255	
255	255	255	
255	255	255	
255	255	255	
255	255	255	
255	255	255	
255	255	255	
255	255	255	
255	255	255	
255	255	255	
255	255	255	
255	255	255	
255	255	255	
255	255	255	
255	255	255	
255	255	255	
255	255	255	
255	255	255	
255	255	255	
255	255	255	
255	255	255	
255	255	255	
255	255	255	
255	255	255	
255	255	255	
255	255	255	
255	255	255	
255	255	255	
255	255	255	
255	255	255	
255	255	255	
255	255	255	
255	255	255	
255	255	255	
255	255	255	
255	255	255	
255	255	255	
255	255	255	
255	255	255	
255	255	255	
255	255	255	
255	255	255	
255	255	255	
255	255	255	
255	255	255	
255	255	255	
255	255	255	
255	255	255	
255	255	255	
255	255	255	
255	255	255	
255	255	255	
255	255	255	
255	255	255	
255	255	255	
255	255	255	
255	255	255	
255	255	255	
255	255	255	
255	255	255	
255	255	255	
255	255	255	
255	255	255	
255	255	255	
255	255	255	
255	255	255	
255	255	255	
255	255	255	
255	255	255	
255	255	255	
255	255	255	
255	255	255	
255	255	255	
255	255	255	
255	255	255	
255	255	255	
255	255	255	
255	255	255	
255	255	255	
255	255	255	
255	255	255	
255	255	255	
255	255	255	
255	255	255	
255	255	255	
255	255	255	
255	255	255	
255	255	255	
255	255	255	
255	255	255	
255	255	255	
255	255	255	
255	255	255	
255	255	255	
255	255	255	
255	255	255	
255	255	255	
255	255	255	
255	255	255	
255	255	255	
255	255	255	
255	255	255	
255	255	255	
255	255	255	
255	255	255	
255	255	255	
255	255	255	
255	255	255	
255	255	255	
255	255	255	
255	255	255	
255	255	255	
255	255	255	
255	255	255	
255	255	255	
255	255	255	
255	255	255	
255	255	255	
255	255	255	
255	255	255	
255	255	255	
255	255	255	
255	255	255	
255	255	255	
255	255	255	
255	255	255	
255	255	255	
255	255	255	
255	255	255	
255	255	255	
255	255	255	
255	255	255	
255	255	255	
255	255	255	
255	255	255	
255	255	255	
255	255	255	
255	255	255	
255	255	255	
255	255	255	
255	255	255	
255	255	255	
255	255	255	
255	255	255	
255	255	255	
255	255	255	
255	255	255	
255	255	255	
125	125	125	
255	255	255	
255	255	255	
255	255	255	
255	255	255	
255	255	255	
255	255	255	
255	255	255	
255	255	255	
255	255	255	
255	255	255	
255	255	255	
255	255	255	
255	255	255	
255	255	255	
255	255	255	
255	255	255	
255	255	255	
255	255	255	
255	255	255	
255	255	255	
255	255	255	
255	255	255	
255	255	255	
255	255	255	
255	255	255	
255	255	255	
255	255	255	
255	255	255	
255	255	255	
255	255	255	
255	255	255	
255	255	255	
255	255	255	
255	255	255	
255	255	255	
255	255	255	
255	255	255	
255	255	255	
255	255	255	
255	255	255	
255	255	255	
255	255	255	
255	255	255	
255	255	255	
255	255	255	
255	255	255	
255	255	255	
255	255	255	
255	255	255	
255	255	255	
255	255	255	
255	255	255	
255	255	255	
255	255	255	
255	255	255	
255	255	255	
255	255	255	
255	255	255	
255	255	255	
255	255	255	
255	255	255	
255	255	255	
255	255	255	
255	255	255	
255	255	255	
255	255	255	
255	255	255	
255	255	255	
255	255	255	
255	255	255	
255	255	255	
255	255	255	
255	255	255	
255	255	255	
255	255	255	
255	255	255	
255	255	255	
255	255	255	
255	255	255	
255	255	255	
255	255	255	
255	255	255	
255	255	255	
255	255	255	
255	255	255	
255	255	255	
255	255	255	
255	255	255	
255	255	255	
255	255	255	
255	255	255	
255	255	255	
255	255	255	
255	255	255	
255	255	255	
255	255	255	
255	255	255	
255	255	255	
255	255	255	
255	255	255	
255	255	255	
255	255	255	
255	255	255	
255	255	255	
255	255	255	
255	255	255	
255	255	255	
255	255	255	
255	255	255	
255	255	255	
255	255	255	
255	255	255	
255	255	255	
255	255	255	
255	255	255	
255	255	255	
255	255	255	
255	255	255	
255	255	255	
255	255	255	
255	255	255	
255	255	255	
255	255	255	
255	255	255	
255	255	255	
255	255	255	
255	255	255	
255	255	255	
255	255	255	
255	255	255	
255	255	255	
255	255	255	
255	255	255	
255	255	255	
255	255	255	
255	255	255	
255	255	255	
255	255	255	
255	255	255	
255	255	255	
255	255	255	
255	255	255	
255	255	255	
255	255	255	
255	255	255	
255	255	255	
255	255	255	
255	255	255	
255	255	255	
255	255	255	
255	255	255	
255	255	255	
255	255	255	
255	255	255	
255	255	255	
255	255	255	
255	255	255	
255	255	255	
255	255	255	
255	255	255	
255	255	255	
255	255	255	
255	255	255	
255	255	255	
255	255	255	
255	255	255	
255	255	255	
255	255	255	
255	255	255	
255	255	255	
255	255	255	
255	255	255	
255	255	255	
255	255	255	
255	255	255	
255	255	255	
255	255	255	
255	255	255	
255	255	255	
255	255	255	
255	255	255	
255	255	255	
255	255	255	
255	255	255	
255	255	255	
255	255	255	
255	255	255	
255	255	255	
255	255	255	
255	255	255	
255	255	255	
255	255	255	
255	255	255	
255	255	255	
255	255	255	
255	255	255	
255	255	255	
255	255	255	
255	255	255	
255	255	255	
255	255	255	
255	255	255	
255	255	255	
255	255	255	
255	255	255	
255	255	255	
255	255	255	
255	255	255	
255	255	255	
255	255	255	
255	255	255	
255	255	255	
255	255	255	
255	255	255	
255	255	255	
255	255	255	
255	255	255	
255	255	255	
255	255	255	
255	255	255	
255	255	255	
255	255	255	
255	255	255	
255	255	255	
255	255	255	
255	255	255	
255	255	255	
255	255	255	
255	255	255	
255	255	255	
255	255	255	
255	255	255	
255	255	255	
255	255	255	
255	255	255	
255	255	255	
255	255	255	
255	255	255	
255	255	255	
255	255	255	
255	255	255	
255	255	255	
255	255	255	
255	255	255	
255	255	255	
255	255	255	
255	255	255	
255	255	255	
255	255	255	
255	255	255	
255	255	255	
255	255	255	
255	255	255	
255	255	255	
255	255	255	
125	125	125	
255	255	255	
255	255	255	
255	255	255	
255	255	255	
255	255	255	
255	255	255	
255	255	255	
255	255	255	
255	255	255	
255	255	255	
255	255	255	
255	255	255	
255	255	255	
255	255	255	
255	255	255	
255	255	255	
255	255	255	
255	255	255	
255	255	255	
255	255	255	
255	255	255	
255	255	255	
255	255	255	
255	255	255	
255	255	255	
255	255	255	
255	255	255	
255	255	255	
255	255	255	
255	255	255	
255	255	255	
255	255	255	
255	255	255	
255	255	255	
255	255	255	
255	255	255	
255	255	255	
255	255	255	
255	255	255	
255	255	255	
255	255	255	
255	255	255	
255	255	255	
255	255	255	
255	255	255	
255	255	255	
255	255	255	
255	255	255	
255	255	255	
255	255	255	
255	255	255	
255	255	255	
255	255	255	
255	255	255	
255	255	255	
255	255	255	
255	255	255	
255	255	255	
255	255	255	
255	255	255	
255	255	255	
255	255	255	
255	255	255	
255	255	255	
255	255	255	
255	255	255	
255	255	255	
255	255	255	
255	255	255	
255	255	255	
255	255	255	
255	255	255	
255	255	255	
255	255	255	
255	255	255	
255	255	255	
255	255	255	
255	255	255	
255	255	255	
255	255	255	
255	255	255	
255	255	255	
255	255	255	
255	255	255	
255	255	255	
255	255	255	
255	255	255	
255	255	255	
255	255	255	
255	255	255	
255	255	255	
255	255	255	
255	255	255	
255	255	255	
255	255	255	
255	255	255	
255	255	255	
255	255	255	
255	255	255	
255	255	255	
255	255	255	
255	255	255	
255	255	255	
255	255	255	
255	255	255	
255	255	255	
255	255	255	
255	255	255	
255	255	255	
255	255	255	
255	255	255	
255	255	255	
255	255	255	
255	255	255	
255	255	255	
255	255	255	
255	255	255	
255	255	255	
255	255	255	
255	255	255	
255	255	255	
255	255	255	
255	255	255	
255	255	255	
255	255	255	
255	255	255	
255	255	255	
255	255	255	
255	255	255	
255	255	255	
255	255	255	
255	255	255	
255	255	255	
255	255	255	
255	255	255	
255	255	255	
255	255	255	
255	255	255	
255	255	255	
255	255	255	
255	255	255	
255	255	255	
255	255	255	
255	255	255	
255	255	255	
255	255	255	
255	255	255	
255	255	255	
255	255	255	
255	255	255	
255	255	255	
255	255	255	
255	255	255	
255	255	255	
255	255	255	
255	255	255	
255	255	255	
255	255	255	
255	255	255	
255	255	255	
255	255	255	
255	255	255	
255	255	255	
255	255	255	
255	255	255	
255	255	255	
255	255	255	
255	255	255	
255	255	255	
255	255	255	
255	255	255	
255	255	255	
255	255	255	
255	255	255	
255	255	255	
255	255	255	
255	255	255	
255	255	255	
255	255	255	
255	255	255	
255	255	255	
255	255	255	
255	255	255	
255	255	255	
255	255	255	
255	255	255	
255	255	255	
255	255	255	
255	255	255	
255	255	255	
255	255	255	
255	255	255	
255	255	255	
255	255	255	
255	255	255	
255	255	255	
255	255	255	
255	255	255	
255	255	255	
255	255	255	
255	255	255	
255	255	255	
255	255	255	
255	255	255	
255	255	255	
255	255	255	
255	255	255	
255	255	255	
255	255	255	
255	255	255	
255	255	255	
255	255	255	
255	255	255	
255	255	255	
255	255	255	
255	255	255	
255	255	255	
255	255	255	
255	255	255	
255	255	255	
255	255	255	
255	255	255	
255	255	255	
255	255	255	
255	255	255	
255	255	255	
255	255	255	
255	255	255	
255	255	255	
255	255	255	
255	255	255	
255	255	255	
255	255	255	
255	255	255	
255	255	255	
255	255	255	
255	255	255	
255	255	255	
255	255	255	
255	255	255	
255	255	255	
255	255	255	
255	255	255	
255	255	255	
255	255	255	
255	255	255	
255	255	255	
255	255	255	
255	255	255	
255	255	255	
255	255	255	
255	255	255	
255	255	255	
255	255	255	
255	255	255	
125	125	125	
255	255	255	
255	255	255	
255	255	255	
255	255	255	
255	255	255	
255	255	255	
255	255	255	
255	255	255	
255	255	255	
255	255	255	
255	255	255	
255	255	255	
255	255	255	
255	255	255	
255	255	255	
255	255	255	
255	255	255	
255	255	255	
255	255	255	
255	255	255	
255	255	255	
255	255	255	
255	255	255	
255	255	255	
255	255	255	
255	255	255	
255	255	255	
255	255	255	
255	255	255	
255	255	255	
255	255	255	
255	255	255	
255	255	255	
255	255	255	
255	255	255	
255	255	255	
255	255	255	
255	255	255	
255	255	255	
255	255	255	
255	255	255	
255	255	255	
255	255	255	
255	255	255	
255	255	255	
255	255	255	
255	255	255	
255	255	255	
255	255	255	
255	255	255	
255	255	255	
255	255	255	
255	255	255	
255	255	255	
255	255	255	
255	255	255	
255	255	255	
255	255	255	
255	255	255	
255	255	255	
255	255	255	
255	255	255	
255	255	255	
255	255	255	
255	255	255	
255	255	255	
255	255	255	
255	255	255	
255	255	255	
255	255	255	
255	255	255	
255	255	255	
255	255	255	
255	255	255	
255	255	255	
255	255	255	
255	255	255	
255	255	255	
255	255	255	
255	255	255	
255	255	255	
255	255	255	
255	255	255	
255	255	255	
255	255	255	
255	255	255	
255	255	255	
255	255	255	
255	255	255	
255	255	255	
255	255	255	
255	255	255	
255	255	255	
255	255	255	
255	255	255	
255	255	255	
255	255	255	
255	255	255	
255	255	255	
255	255	255	
255	255	255	
255	255	255	
255	255	255	
255	255	255	
255	255	255	
255	255	255	
255	255	255	
255	255	255	
255	255	255	
255	255	255	
255	255	255	
255	255	255	
255	255	255	
255	255	255	
255	255	255	
255	255	255	
255	255	255	
255	255	255	
255	255	255	
255	255	255	
255	255	255	
255	255	255	
255	255	255	
255	255	255	
255	255	255	
255	255	255	
255	255	255	
255	255	255	
255	255	255	
255	255	255	
255	255	255	
255	255	255	
255	255	255	
255	255	255	
255	255	255	
255	255	255	
255	255	255	
255	255	255	
255	255	255	
255	255	255	
255	255	255	
255	255	255	
255	255	255	
255	255	255	
255	255	255	
255	255	255	
255	255	255	
255	255	255	
255	255	255	
255	255	255	
255	255	255	
255	255	255	
255	255	255	
255	255	255	
255	255	255	
255	255	255	
255	255	255	
255	255	255	
255	255	255	
255	255	255	
255	255	255	
255	255	255	
255	255	255	
255	255	255	
255	255	255	
255	255	255	
255	255	255	
255	255	255	
255	255	255	
255	255	255	
255	255	255	
255	255	255	
255	255	255	
255	255	255	
255	255	255	
255	255	255	
255	255	255	
255	255	255	
255	255	255	
255	255	255	
255	255	255	
255	255	255	
255	255	255	
255	255	255	
255	255	255	
255	255	255	
255	255	255	
255	255	255	
255	255	255	
255	255	255	
255	255	255	
255	255	255	
255	255	255	
255	255	255	
255	255	255	
255	255	255	
255	255	255	
255	255	255	
255	255	255	
255	255	255	
255	255	255	
255	255	255	
255	255	255	
255	255	255	
255	255	255	
255	255	255	
255	255	255	
255	255	255	
255	255	255	
255	255	255	
255	255	255	
255	255	255	
255	255	255	
255	255	255	
255	255	255	
255	255	255	
255	255	255	
255	255	255	
255	255	255	
255	255	255	
255	255	255	
255	255	255	
255	255	255	
255	255	255	
255	255	255	
255	255	255	
255	255	255	
255	255	255	
255	255	255	
255	255	255	
255	255	255	
255	255	255	
255	255	255	
255	255	255	
255	255	255	
255	255	255	
255	255	255	
255	255	255	
255	255	255	
255	255	255	
255	255	255	
255	255	255	
255	255	255	
255	255	255	
255	255	255	
255	255	255	
255	255	255	
255	255	255	
255	255	255	
255	255	255	
255	255	255	
255	255	255	
255	255	255	
255	255	255	
255	255	255	
125	125	125	
255	255	255	
255	255	255	
255	255	255	
255	255	255	
255	255	255	
255	255	255	
255	255	255	
255	255	255	
255	255	255	
255	255	255	
255	255	255	
255	255	255	
255	255	255	
255	255	255	
255	255	255	
255	255	255	
255	255	255	
255	255	255	
255	255	255	
255	255	255	
255	255	255	
255	255	255	
255	255	255	
255	255	255	
255	255	255	
255	255	255	
255	255	255	
255	255	255	
255	255	255	
255	255	255	
255	255	255	
255	255	255	
255	255	255	
255	255	255	
255	255	255	
255	255	255	
255	255	255	
255	255	255	
255	255	255	
255	255	255	
255	255	255	
255	255	255	
255	255	255	
255	255	255	
255	255	255	
255	255	255	
255	255	255	
255	255	255	
255	255	255	
255	255	255	
255	255	255	
255	255	255	
255	255	255	
255	255	255	
255	255	255	
255	255	255	
255	255	255	
255	255	255	
255	255	255	
255	255	255	
255	255	255	
255	255	255	
255	255	255	
255	255	255	
255	255	255	
255	255	255	
255	255	255	
255	255	255	
255	255	255	
255	255	255	
255	255	255	
255	255	255	
255	255	255	
255	255	255	
255	255	255	
255	255	255	
255	255	255	
255	255	255	
255	255	255	
255	255	255	
255	255	255	
255	255	255	
255	255	255	
255	255	255	
255	255	255	
255	255	255	
255	255	255	
255	255	255	
255	255	255	
255	255	255	
255	255	255	
255	255	255	
255	255	255	
255	255	255	
255	255	255	
255	255	255	
255	255	255	
255	255	255	
255	255	255	
255	255	255	
255	255	255	
255	255	255	
255	255	255	
255	255	255	
255	255	255	
255	255	255	
255	255	255	
255	255	255	
255	255	255	
255	255	255	
255	255	255	
255	255	255	
255	255	255	
255	255	255	
255	255	255	
255	255	255	
255	255	255	
255	255	255	
255	255	255	
255	255	255	
255	255	255	
255	255	255	
255	255	255	
255	255	255	
255	255	255	
255	255	255	
255	255	255	
255	255	255	
255	255	255	
255	255	255	
255	255	255	
255	255	255	
255	255	255	
255	255	255	
255	255	255	
255	255	255	
255	255	255	
255	255	255	
255	255	255	
255	255	255	
255	255	255	
255	255	255	
255	255	255	
255	255	255	
255	255	255	
255	255	255	
255	255	255	
255	255	255	
255	255	255	
255	255	255	
255	255	255	
255	255	255	
255	255	255	
255	255	255	
255	255	255	
255	255	255	
255	255	255	
255	255	255	
255	255	255	
255	255	255	
255	255	255	
255	255	255	
255	255	255	
255	255	255	
255	255	255	
255	255	255	
255	255	255	
255	255	255	
255	255	255	
255	255	255	
255	255	255	
255	255	255	
255	255	255	
255	255	255	
255	255	255	
255	255	255	
255	255	255	
255	255	255	
255	255	255	
255	255	255	
255	255	255	
255	255	255	
255	255	255	
255	255	255	
255	255	255	
255	255	255	
255	255	255	
255	255	255	
255	255	255	
255	255	255	
255	255	255	
255	255	255	
255	255	255	
255	255	255	
255	255	255	
255	255	255	
255	255	255	
255	255	255	
255	255	255	
255	255	255	
255	255	255	
255	255	255	
255	255	255	
255	255	255	
255	255	255	
255	255	255	
255	255	255	
255	255	255	
255	255	255	
255	255	255	
255	255	255	
255	255	255	
255	255	255	
255	255	255	
255	255	255	
255	255	255	
255	255	255	
255	255	255	
255	255	255	
255	255	255	
255	255	255	
255	255	255	
255	255	255	
255	255	255	
255	255	255	
255	255	255	
255	255	255	
255	255	255	
255	255	255	
255	255	255	
255	255	255	
255	255	255	
255	255	255	
255	255	255	
255	255	255	
255	255	255	
255	255	255	
255	255	255	
255	255	255	
255	255	255	
255	255	255	
255	255	255	
255	255	255	
255	255	255	
255	255	255	
255	255	255	
255	255	255	
255	255	255	
255	255	255	
255	255	255	
255	255	255	
255	255	255	
255	255	255	
255	255	255	
255	255	255	
125	125	125	
255	255	255	
255	255	255	
255	255	255	
255	255	255	
255	255	255	
255	255	255	
255	255	255	
255	255	255	
255	255	255	
255	255	255	
255	255	255	
255	255	255	
255	255	255	
255	255	255	
255	255	255	
255	255	255	
255	255	255	
255	255	255	
255	255	255	
255	255	255	
255	255	255	
255	255	255	
255	255	255	
255	255	255	
255	255	255	
255	255	255	
255	255	255	
255	255	255	
255	255	255	
255	255	255	
255	255	255	
255	255	255	
255	255	255	
255	255	255	
255	255	255	
255	255	255	
255	255	255	
255	255	255	
255	255	255	
255	255	255	
255	255	255	
255	255	255	
255	255	255	
255	255	255	
255	255	255	
255	255	255	
255	255	255	
255	255	255	
255	255	255	
255	255	255	
255	255	255	
255	255	255	
255	255	255	
255	255	255	
255	255	255	
255	255	255	
255	255	255	
255	255	255	
255	255	255	
255	255	255	
255	255	255	
255	255	255	
255	255	255	
255	255	255	
255	255	255	
255	255	255	
255	255	255	
255	255	255	
255	255	255	
255	255	255	
255	255	255	
255	255	255	
255	255	255	
255	255	255	
255	255	255	
255	255	255	
255	255	255	
255	255	255	
255	255	255	
255	255	255	
255	255	255	
255	255	255	
255	255	255	
255	255	255	
255	255	255	
255	255	255	
255	255	255	
255	255	255	
255	255	255	
255	255	255	
255	255	255	
255	255	255	
255	255	255	
255	255	255	
255	255	255	
255	255	255	
255	255	255	
255	255	255	
255	255	255	
255	255	255	
255	255	255	
255	255	255	
255	255	255	
255	255	255	
255	255	255	
255	255	255	
255	255	255	
255	255	255	
255	255	255	
255	255	255	
255	255	255	
255	255	255	
255	255	255	
255	255	255	
255	255	255	
255	255	255	
255	255	255	
255	255	255	
255	255	255	
255	255	255	
255	255	255	
255	255	255	
255	255	255	
255	255	255	
255	255	255	
255	255	255	
255	255	255	
255	255	255	
255	255	255	
255	255	255	
255	255	255	
255	255	255	
255	255	255	
255	255	255	
255	255	255	
255	255	255	
255	255	255	
255	255	255	
255	255	255	
255	255	255	
255	255	255	
255	255	255	
255	255	255	
255	255	255	
255	255	255	
255	255	255	
255	255	255	
255	255	255	
255	255	255	
255	255	255	
255	255	255	
255	255	255	
255	255	255	
255	255	255	
255	255	255	
255	255	255	
255	255	255	
255	255	255	
255	255	255	
255	255	255	
255	255	255	
255	255	255	
255	255	255	
255	255	255	
255	255	255	
255	255	255	
255	255	255	
255	255	255	
255	255	255	
255	255	255	
255	255	255	
255	255	255	
255	255	255	
255	255	255	
255	255	255	
255	255	255	
255	255	255	
255	255	255	
255	255	255	
255	255	255	
255	255	255	
255	255	255	
255	255	255	
255	255	255	
255	255	255	
255	255	255	
255	255	255	
255	255	255	
255	255	255	
255	255	255	
255	255	255	
255	255	255	
255	255	255	
255	255	255	
255	255	255	
255	255	255	
255	255	255	
255	255	255	
255	255	255	
255	255	255	
255	255	255	
255	255	255	
255	255	255	
255	255	255	
255	255	255	
255	255	255	
255	255	255	
255	255	255	
255	255	255	
255	255	255	
255	255	255	
255	255	255	
255	255	255	
255	255	255	
255	255	255	
255	255	255	
255	255	255	
255	255	255	
255	255	255	
255	255	255	
255	255	255	
255	255	255	
255	255	255	
255	255	255	
255	255	255	
255	255	255	
255	255	255	
255	255	255	
255	255	255	
255	255	255	
255	255	255	
255	255	255	
255	255	255	
255	255	255	
255	255	255	
255	255	255	
255	255	255	
255	255	255	
255	255	255	
255	255	255	
255	255	255	
255	255	255	
255	255	255	
255	255	255	
255	255	255	
255	255	255	
255	255	255	
255	255	255	
255	255	255	
255	255	255	
255	255	255	
255	255	255	
255	255	255	
255	255	255	
255	255	255	
125	125	125	
255	255	255	
255	255	255	
255	255	255	
255	255	255	
255	255	255	
255	255	255	
255	255	255	
255	255	255	
255	255	255	
255	255	255	
255	255	255	
255	255	255	
255	255	255	
255	255	255	
255	255	255	
255	255	255	
255	255	255	
255	255	255	
255	255	255	
255	255	255	
255	255	255	
255	255	255	
255	255	255	
255	255	255	
255	255	255	
255	255	255	
255	255	255	
255	255	255	
255	255	255	
255	255	255	
255	255	255	
255	255	255	
255	255	255	
255	255	255	
255	255	255	
255	255	255	
255	255	255	
255	255	255	
255	255	255	
255	255	255	
255	255	255	
255	255	255	
255	255	255	
255	255	255	
255	255	255	
255	255	255	
255	255	255	
255	255	255	
255	255	255	
255	255	255	
255	255	255	
255	255	255	
255	255	255	
255	255	255	
255	255	255	
255	255	255	
255	255	255	
255	255	255	
255	255	255	
255	255	255	
255	255	255	
255	255	255	
255	255	255	
255	255	255	
255	255	255	
255	255	255	
255	255	255	
255	255	255	
255	255	255	
255	255	255	
255	255	255	
255	255	255	
255	255	255	
255	255	255	
255	255	255	
255	255	255	
255	255	255	
255	255	255	
255	255	255	
255	255	255	
255	255	255	
255	255	255	
255	255	255	
255	255	255	
255	255	255	
255	255	255	
255	255	255	
255	255	255	
255	255	255	
255	255	255	
255	255	255	
255	255	255	
255	255	255	
255	255	255	
255	255	255	
255	255	255	
255	255	255	
255	255	255	
255	255	255	
255	255	255	
255	255	255	
255	255	255	
255	255	255	
255	255	255	
255	255	255	
255	255	255	
255	255	255	
255	255	255	
255	255	255	
255	255	255	
255	255	255	
255	255	255	
255	255	255	
255	255	255	
255	255	255	
255	255	255	
255	255	255	
255	255	255	
255	255	255	
255	255	255	
255	255	255	
255	255	255	
255	255	255	
255	255	255	
255	255	255	
255	255	255	
255	255	255	
255	255	255	
255	255	255	
255	255	255	
255	255	255	
255	255	255	
255	255	255	
255	255	255	
255	255	255	
255	255	255	
255	255	255	
255	255	255	
255	255	255	
255	255	255	
255	255	255	
255	255	255	
255	255	255	
255	255	255	
255	255	255	
255	255	255	
255	255	255	
255	255	255	
255	255	255	
255	255	255	
255	255	255	
255	255	255	
255	255	255	
255	255	255	
255	255	255	
255	255	255	
255	255	255	
255	255	255	
255	255	255	
255	255	255	
255	255	255	
255	255	255	
255	255	255	
255	255	255	
255	255	255	
255	255	255	
255	255	255	
255	255	255	
255	255	255	
255	255	255	
255	255	255	
255	255	255	
255	255	255	
255	255	255	
255	255	255	
255	255	255	
255	255	255	
255	255	255	
255	255	255	
255	255	255	
255	255	255	
255	255	255	
255	255	255	
255	255	255	
255	255	255	
255	255	255	
255	255	255	
255	255	255	
255	255	255	
255	255	255	
255	255	255	
255	255	255	
255	255	255	
255	255	255	
255	255	255	
255	255	255	
255	255	255	
255	255	255	
255	255	255	
255	255	255	
255	255	255	
255	255	255	
255	255	255	
255	255	255	
255	255	255	
255	255	255	
255	255	255	
255	255	255	
255	255	255	
255	255	255	
255	255	255	
255	255	255	
255	255	255	
255	255	255	
255	255	255	
255	255	255	
255	255	255	
255	255	255	
255	255	255	
255	255	255	
255	255	255	
255	255	255	
255	255	255	
255	255	255	
255	255	255	
255	255	255	
255	255	255	
255	255	255	
255	255	255	
255	255	255	
255	255	255	
255	255	255	
255	255	255	
255	255	255	
255	255	255	
255	255	255	
255	255	255	
255	255	255	
255	255	255	
255	255	255	
255	255	255	
255	255	255	
255	255	255	
255	255	255	
255	255	255	
255	255	255	
255	255	255	
255	255	255	
255	255	255	
255	255	255	
255	255	255	
255	255	255	
255	255	255	
255	255	255	
255	255	255	
125	125	125	
255	255	255	
255	255	255	
255	255	255	
255	255	255	
255	255	255	
255	255	255	
255	255	255	
255	255	255	
255	255	255	
255	255	255	
255	255	255	
255	255	255	
255	255	255	
255	255	255	
255	255	255	
255	255	255	
255	255	255	
255	255	255	
255	255	255	
255	255	255	
255	255	255	
255	255	255	
255	255	255	
255	255	255	
255	255	255	
255	255	255	
255	255	255	
255	255	255	
255	255	255	
255	255	255	
255	255	255	
255	255	255	
255	255	255	
255	255	255	
255	255	255	
255	255	255	
255	255	255	
255	255	255	
255	255	255	
255	255	255	
255	255	255	
255	255	255	
255	255	255	
255	255	255	
255	255	255	
255	255	255	
255	255	255	
255	255	255	
255	255	255	
255	255	255	
255	255	255	
255	255	255	
255	255	255	
255	255	255	
255	255	255	
255	255	255	
255	255	255	
255	255	255	
255	255	255	
255	255	255	
255	255	255	
255	255	255	
255	255	255	
255	255	255	
255	255	255	
255	255	255	
255	255	255	
255	255	255	
255	255	255	
255	255	255	
255	255	255	
255	255	255	
255	255	255	
255	255	255	
255	255	255	
255	255	255	
255	255	255	
255	255	255	
255	255	255	
255	255	255	
255	255	255	
255	255	255	
255	255	255	
255	255	255	
255	255	255	
255	255	255	
255	255	255	
255	255	255	
255	255	255	
255	255	255	
255	255	255	
255	255	255	
255	255	255	
255	255	255	
255	255	255	
255	255	255	
255	255	255	
255	255	255	
255	255	255	
255	255	255	
255	255	255	
255	255	255	
255	255	255	
255	255	255	
255	255	255	
255	255	255	
255	255	255	
255	255	255	
255	255	255	
255	255	255	
255	255	255	
255	255	255	
255	255	255	
255	255	255	
255	255	255	
255	255	255	
255	255	255	
255	255	255	
255	255	255	
255	255	255	
255	255	255	
255	255	255	
255	255	255	
255	255	255	
255	255	255	
255	255	255	
255	255	255	
255	255	255	
255	255	255	
255	255	255	
255	255	255	
255	255	255	
255	255	255	
255	255	255	
255	255	255	
255	255	255	
255	255	255	
255	255	255	
255	255	255	
255	255	255	
255	255	255	
255	255	255	
255	255	255	
255	255	255	
255	255	255	
255	255	255	
255	255	255	
255	255	255	
255	255	255	
255	255	255	
255	255	255	
255	255	255	
255	255	255	
255	255	255	
255	255	255	
255	255	255	
255	255	255	
255	255	255	
255	255	255	
255	255	255	
255	255	255	
255	255	255	
255	255	255	
255	255	255	
255	255	255	
255	255	255	
255	255	255	
255	255	255	
255	255	255	
255	255	255	
255	255	255	
255	255	255	
255	255	255	
255	255	255	
255	255	255	
255	255	255	
255	255	255	
255	255	255	
255	255	255	
255	255	255	
255	255	255	
255	255	255	
255	255	255	
255	255	255	
255	255	255	
255	255	255	
255	255	255	
255	255	255	
255	255	255	
255	255	255	
255	255	255	
255	255	255	
255	255	255	
255	255	255	
255	255	255	
255	255	255	
255	255	255	
255	255	255	
255	255	255	
255	255	255	
255	255	255	
255	255	255	
255	255	255	
255	255	255	
255	255	255	
255	255	255	
255	255	255	
255	255	255	
255	255	255	
255	255	255	
255	255	255	
255	255	255	
255	255	255	
255	255	255	
255	255	255	
255	255	255	
255	255	255	
255	255	255	
255	255	255	
255	255	255	
255	255	255	
255	255	255	
255	255	255	
255	255	255	
255	255	255	
255	255	255	
255	255	255	
255	255	255	
255	255	255	
255	255	255	
255	255	255	
255	255	255	
255	255	255	
255	255	255	
255	255	255	
255	255	255	
255	255	255	
255	255	255	
255	255	255	
255	255	255	
255	255	255	
255	255	255	
255	255	255	
255	255	255	
255	255	255	
255	255	255	
255	255	255	
255	255	255	
255	255	255	
255	255	255	
255	255	255	
255	255	255	
255	255	255	
255	255	255	
255	255	255	
125	125	125	
255	255	255	
255	255	255	
255	255	255	
255	255	255	
255	255	255	
255	255	255	
255	255	255	
255	255	255	
255	255	255	
255	255	255	
255	255	255	
255	255	255	
255	255	255	
255	255	255	
255	255	255	
255	255	255	
255	255	255	
255	255	255	
255	255	255	
255	255	255	
255	255	255	
255	255	255	
255	255	255	
255	255	255	
255	255	255	
255	255	255	
255	255	255	
255	255	255	
255	255	255	
255	255	255	
255	255	255	
255	255	255	
255	255	255	
255	255	255	
255	255	255	
255	255	255	
255	255	255	
255	255	255	
255	255	255	
255	255	255	
255	255	255	
255	255	255	
255	255	255	
255	255	255	
255	255	255	
255	255	255	
255	255	255	
255	255	255	
255	255	255	
255	255	255	
255	255	255	
255	255	255	
255	255	255	
255	255	255	
255	255	255	
255	255	255	
255	255	255	
255	255	255	
255	255	255	
255	255	255	
255	255	255	
255	255	255	
255	255	255	
255	255	255	
255	255	255	
255	255	255	
255	255	255	
255	255	255	
255	255	255	
255	255	255	
255	255	255	
255	255	255	
255	255	255	
255	255	255	
255	255	255	
255	255	255	
255	255	255	
255	255	255	
255	255	255	
255	255	255	
255	255	255	
255	255	255	
255	255	255	
255	255	255	
255	255	255	
255	255	255	
255	255	255	
255	255	255	
255	255	255	
255	255	255	
255	255	255	
255	255	255	
255	255	255	
255	255	255	
255	255	255	
255	255	255	
255	255	255	
255	255	255	
255	255	255	
255	255	255	
255	255	255	
255	255	255	
255	255	255	
255	255	255	
255	255	255	
255	255	255	
255	255	255	
255	255	255	
255	255	255	
255	255	255	
255	255	255	
255	255	255	
255	255	255	
255	255	255	
255	255	255	
255	255	255	
255	255	255	
255	255	255	
255	255	255	
255	255	255	
255	255	255	
255	255	255	
255	255	255	
255	255	255	
255	255	255	
255	255	255	
255	255	255	
255	255	255	
255	255	255	
255	255	255	
255	255	255	
255	255	255	
255	255	255	
255	255	255	
255	255	255	
255	255	255	
255	255	255	
255	255	255	
255	255	255	
255	255	255	
255	255	255	
255	255	255	
255	255	255	
255	255	255	
255	255	255	
255	255	255	
255	255	255	
255	255	255	
255	255	255	
255	255	255	
255	255	255	
255	255	255	
255	255	255	
255	255	255	
255	255	255	
255	255	255	
255	255	255	
255	255	255	
255	255	255	
255	255	255	
255	255	255	
255	255	255	
255	255	255	
255	255	255	
255	255	255	
255	255	255	
255	255	255	
255	255	255	
255	255	255	
255	255	255	
255	255	255	
255	255	255	
255	255	255	
255	255	255	
255	255	255	
255	255	255	
255	255	255	
255	255	255	
255	255	255	
255	255	255	
255	255	255	
255	255	255	
255	255	255	
255	255	255	
255	255	255	
255	255	255	
255	255	255	
255	255	255	
255	255	255	
255	255	255	
255	255	255	
255	255	255	
255	255	255	
255	255	255	
255	255	255	
255	255	255	
255	255	255	
255	255	255	
255	255	255	
255	255	255	
255	255	255	
255	255	255	
255	255	255	
255	255	255	
255	255	255	
255	255	255	
255	255	255	
255	255	255	
255	255	255	
255	255	255	
255	255	255	
255	255	255	
255	255	255	
255	255	255	
255	255	255	
255	255	255	
255	255	255	
255	255	255	
255	255	255	
255	255	255	
255	255	255	
255	255	255	
255	255	255	
255	255	255	
255	255	255	
255	255	255	
255	255	255	
255	255	255	
255	255	255	
255	255	255	
255	255	255	
255	255	255	
255	255	255	
255	255	255	
255	255	255	
255	255	255	
255	255	255	
255	255	255	
255	255	255	
255	255	255	
255	255	255	
255	255	255	
255	255	255	
255	255	255	
255	255	255	
255	255	255	
255	255	255	
255	255	255	
255	255	255	
255	255	255	
255	255	255	
255	255	255	
255	255	255	
255	255	255	
255	255	255	
125	125	125	
255	255	255	
255	255	255	
255	255	255	
255	255	255	
255	255	255	
255	255	255	
255	255	255	
255	255	255	
255	255	255	
255	255	255	
255	255	255	
255	255	255	
255	255	255	
255	255	255	
255	255	255	
255	255	255	
255	255	255	
255	255	255	
255	255	255	
255	255	255	
255	255	255	
255	255	255	
255	255	255	
255	255	255	
255	255	255	
255	255	255	
255	255	255	
255	255	255	
255	255	255	
255	255	255	
255	255	255	
255	255	255	
255	255	255	
255	255	255	
255	255	255	
255	255	255	
255	255	255	
255	255	255	
255	255	255	
255	255	255	
255	255	255	
255	255	255	
255	255	255	
255	255	255	
255	255	255	
255	255	255	
255	255	255	
255	255	255	
255	255	255	
255	255	255	
255	255	255	
255	255	255	
255	255	255	
255	255	255	
255	255	255	
255	255	255	
255	255	255	
255	255	255	
255	255	255	
255	255	255	
255	255	255	
255	255	255	
255	255	255	
255	255	255	
255	255	255	
255	255	255	
255	255	255	
255	255	255	
255	255	255	
255	255	255	
255	255	255	
255	255	255	
255	255	255	
255	255	255	
255	255	255	
255	255	255	
255	255	255	
255	255	255	
255	255	255	
255	255	255	
255	255	255	
255	255	255	
255	255	255	
255	255	255	
255	255	255	
255	255	255	
255	255	255	
255	255	255	
255	255	255	
255	255	255	
255	255	255	
255	255	255	
255	255	255	
255	255	255	
255	255	255	
255	255	255	
255	255	255	
255	255	255	
255	255	255	
255	255	255	
255	255	255	
255	255	255	
255	255	255	
255	255	255	
255	255	255	
255	255	255	
255	255	255	
255	255	255	
255	255	255	
255	255	255	
255	255	255	
255	255	255	
255	255	255	
255	255	255	
255	255	255	
255	255	255	
255	255	255	
255	255	255	
255	255	255	
255	255	255	
255	255	255	
255	255	255	
255	255	255	
255	255	255	
255	255	255	
255	255	255	
255	255	255	
255	255	255	
255	255	255	
255	255	255	
255	255	255	
255	255	255	
255	255	255	
255	255	255	
255	255	255	
255	255	255	
255	255	255	
255	255	255	
255	255	255	
255	255	255	
255	255	255	
255	255	255	
255	255	255	
255	255	255	
255	255	255	
255	255	255	
255	255	255	
255	255	255	
255	255	255	
255	255	255	
255	255	255	
255	255	255	
255	255	255	
255	255	255	
255	255	255	
255	255	255	
255	255	255	
255	255	255	
255	255	255	
255	255	255	
255	255	255	
255	255	255	
255	255	255	
255	255	255	
255	255	255	
255	255	255	
255	255	255	
255	255	255	
255	255	255	
255	255	255	
255	255	255	
255	255	255	
255	255	255	
255	255	255	
255	255	255	
255	255	255	
255	255	255	
255	255	255	
255	255	255	
255	255	255	
255	255	255	
255	255	255	
255	255	255	
255	255	255	
255	255	255	
255	255	255	
255	255	255	
255	255	255	
255	255	255	
255	255	255	
255	255	255	
255	255	255	
255	255	255	
255	255	255	
255	255	255	
255	255	255	
255	255	255	
255	255	255	
255	255	255	
255	255	255	
255	255	255	
255	255	255	
255	255	255	
255	255	255	
255	255	255	
255	255	255	
255	255	255	
255	255	255	
255	255	255	
255	255	255	
255	255	255	
255	255	255	
255	255	255	
255	255	255	
255	255	255	
255	255	255	
255	255	255	
255	255	255	
255	255	255	
255	255	255	
255	255	255	
255	255	255	
255	255	255	
255	255	255	
255	255	255	
255	255	255	
255	255	255	
255	255	255	
255	255	255	
255	255	255	
255	255	255	
255	255	255	
255	255	255	
255	255	255	
255	255	255	
255	255	255	
255	255	255	
255	255	255	
255	255	255	
255	255	255	
255	255	255	
255	255	255	
255	255	255	
255	255	255	
255	255	255	
255	255	255	
255	255	255	
255	255	255	
255	255	255	
255	255	255	
255	255	255	
255	255	255	
255	255	255	
255	255	255	
255	255	255	
125	125	125	
255	255	255	
255	255	255	
255	255	255	
255	255	255	
255	255	255	
255	255	255	
255	255	255	
255	255	255	
255	255	255	
255	255	255	
255	255	255	
255	255	255	
255	255	255	
255	255	255	
255	255	255	
255	255	255	
255	255	255	
255	255	255	
255	255	255	
255	255	255	
255	255	255	
255	255	255	
255	255	255	
255	255	255	
255	255	255	
255	255	255	
255	255	255	
255	255	255	
255	255	255	
255	255	255	
255	255	255	
255	255	255	
255	255	255	
255	255	255	
255	255	255	
255	255	255	
255	255	255	
255	255	255	
255	255	255	
255	255	255	
255	255	255	
255	255	255	
255	255	255	
255	255	255	
255	255	255	
255	255	255	
255	255	255	
255	255	255	
255	255	255	
255	255	255	
255	255	255	
255	255	255	
255	255	255	
255	255	255	
255	255	255	
255	255	255	
255	255	255	
255	255	255	
255	255	255	
255	255	255	
255	255	255	
255	255	255	
255	255	255	
255	255	255	
255	255	255	
255	255	255	
255	255	255	
255	255	255	
255	255	255	
255	255	255	
255	255	255	
255	255	255	
255	255	255	
255	255	255	
255	255	255	
255	255	255	
255	255	255	
255	255	255	
255	255	255	
255	255	255	
255	255	255	
255	255	255	
255	255	255	
255	255	255	
255	255	255	
255	255	255	
255	255	255	
255	255	255	
255	255	255	
255	255	255	
255	255	255	
255	255	255	
255	255	255	
255	255	255	
255	255	255	
255	255	255	
255	255	255	
255	255	255	
255	255	255	
255	255	255	
255	255	255	
255	255	255	
255	255	255	
255	255	255	
255	255	255	
255	255	255	
255	255	255	
255	255	255	
255	255	255	
255	255	255	
255	255	255	
255	255	255	
255	255	255	
255	255	255	
255	255	255	
255	255	255	
255	255	255	
255	255	255	
255	255	255	
255	255	255	
255	255	255	
255	255	255	
255	255	255	
255	255	255	
255	255	255	
255	255	255	
255	255	255	
255	255	255	
255	255	255	
255	255	255	
255	255	255	
255	255	255	
255	255	255	
255	255	255	
255	255	255	
255	255	255	
255	255	255	
255	255	255	
255	255	255	
255	255	255	
255	255	255	
255	255	255	
255	255	255	
255	255	255	
255	255	255	
255	255	255	
255	255	255	
255	255	255	
255	255	255	
255	255	255	
255	255	255	
255	255	255	
255	255	255	
255	255	255	
255	255	255	
255	255	255	
255	255	255	
255	255	255	
255	255	255	
255	255	255	
255	255	255	
255	255	255	
255	255	255	
255	255	255	
255	255	255	
255	255	255	
255	255	255	
255	255	255	
255	255	255	
255	255	255	
255	255	255	
255	255	255	
255	255	255	
255	255	255	
255	255	255	
255	255	255	
255	255	255	
255	255	255	
255	255	255	
255	255	255	
255	255	255	
255	255	255	
255	255	255	
255	255	255	
255	255	255	
255	255	255	
255	255	255	
255	255	255	
255	255	255	
255	255	255	
255	255	255	
255	255	255	
255	255	255	
255	255	255	
255	255	255	
255	255	255	
255	255	255	
255	255	255	
255	255	255	
255	255	255	
255	255	255	
255	255	255	
255	255	255	
255	255	255	
255	255	255	
255	255	255	
255	255	255	
255	255	255	
255	255	255	
255	255	255	
255	255	255	
255	255	255	
255	255	255	
255	255	255	
255	255	255	
255	255	255	
255	255	255	
255	255	255	
255	255	255	
255	255	255	
255	255	255	
255	255	255	
255	255	255	
255	255	255	
255	255	255	
255	255	255	
255	255	255	
255	255	255	
255	255	255	
255	255	255	
255	255	255	
255	255	255	
255	255	255	
255	255	255	
255	255	255	
255	255	255	
255	255	255	
255	255	255	
255	255	255	
255	255	255	
255	255	255	
255	255	255	
255	255	255	
255	255	255	
255	255	255	
255	255	255	
255	255	255	
255	255	255	
255	255	255	
255	255	255	
255	255	255	
255	255	255	
255	255	255	
255	255	255	
255	255	255	
125	125	125	
255	255	255	
255	255	255	
255	255	255	
255	255	255	
255	255	255	
255	255	255	
255	255	255	
255	255	255	
255	255	255	
255	255	255	
255	255	255	
255	255	255	
255	255	255	
255	255	255	
255	255	255	
255	255	255	
255	255	255	
255	255	255	
255	255	255	
255	255	255	
255	255	255	
255	255	255	
255	255	255	
255	255	255	
255	255	255	
255	255	255	
255	255	255	
255	255	255	
255	255	255	
255	255	255	
255	255	255	
255	255	255	
255	255	255	
255	255	255	
255	255	255	
255	255	255	
255	255	255	
255	255	255	
255	255	255	
255	255	255	
255	255	255	
255	255	255	
255	255	255	
255	255	255	
255	255	255	
255	255	255	
255	255	255	
255	255	255	
255	255	255	
255	255	255	
255	255	255	
255	255	255	
255	255	255	
255	255	255	
255	255	255	
255	255	255	
255	255	255	
255	255	255	
255	255	255	
255	255	255	
255	255	255	
255	255	255	
255	255	255	
255	255	255	
255	255	255	
255	255	255	
255	255	255	
255	255	255	
255	255	255	
255	255	255	
255	255	255	
255	255	255	
255	255	255	
255	255	255	
255	255	255	
255	255	255	
255	255	255	
255	255	255	
255	255	255	
255	255	255	
255	255	255	
255	255	255	
255	255	255	
255	255	255	
255	255	255	
255	255	255	
255	255	255	
255	255	255	
255	255	255	
255	255	255	
255	255	255	
255	255	255	
255	255	255	
255	255	255	
255	255	255	
255	255	255	
255	255	255	
255	255	255	
255	255	255	
255	255	255	
255	255	255	
255	255	255	
255	255	255	
255	255	255	
255	255	255	
255	255	255	
255	255	255	
255	255	255	
255	255	255	
255	255	255	
255	255	255	
255	255	255	
255	255	255	
255	255	255	
255	255	255	
255	255	255	
255	255	255	
255	255	255	
255	255	255	
255	255	255	
255	255	255	
255	255	255	
255	255	255	
255	255	255	
255	255	255	
255	255	255	
255	255	255	
255	255	255	
255	255	255	
255	255	255	
255	255	255	
255	255	255	
255	255	255	
255	255	255	
255	255	255	
255	255	255	
255	255	255	
255	255	255	
255	255	255	
255	255	255	
255	255	255	
255	255	255	
255	255	255	
255	255	255	
255	255	255	
255	255	255	
255	255	255	
255	255	255	
255	255	255	
255	255	255	
255	255	255	
255	255	255	
255	255	255	
255	255	255	
255	255	255	
255	255	255	
255	255	255	
255	255	255	
255	255	255	
255	255	255	
255	255	255	
255	255	255	
255	255	255	
255	255	255	
255	255	255	
255	255	255	
255	255	255	
255	255	255	
255	255	255	
255	255	255	
255	255	255	
255	255	255	
255	255	255	
255	255	255	
255	255	255	
255	255	255	
255	255	255	
255	255	255	
255	255	255	
255	255	255	
255	255	255	
255	255	255	
255	255	255	
255	255	255	
255	255	255	
255	255	255	
255	255	255	
255	255	255	
255	255	255	
255	255	255	
255	255	255	
255	255	255	
255	255	255	
255	255	255	
255	255	255	
255	255	255	
255	255	255	
255	255	255	
255	255	255	
255	255	255	
255	255	255	
255	255	255	
255	255	255	
255	255	255	
255	255	255	
255	255	255	
255	255	255	
255	255	255	
255	255	255	
255	255	255	
255	255	255	
255	255	255	
255	255	255	
255	255	255	
255	255	255	
255	255	255	
255	255	255	
255	255	255	
255	255	255	
255	255	255	
255	255	255	
255	255	255	
255	255	255	
255	255	255	
255	255	255	
255	255	255	
255	255	255	
255	255	255	
255	255	255	
255	255	255	
255	255	255	
255	255	255	
255	255	255	
255	255	255	
255	255	255	
255	255	255	
255	255	255	
255	255	255	
255	255	255	
255	255	255	
255	255	255	
255	255	255	
255	255	255	
255	255	255	
255	255	255	
255	255	255	
255	255	255	
255	255	255	
255	255	255	
255	255	255	
255	255	255	
255	255	255	
255	255	255	
255	255	255	
255	255	255	
125	125	125	
255	255	255	
255	255	255	
255	255	255	
255	255	255	
255	255	255	
255	255	255	
255	255	255	
255	255	255	
255	255	255	
255	255	255	
255	255	255	
255	255	255	
255	255	255	
255	255	255	
255	255	255	
255	255	255	
255	255	255	
255	255	255	
255	255	255	
255	255	255	
255	255	255	
255	255	255	
255	255	255	
255	255	255	
255	255	255	
255	255	255	
255	255	255	
255	255	255	
255	255	255	
255	255	255	
255	255	255	
255	255	255	
255	255	255	
255	255	255	
255	255	255	
255	255	255	
255	255	255	
255	255	255	
255	255	255	
255	255	255	
255	255	255	
255	255	255	
255	255	255	
255	255	255	
255	255	255	
255	255	255	
255	255	255	
255	255	255	
255	255	255	
255	255	255	
255	255	255	
255	255	255	
255	255	255	
255	255	255	
255	255	255	
255	255	255	
255	255	255	
255	255	255	
255	255	255	
255	255	255	
255	255	255	
255	255	255	
255	255	255	
255	255	255	
255	255	255	
255	255	255	
255	255	255	
255	255	255	
255	255	255	
255	255	255	
255	255	255	
255	255	255	
255	255	255	
255	255	255	
255	255	255	
255	255	255	
255	255	255	
255	255	255	
255	255	255	
255	255	255	
255	255	255	
255	255	255	
255	255	255	
255	255	255	
255	255	255	
255	255	255	
255	255	255	
255	255	255	
255	255	255	
255	255	255	
255	255	255	
255	255	255	
255	255	255	
255	255	255	
255	255	255	
255	255	255	
255	255	255	
255	255	255	
255	255	255	
255	255	255	
255	255	255	
255	255	255	
255	255	255	
255	255	255	
255	255	255	
255	255	255	
255	255	255	
255	255	255	
255	255	255	
255	255	255	
255	255	255	
255	255	255	
255	255	255	
255	255	255	
255	255	255	
255	255	255	
255	255	255	
255	255	255	
255	255	255	
255	255	255	
255	255	255	
255	255	255	
255	255	255	
255	255	255	
255	255	255	
255	255	255	
255	255	255	
255	255	255	
255	255	255	
255	255	255	
255	255	255	
255	255	255	
255	255	255	
255	255	255	
255	255	255	
255	255	255	
255	255	255	
255	255	255	
255	255	255	
255	255	255	
255	255	255	
255	255	255	
255	255	255	
255	255	255	
255	255	255	
255	255	255	
255	255	255	
255	255	255	
255	255	255	
255	255	255	
255	255	255	
255	255	255	
255	255	255	
255	255	255	
255	255	255	
255	255	255	
255	255	255	
255	255	255	
255	255	255	
255	255	255	
255	255	255	
255	255	255	
255	255	255	
255	255	255	
255	255	255	
255	255	255	
255	255	255	
255	255	255	
255	255	255	
255	255	255	
255	255	255	
255	255	255	
255	255	255	
255	255	255	
255	255	255	
255	255	255	
255	255	255	
255	255	255	
255	255	255	
255	255	255	
255	255	255	
255	255	255	
255	255	255	
255	255	255	
255	255	255	
255	255	255	
255	255	255	
255	255	255	
255	255	255	
255	255	255	
255	255	255	
255	255	255	
255	255	255	
255	255	255	
255	255	255	
255	255	255	
255	255	255	
255	255	255	
255	255	255	
255	255	255	
255	255	255	
255	255	255	
255	255	255	
255	255	255	
255	255	255	
255	255	255	
255	255	255	
255	255	255	
255	255	255	
255	255	255	
255	255	255	
255	255	255	
255	255	255	
255	255	255	
255	255	255	
255	255	255	
255	255	255	
255	255	255	
255	255	255	
255	255	255	
255	255	255	
255	255	255	
255	255	255	
255	255	255	
255	255	255	
255	255	255	
255	255	255	
255	255	255	
255	255	255	
255	255	255	
255	255	255	
255	255	255	
255	255	255	
255	255	255	
255	255	255	
255	255	255	
255	255	255	
255	255	255	
255	255	255	
255	255	255	
255	255	255	
255	255	255	
255	255	255	
255	255	255	
255	255	255	
255	255	255	
255	255	255	
255	255	255	
255	255	255	
255	255	255	
255	255	255	
255	255	255	
255	255	255	
255	255	255	
255	255	255	
125	125	125	
255	255	255	
255	255	255	
255	255	255	
255	255	255	
255	255	255	
255	255	255	
255	255	255	
255	255	255	
255	255	255	
255	255	255	
255	255	255	
255	255	255	
255	255	255	
255	255	255	
255	255	255	
255	255	255	
255	255	255	
255	255	255	
255	255	255	
255	255	255	
255	255	255	
255	255	255	
255	255	255	
255	255	255	
255	255	255	
255	255	255	
255	255	255	
255	255	255	
255	255	255	
255	255	255	
255	255	255	
255	255	255	
255	255	255	
255	255	255	
255	255	255	
255	255	255	
255	255	255	
255	255	255	
255	255	255	
255	255	255	
255	255	255	
255	255	255	
255	255	255	
255	255	255	
255	255	255	
255	255	255	
255	255	255	
255	255	255	
255	255	255	
255	255	255	
255	255	255	
255	255	255	
255	255	255	
255	255	255	
255	255	255	
255	255	255	
255	255	255	
255	255	255	
255	255	255	
255	255	255	
255	255	255	
255	255	255	
255	255	255	
255	255	255	
255	255	255	
255	255	255	
255	255	255	
255	255	255	
255	255	255	
255	255	255	
255	255	255	
255	255	255	
255	255	255	
255	255	255	
255	255	255	
255	255	255	
255	255	255	
255	255	255	
255	255	255	
255	255	255	
255	255	255	
255	255	255	
255	255	255	
255	255	255	
255	255	255	
255	255	255	
255	255	255	
255	255	255	
255	255	255	
255	255	255	
255	255	255	
255	255	255	
255	255	255	
255	255	255	
255	255	255	
255	255	255	
255	255	255	
255	255	255	
255	255	255	
255	255	255	
255	255	255	
255	255	255	
255	255	255	
255	255	255	
255	255	255	
255	255	255	
255	255	255	
255	255	255	
255	255	255	
255	255	255	
255	255	255	
255	255	255	
255	255	255	
255	255	255	
255	255	255	
255	255	255	
255	255	255	
255	255	255	
255	255	255	
255	255	255	
255	255	255	
255	255	255	
255	255	255	
255	255	255	
255	255	255	
255	255	255	
255	255	255	
255	255	255	
255	255	255	
255	255	255	
255	255	255	
255	255	255	
255	255	255	
255	255	255	
255	255	255	
255	255	255	
255	255	255	
255	255	255	
255	255	255	
255	255	255	
255	255	255	
255	255	255	
255	255	255	
255	255	255	
255	255	255	
255	255	255	
255	255	255	
255	255	255	
255	255	255	
255	255	255	
255	255	255	
255	255	255	
255	255	255	
255	255	255	
255	255	255	
255	255	255	
255	255	255	
255	255	255	
255	255	255	
255	255	255	
255	255	255	
255	255	255	
255	255	255	
255	255	255	
255	255	255	
255	255	255	
255	255	255	
255	255	255	
255	255	255	
255	255	255	
255	255	255	
255	255	255	
255	255	255	
255	255	255	
255	255	255	
255	255	255	
255	255	255	
255	255	255	
255	255	255	
255	255	255	
255	255	255	
255	255	255	
255	255	255	
255	255	255	
255	255	255	
255	255	255	
255	255	255	
255	255	255	
255	255	255	
255	255	255	
255	255	255	
255	255	255	
255	255	255	
255	255	255	
255	255	255	
255	255	255	
255	255	255	
255	255	255	
255	255	255	
255	255	255	
255	255	255	
255	255	255	
255	255	255	
255	255	255	
255	255	255	
255	255	255	
255	255	255	
255	255	255	
255	255	255	
255	255	255	
255	255	255	
255	255	255	
255	255	255	
255	255	255	
255	255	255	
255	255	255	
255	255	255	
255	255	255	
255	255	255	
255	255	255	
255	255	255	
255	255	255	
255	255	255	
255	255	255	
255	255	255	
255	255	255	
255	255	255	
255	255	255	
255	255	255	
255	255	255	
255	255	255	
255	255	255	
255	255	255	
255	255	255	
255	255	255	
255	255	255	
255	255	255	
255	255	255	
255	255	255	
255	255	255	
255	255	255	
255	255	255	
255	255	255	
255	255	255	
255	255	255	
255	255	255	
255	255	255	
255	255	255	
255	255	255	
255	255	255	
255	255	255	
255	255	255	
255	255	255	
255	255	255	
255	255	255	
255	255	255	
255	255	255	
255	255	255	
255	255	255	
255	255	255	
255	255	255	
255	255	255	
255	255	255	
255	255	255	
255	255	255	
255	255	255	
255	255	255	
255	255	255	
255	255	255	
255	255	255	
255	255	255	
255	255	255	
255	255	255	
255	255	255	
255	255	255	
255	255	255	
255	255	255	
255	255	255	
255	255	255	
255	255	255	
255	255	255	
255	255	255	
255	255	255	
255	255	255	
255	255	255	
255	255	255	
255	255	255	
255	255	255	
255	255	255	
255	255	255	
255	255	255	
255	255	255	
255	255	255	
255	255	255	
255	255	255	
255	255	255	
255	255	255	
255	255	255	
255	255	255	
255	255	255	
255	255	255	
255	255	255	
255	255	255	
255	255	255	
255	255	255	
255	255	255	
255	255	255	
255	255	255	
255	255	255	
255	255	255	
255	255	255	
255	255	255	
255	255	255	
255	255	255	
255	255	255	
255	255	255	
255	255	255	
255	255	255	
255	255	255	
255	255	255	
255	255	255	
255	255	255	
255	255	255	
255	255	255	
255	255	255	
255	255	255	
255	255	255	
255	255	255	
255	255	255	
255	255	255	
255	255	255	
255	255	255	
255	255	255	
255	255	255	
255	255	255	
255	255	255	
255	255	255	
255	255	255	
255	255	255	
255	255	255	
255	255	255	
255	255	255	
255	255	255	
255	255	255	
255	255	255	
255	255	255	
255	255	255	
255	255	255	
255	255	255	
255	255	255	
255	255	255	
255	255	255	
255	255	255	
255	255	255	
255	255	255	
255	255	255	
255	255	255	
255	255	255	
255	255	255	
255	255	255	
255	255	255	
255	255	255	
255	255	255	
255	255	255	
255	255	255	
255	255	255	
255	255	255	
255	255	255	
255	255	255	
255	255	255	
255	255	255	
255	255	255	
255	255	255	
255	255	255	
255	255	255	
255	255	255	
255	255	255	
255	255	255	
255	255	255	
255	255	255	
255	255	255	
255	255	255	
255	255	255	
255	255	255	
255	255	255	
255	255	255	
255	255	255	
255	255	255	
255	255	255	
255	255	255	
255	255	255	
255	255	255	
255	255	255	
255	255	255	
255	255	255	
255	255	255	
255	255	255	
255	255	255	
255	255	255	
255	255	255	
255	255	255	
255	255	255	
255	255	255	
255	255	255	
255	255	255	
255	255	255	
255	255	255	
255	255	255	
255	255	255	
255	255	255	
255	255	255	
255	255	255	
255	255	255	
255	255	255	
255	255	255	
255	255	255	
255	255	255	
255	255	255	
255	255	255	
255	255	255	
255	255	255	
255	255	255	
255	255	255	
255	255	255	
255	255	255	
255	255	255	
255	255	255	
255	255	255	
255	255	255	
255	255	255	
255	255	255	
255	255	255	
255	255	255	
255	255	255	
255	255	255	
255	255	255	
255	255	255	
255	255	255	
255	255	255	
255	255	255	
255	255	255	
255	255	255	
255	255	255	
255	255	255	
255	255	255	
255	255	255	
255	255	255	
255	255	255	
255	255	255	
255	255	255	
255	255	255	
255	255	255	
255	255	255	
255	255	255	
255	255	255	
255	255	255	
255	255	255	
255	255	255	
255	255	255	
255	255	255	
255	255	255	
255	255	255	
255	255	255	
255	255	255	
255	255	255	
255	255	255	
255	255	255	
255	255	255	
255	255	255	
255	255	255	
255	255	255	
255	255	255	
255	255	255	
255	255	255	
255	255	255	
255	255	255	
255	255	255	
255	255	255	
255	255	255	
255	255	255	
255	255	255	
255	255	255	
255	255	255	
255	255	255	
255	255	255	
255	255	255	
255	255	255	
255	255	255	
255	255	255	
255	255	255	
255	255	255	
255	255	255	
255	255	255	
255	255	255	
255	255	255	
255	255	255	
255	255	255	
255	255	255	
255	255	255	
255	255	255	
255	255	255	
255	255	255	
255	255	255	
255	255	255	
255	255	255	
255	255	255	
255	255	255	
255	255	255	
255	255	255	
255	255	255	
255	255	255	
255	255	255	
255	255	255	
255	255	255	
255	255	255	
255	255	255	
255	255	255	
255	255	255	
255	255	255	
255	255	255	
255	255	255	
255	255	255	
255	255	255	
255	255	255	
255	255	255	
255	255	255	
255	255	255	
255	255	255	
255	255	255	
255	255	255	
255	255	255	
255	255	255	
255	255	255	
255	255	255	
255	255	255	
255	255	255	
255	255	255	
255	255	255	
255	255	255	
255	255	255	
255	255	255	
255	255	255	
255	255	255	
255	255	255	
255	255	255	
255	255	255	
255	255	255	
255	255	255	
255	255	255	
255	255	255	
255	255	255	
255	255	255	
255	255	255	
255	255	255	
255	255	255	
255	255	255	
255	255	255	
255	255	255	
255	255	255	
255	255	255	
255	255	255	
255	255	255	
255	255	255	
255	255	255	
255	255	255	
255	255	255	
255	255	255	
255	255	255	
255	255	255	
255	255	255	
255	255	255	
255	255	255	
255	255	255	
255	255	255	
255	255	255	
255	255	255	
255	255	255	
255	255	255	
255	255	255	
255	255	255	
255	255	255	
255	255	255	
255	255	255	
255	255	255	
255	255	255	
255	255	255	
255	255	255	
255	255	255	
255	255	255	
255	255	255	
255	255	255	
255	255	255	
255	255	255	
255	255	255	
255	255	255	
255	255	255	
255	255	255	
255	255	255	
255	255	255	
255	255	255	
255	255	255	
255	255	255	
255	255	255	
255	255	255	
255	255	255	
255	255	255	
255	255	255	
255	255	255	
255	255	255	
255	255	255	
255	255	255	
255	255	255	
255	255	255	
255	255	255	
255	255	255	
255	255	255	
255	255	255	
255	255	255	
255	255	255	
255	255	255	
255	255	255	
255	255	255	
255	255	255	
255	255	255	
255	255	255	
255	255	255	
255	255	255	
255	255	255	
255	255	255	
255	255	255	
255	255	255	
255	255	255	
255	255	255	
255	255	255	
255	255	255	
255	255	255	
255	255	255	
255	255	255	
255	255	255	
255	255	255	
255	255	255	
255	255	255	
255	255	255	
255	255	255	
255	255	255	
255	255	255	
255	255	255	
255	255	255	
255	255	255	
255	255	255	
255	255	255	
255	255	255	
255	255	255	
255	255	255	
255	255	255	
255	255	255	
255	255	255	
255	255	255	
255	255	255	
255	255	255	
255	255	255	
255	255	255	
255	255	255	
255	255	255	
255	255	255	
255	255	255	
255	255	255	
255	255	255	
255	255	255	
255	255	255	
255	255	255	
255	255	255	
255	255	255	
255	255	255	
255	255	255	
255	255	255	
255	255	255	
255	255	255	
255	255	255	
255	255	255	
255	255	255	
255	255	255	
255	255	255	
255	255	255	
255	255	255	
255	255	255	
255	255	255	
255	255	255	
255	255	255	
255	255	255	
255	255	255	
255	255	255	
255	255	255	
255	255	255	
255	255	255	
255	255	255	
255	255	255	
255	255	255	
255	255	255	
255	255	255	
255	255	255	
255	255	255	
255	255	255	
255	255	255	
255	255	255	
255	255	255	
255	255	255	
255	255	255	
255	255	255	
255	255	255	
255	255	255	
255	255	255	
255	255	255	
255	255	255	
255	255	255	
255	255	255	
255	255	255	
255	255	255	
255	255	255	
255	255	255	
255	255	255	
255	255	255	
255	255	255	
255	255	255	
255	255	255	
255	255	255	
255	255	255	
255	255	255	
255	255	255	
255	255	255	
255	255	255	
255	255	255	
255	255	255	
255	255	255	
255	255	255	
255	255	255	
255	255	255	
255	255	255	
255	255	255	
255	255	255	
255	255	255	
255	255	255	
255	255	255	
255	255	255	
255	255	255	
255	255	255	
255	255	255	
255	255	255	
255	255	255	
255	255	255	
255	255	255	
255	255	255	
255	255	255	
255	255	255	
255	255	255	
255	255	255	
255	255	255	
255	255	255	
255	255	255	
255	255	255	
255	255	255	
255	255	255	
255	255	255	
255	255	255	
255	255	255	
255	255	255	
255	255	255	
255	255	255	
255	255	255	
255	255	255	
255	255	255	
255	255	255	
255	255	255	
255	255	255	
255	255	255	
255	255	255	
255	255	255	
255	255	255	
255	255	255	
255	255	255	
255	255	255	
255	255	255	
255	255	255	
255	255	255	
255	255	255	
255	255	255	
255	255	255	
255	255	255	
255	255	255	
255	255	255	
255	255	255	
255	255	255	
255	255	255	
255	255	255	
255	255	255	
255	255	255	
255	255	255	
255	255	255	
255	255	255	
255	255	255	
255	255	255	
255	255	255	
255	255	255	
255	255	255	
255	255	255	
255	255	255	
255	255	255	
255	255	255	
255	255	255	
255	255	255	
255	255	255	
255	255	255	
255	255	255	
255	255	255	
255	255	255	
255	255	255	
255	255	255	
255	255	255	
255	255	255	
255	255	255	
255	255	255	
255	255	255	
255	255	255	
255	255	255	
255	255	255	
255	255	255	
255	255	255	
255	255	255	
255	255	255	
255	255	255	
255	255	255	
255	255	255	
255	255	255	
255	255	255	
255	255	255	
255	255	255	
255	255	255	
255	255	255	
255	255	255	
255	255	255	
255	255	255	
255	255	255	
255	255	255	
255	255	255	
255	255	255	
255	255	255	
255	255	255	
255	255	255	
255	255	255	
255	255	255	
255	255	255	
255	255	255	
255	255	255	
255	255	255	
255	255	255	
255	255	255	
255	255	255	
255	255	255	
255	255	255	
255	255	255	
255	255	255	
255	255	255	
255	255	255	
255	255	255	
255	255	255	
255	255	255	
255	255	255	
255	255	255	
255	255	255	
255	255	255	
255	255	255	
255	255	255	
255	255	255	
255	255	255	
255	255	255	
255	255	255	
255	255	255	
255	255	255	
255	255	255	
255	255	255	
255	255	255	
255	255	255	
255	255	255	
255	255	255	
255	255	255	
255	255	255	
255	255	255	
255	255	255	
255	255	255	
255	255	255	
255	255	255	
255	255	255	
255	255	255	
255	255	255	
255	255	255	
255	255	255	
255	255	255	
255	255	255	
255	255	255	
255	255	255	
255	255	255	
255	255	255	
255	255	255	
255	255	255	
255	255	255	
255	255	255	
255	255	255	
255	255	255	
255	255	255	
255	255	255	
255	255	255	
255	255	255	
255	255	255	
255	255	255	
255	255	255	
255	255	255	
255	255	255	
255	255	255	
255	255	255	
255	255	255	
255	255	255	
255	255	255	
255	255	255	
255	255	255	
255	255	255	
255	255	255	
255	255	255	
255	255	255	
255	255	255	
255	255	255	
255	255	255	
255	255	255	
255	255	255	
255	255	255	
255	255	255	
255	255	255	
255	255	255	
255	255	255	
255	255	255	
255	255	255	
255	255	255	
255	255	255	
255	255	255	
255	255	255	
255	255	255	
255	255	255	
255	255	255	
255	255	255	
255	255	255	
255	255	255	
255	255	255	
255	255	255	
255	255	255	
255	255	255	
255	255	255	
255	255	255	
255	255	255	
255	255	255	
255	255	255	
255	255	255	
255	255	255	
255	255	255	
255	255	255	
255	255	255	
255	255	255	
255	255	255	
255	255	255	
255	255	255	
255	255	255	
255	255	255	
255	255	255	
255	255	255	
255	255	255	
255	255	255	
255	255	255	
255	255	255	
255	255	255	
255	255	255	
255	255	255	
255	255	255	
255	255	255	
255	255	255	
255	255	255	
255	255	255	
255	255	255	
255	255	255	
255	255	255	
255	255	255	
255	255	255	
255	255	255	
255	255	255	
255	255	255	
255	255	255	
255	255	255	
255	255	255	
255	255	255	
255	255	255	
255	255	255	
255	255	255	
255	255	255	
255	255	255	
255	255	255	
255	255	255	
255	255	255	
255	255	255	
255	255	255	
255	255	255	
255	255	255	
255	255	255	
255	255	255	
255	255	255	
255	255	255	
255	255	255	
255	255	255	
255	255	255	
255	255	255	
255	255	255	
255	255	255	
255	255	255	
255	255	255	
255	255	255	
255	255	255	
255	255	255	
255	255	255	
255	255	255	
255	255	255	
255	255	255	
255	255	255	
255	255	255	
255	255	255	
255	255	255	
255	255	255	
255	255	255	
255	255	255	
255	255	255	
255	255	255	
255	255	255	
255	255	255	
255	255	255	
255	255	255	
255	255	255	
255	255	255	
255	255	255	
255	255	255	
255	255	255	
255	255	255	
255	255	255	
255	255	255	
255	255	255	
255	255	255	
255	255	255	
255	255	255	
255	255	255	
255	255	255	
255	255	255	
255	255	255	
255	255	255	
255	255	255	
255	255	255	
255	255	255	
255	255	255	
255	255	255	
255	255	255	
255	255	255	
255	255	255	
255	255	255	
255	255	255	
255	255	255	
255	255	255	
255	255	255	
255	255	255	
255	255	255	
255	255	255	
255	255	255	
255	255	255	
255	255	255	
255	255	255	
255	255	255	
255	255	255	
255	255	255	
255	255	255	
255	255	255	
255	255	255	
255	255	255	
255	255	255	
255	255	255	
255	255	255	
255	255	255	
255	255	255	
255	255	255	
255	255	255	
255	255	255	
255	255	255	
255	255	255	
255	255	255	
255	255	255	
255	255	255	
255	255	255	
255	255	255	
255	255	255	
255	255	255	
255	255	255	
255	255	255	
255	255	255	
255	255	255	
255	255	255	
255	255	255	
255	255	255	
255	255	255	
255	255	255	
255	255	255	
255	255	255	
255	255	255	
255	255	255	
255	255	255	
255	255	255	
255	255	255	
255	255	255	
255	255	255	
255	255	255	
255	255	255	
255	255	255	
255	255	255	
255	255	255	
255	255	255	
255	255	255	
255	255	255	
255	255	255	
255	255	255	
255	255	255	
255	255	255	
255	255	255	
255	255	255	
255	255	255	
255	255	255	
255	255	255	
255	255	255	
255	255	255	
255	255	255	
255	255	255	
255	255	255	
255	255	255	
255	255	255	
255	255	255	
255	255	255	
255	255	255	
255	255	255	
255	255	255	
255	255	255	
255	255	255	
255	255	255	
255	255	255	
255	255	255	
255	255	255	
255	255	255	
255	255	255	
255	255	255	
255	255	255	
255	255	255	
255	255	255	
255	255	255	
255	255	255	
255	255	255	
255	255	255	
255	255	255	
255	255	255	
255	255	255	
255	255	255	
255	255	255	
255	255	255	
255	255	255	
255	255	255	
255	255	255	
255	255	255	
255	255	255	
255	255	255	
255	255	255	
255	255	255	
255	255	255	
255	255	255	
255	255	255	
255	255	255	
255	255	255	
255	255	255	
255	255	255	
255	255	255	
255	255	255	
255	255	255	
255	255	255	
255	255	255	
255	255	255	
255	255	255	
255	255	255	
255	255	255	
255	255	255	
255	255	255	
255	255	255	
255	255	255	
255	255	255	
255	255	255	
255	255	255	
255	255	255	
255	255	255	
255	255	255	
255	255	255	
255	255	255	
255	255	255	
255	255	255	
255	255	255	
255	255	255	
255	255	255	
255	255	255	
255	255	255	
255	255	255	
255	255	255	
255	255	255	
255	255	255	
255	255	255	
255	255	255	
255	255	255	
255	255	255	
255	255	255	
255	255	255	
255	255	255	
255	255	255	
255	255	255	
255	255	255	
255	255	255	
255	255	255	
255	255	255	
255	255	255	
255	255	255	
255	255	255	
255	255	255	
255	255	255	
255	255	255	
255	255	255	
255	255	255	
255	255	255	
255	255	255	
255	255	255	
255	255	255	
255	255	255	
255	255	255	
255	255	255	
255	255	255	
255	255	255	
255	255	255	
255	255	255	
255	255	255	
255	255	255	
255	255	255	
255	255	255	
255	255	255	
255	255	255	
255	255	255	
255	255	255	
255	255	255	
255	255	255	
255	255	255	
255	255	255	
255	255	255	
255	255	255	
255	255	255	
255	255	255	
255	255	255	
255	255	255	
255	255	255	
255	255	255	
255	255	255	
255	255	255	
255	255	255	
255	255	255	
255	255	255	
255	255	255	
255	255	255	
255	255	255	
255	255	255	
255	255	255	
255	255	255	
255	255	255	
255	255	255	
255	255	255	
255	255	255	
255	255	255	
255	255	255	
255	255	255	
255	255	255	
255	255	255	
255	255	255	
255	255	255	
255	255	255	
255	255	255	
255	255	255	
255	255	255	
255	255	255	
255	255	255	
255	255	255	
255	255	255	
255	255	255	
255	255	255	
255	255	255	
255	255	255	
255	255	255	
255	255	255	
255	255	255	
255	255	255	
255	255	255	
255	255	255	
255	255	255	
255	255	255	
255	255	255	
255	255	255	
255	255	255	
255	255	255	
255	255	255	
255	255	255	
255	255	255	
255	255	255	
255	255	255	
255	255	255	
255	255	255	
255	255	255	
255	255	255	
255	255	255	
255	255	255	
255	255	255	
255	255	255	
255	255	255	
255	255	255	
255	255	255	
255	255	255	
255	255	255	
255	255	255	
255	255	255	
255	255	255	
255	255	255	
255	255	255	
255	255	255	
255	255	255	
255	255	255	
255	255	255	
255	255	255	
255	255	255	
255	255	255	
255	255	255	
255	255	255	
255	255	255	
255	255	255	
255	255	255	
255	255	255	
255	255	255	
255	255	255	
255	255	255	
255	255	255	
255	255	255	
255	255	255	
255	255	255	
255	255	255	
255	255	255	
255	255	255	
255	255	255	
255	255	255	
255	255	255	
255	255	255	
255	255	255	
255	255	255	
255	255	255	
255	255	255	
255	255	255	
255	255	255	
255	255	255	
255	255	255	
255	255	255	
255	255	255	
255	255	255	
255	255	255	
255	255	255	
255	255	255	
255	255	255	
255	255	255	
255	255	255	
255	255	255	
255	255	255	
255	255	255	
255	255	255	
255	255	255	
255	255	255	
255	255	255	
255	255	255	
255	255	255	
255	255	255	
255	255	255	
255	255	255	
255	255	255	
255	255	255	
255	255	255	
255	255	255	
255	255	255	
255	255	255	
255	255	255	
255	255	255	
255	255	255	
255	255	255	
255	255	255	
255	255	255	
255	255	255	
255	255	255	
255	255	255	
255	255	255	
255	255	255	
255	255	255	
255	255	255	
255	255	255	
255	255	255	
255	255	255	
255	255	255	
255	255	255	
255	255	255	
255	255	255	
255	255	255	
255	255	255	
255	255	255	
255	255	255	
255	255	255	
255	255	255	
255	255	255	
255	255	255	
255	255	255	
255	255	255	
255	255	255	
255	255	255	
255	255	255	
255	255	255	
255	255	255	
255	255	255	
255	255	255	
255	255	255	
255	255	255	
255	255	255	
255	255	255	
255	255	255	
255	255	255	
255	255	255	
255	255	255	
255	255	255	
255	255	255	
255	255	255	
255	255	255	
255	255	255	
255	255	255	
255	255	255	
255	255	255	
255	255	255	
255	255	255	
255	255	255	
255	255	255	
255	255	255	
255	255	255	
255	255	255	
255	255	255	
255	255	255	
255	255	255	
255	255	255	
255	255	255	
255	255	255	
255	255	255	
255	255	255	
255	255	255	
255	255	255	
255	255	255	
255	255	255	
255	255	255	
255	255	255	
255	255	255	
255	255	255	
255	255	255	
255	255	255	
255	255	255	
255	255	255	
255	255	255	
255	255	255	
255	255	255	
255	255	255	
255	255	255	
255	255	255	
255	255	255	
255	255	255	
255	255	255	
255	255	255	
255	255	255	
255	255	255	
255	255	255	
255	255	255	
255	255	255	
255	255	255	
255	255	255	
255	255	255	
255	255	255	
255	255	255	
255	255	255	
255	255	255	
255	255	255	
255	255	255	
255	255	255	
255	255	255	
255	255	255	
255	255	255	
255	255	255	
255	255	255	
255	255	255	
255	255	255	
255	255	255	
255	255	255	
255	255	255	
255	255	255	
255	255	255	
255	255	255	
255	255	255	
255	255	255	
255	255	255	
255	255	255	
255	255	255	
255	255	255	
255	255	255	
255	255	255	
255	255	255	
255	255	255	
255	255	255	
255	255	255	
255	255	255	
255	255	255	
255	255	255	
255	255	255	
255	255	255	
255	255	255	
255	255	255	
255	255	255	
255	255	255	
255	255	255	
255	255	255	
255	255	255	
255	255	255	
255	255	255	
255	255	255	
255	255	255	
255	255	255	
255	255	255	
255	255	255	
255	255	255	
255	255	255	
255	255	255	
255	255	255	
255	255	255	
255	255	255	
255	255	255	
255	255	255	
255	255	255	
255	255	255	
255	255	255	
255	255	255	
255	255	255	
255	255	255	
255	255	255	
255	255	255	
255	255	255	
255	255	255	
255	255	255	
255	255	255	
255	255	255	
255	255	255	
255	255	255	
255	255	255	
255	255	255	
255	255	255	
255	255	255	
255	255	255	
255	255	255	
255	255	255	
255	255	255	
255	255	255	
255	255	255	
255	255	255	
255	255	255	
255	255	255	
255	255	255	
255	255	255	
255	255	255	
255	255	255	
255	255	255	
255	255	255	
255	255	255	
255	255	255	
255	255	255	
255	255	255	
255	255	255	
255	255	255	
255	255	255	
255	255	255	
255	255	255	
255	255	255	
255	255	255	
255	255	255	
255	255	255	
255	255	255	
255	255	255	
255	255	255	
255	255	255	
255	255	255	
255	255	255	
255	255	255	
255	255	255	
255	255	255	
255	255	255	
255	255	255	
255	255	255	
255	255	255	
255	255	255	
255	255	255	
255	255	255	
255	255	255	
255	255	255	
255	255	255	
255	255	255	
255	255	255	
255	255	255	
255	255	255	
255	255	255	
255	255	255	
255	255	255	
255	255	255	
255	255	255	
255	255	255	
255	255	255	
255	255	255	
255	255	255	
255	255	255	
255	255	255	
255	255	255	
255	255	255	
255	255	255	
255	255	255	
255	255	255	
255	255	255	
255	255	255	
255	255	255	
255	255	255	
255	255	255	
255	255	255	
255	255	255	
255	255	255	
255	255	255	
255	255	255	
255	255	255	
255	255	255	
255	255	255	
255	255	255	
255	255	255	
255	255	255	
255	255	255	
255	255	255	
255	255	255	
255	255	255	
255	255	255	
255	255	255	
255	255	255	
255	255	255	
255	255	255	
255	255	255	
255	255	255	
255	255	255	
255	255	255	
255	255	255	
255	255	255	
255	255	255	
255	255	255	
255	255	255	
255	255	255	
255	255	255	
255	255	255	
255	255	255	
255	255	255	
255	255	255	
255	255	255	
255	255	255	
255	255	255	
255	255	255	
255	255	255	
255	255	255	
255	255	255	
255	255	255	
255	255	255	
255	255	255	
255	255	255	
255	255	255	
255	255	255	
255	255	255	
255	255	255	
255	255	255	
255	255	255	
255	255	255	
255	255	255	
255	255	255	
255	255	255	
255	255	255	
255	255	255	
255	255	255	
255	255	255	
255	255	255	
255	255	255	
255	255	255	
255	255	255	
255	255	255	
255	255	255	
255	255	255	
255	255	255	
255	255	255	
255	255	255	
255	255	255	
255	255	255	
255	255	255	
255	255	255	
255	255	255	
255	255	255	
255	255	255	
255	255	255	
255	255	255	
255	255	255	
255	255	255	
255	255	255	
255	255	255	
255	255	255	
255	255	255	
255	255	255	
255	255	255	
255	255	255	
255	255	255	
255	255	255	
255	255	255	
255	255	255	
255	255	255	
255	255	255	
255	255	255	
255	255	255	
255	255	255	
255	255	255	
255	255	255	
255	255	255	
255	255	255	
255	255	255	
255	255	255	
255	255	255	
255	255	255	
255	255	255	
255	255	255	
255	255	255	
255	255	255	
255	255	255	
255	255	255	
255	255	255	
255	255	255	
255	255	255	
255	255	255	
255	255	255	
255	255	255	
255	255	255	
255	255	255	
255	255	255	
255	255	255	
255	255	255	
255	255	255	
255	255	255	
255	255	255	
255	255	255	
255	255	255	
255	255	255	
255	255	255	
255	255	255	
255	255	255	
255	255	255	
255	255	255	
255	255	255	
255	255	255	
255	255	255	
255	255	255	
255	255	255	
255	255	255	
255	255	255	
255	255	255	
255	255	255	
255	255	255	
255	255	255	
255	255	255	
255	255	255	
255	255	255	
255	255	255	
255	255	255	
255	255	255	
255	255	255	
255	255	255	
255	255	255	
255	255	255	
255	255	255	
255	255	255	
255	255	255	
255	255	255	
255	255	255	
255	255	255	
255	255	255	
255	255	255	
255	255	255	
255	255	255	
255	255	255	
255	255	255	
255	255	255	
255	255	255	
255	255	255	
255	255	255	
255	255	255	
255	255	255	
255	255	255	
255	255	255	
255	255	255	
255	255	255	
255	255	255	
255	255	255	
255	255	255	
255	255	255	
255	255	255	
255	255	255	
255	255	255	
255	255	255	
255	255	255	
255	255	255	
255	255	255	
255	255	255	
255	255	255	
255	255	255	
255	255	255	
255	255	255	
255	255	255	
255	255	255	
255	255	255	
255	255	255	
255	255	255	
255	255	255	
255	255	255	
255	255	255	
255	255	255	
255	255	255	
255	255	255	
255	255	255	
255	255	255	
255	255	255	
255	255	255	
255	255	255	
255	255	255	
255	255	255	
255	255	255	
255	255	255	
255	255	255	
255	255	255	
255	255	255	
255	255	255	
255	255	255	
255	255	255	
255	255	255	
255	255	255	
255	255	255	
255	255	255	
255	255	255	
255	255	255	
255	255	255	
255	255	255	
255	255	255	
255	255	255	
255	255	255	
255	255	255	
255	255	255	
255	255	255	
255	255	255	
255	255	255	
255	255	255	
255	255	255	
255	255	255	
255	255	255	
255	255	255	
255	255	255	
255	255	255	
255	255	255	
255	255	255	
255	255	255	
255	255	255	
255	255	255	
255	255	255	
255	255	255	
255	255	255	
255	255	255	
255	255	255	
255	255	255	
255	255	255	
255	255	255	
255	255	255	
255	255	255	
255	255	255	
255	255	255	
255	255	255	
255	255	255	
255	255	255	
255	255	255	
255	255	255	
255	255	255	
255	255	255	
255	255	255	
255	255	255	
255	255	255	
255	255	255	
255	255	255	
255	255	255	
255	255	255	
255	255	255	
255	255	255	
255	255	255	
255	255	255	
255	255	255	
255	255	255	
255	255	255	
255	255	255	
255	255	255	
255	255	255	
255	255	255	
255	255	255	
255	255	255	
255	255	255	
255	255	255	
255	255	255	
255	255	255	
255	255	255	
255	255	255	
255	255	255	
255	255	255	
255	255	255	
255	255	255	
255	255	255	
255	255	255	
255	255	255	
255	255	255	
255	255	255	
255	255	255	
255	255	255	
255	255	255	
255	255	255	
255	255	255	
255	255	255	
255	255	255	
255	255	255	
255	255	255	
255	255	255	
255	255	255	
255	255	255	
255	255	255	
255	255	255	
255	255	255	
255	255	255	
255	255	255	
255	255	255	
255	255	255	
255	255	255	
255	255	255	
255	255	255	
255	255	255	
255	255	255	
255	255	255	
255	255	255	
255	255	255	
255	255	255	
255	255	255	
255	255	255	
255	255	255	
255	255	255	
255	255	255	
255	255	255	
255	255	255	
255	255	255	
255	255	255	
255	255	255	
255	255	255	
255	255	255	
255	255	255	
255	255	255	
255	255	255	
255	255	255	
255	255	255	
255	255	255	
255	255	255	
255	255	255	
255	255	255	
255	255	255	
255	255	255	
255	255	255	
255	255	255	
255	255	255	
255	255	255	
255	255	255	
255	255	255	
255	255	255	
255	255	255	
255	255	255	
255	255	255	
255	255	255	
255	255	255	
255	255	255	
255	255	255	
255	255	255	
255	255	255	
255	255	255	
255	255	255	
255	255	255	
255	255	255	
255	255	255	
255	255	255	
255	255	255	
255	255	255	
255	255	255	
255	255	255	
255	255	255	
255	255	255	
255	255	255	
255	255	255	
255	255	255	
255	255	255	
255	255	255	
255	255	255	
255	255	255	
255	255	255	
255	255	255	
255	255	255	
255	255	255	
255	255	255	
255	255	255	
255	255	255	
255	255	255	
255	255	255	
255	255	255	
255	255	255	
255	255	255	
255	255	255	
255	255	255	
255	255	255	
255	255	255	
255	255	255	
255	255	255	
255	255	255	
255	255	255	
255	255	255	
255	255	255	
255	255	255	
255	255	255	
255	255	255	
255	255	255	
255	255	255	
255	255	255	
255	255	255	
255	255	255	
255	255	255	
255	255	255	
255	255	255	
255	255	255	
255	255	255	
255	255	255	
255	255	255	
255	255	255	
255	255	255	
255	255	255	
255	255	255	
255	255	255	
255	255	255	
255	255	255	
255	255	255	
255	255	255	
255	255	255	
255	255	255	
255	255	255	
255	255	255	
255	255	255	
255	255	255	
255	255	255	
255	255	255	
255	255	255	
255	255	255	
255	255	255	
255	255	255	
255	255	255	
255	255	255	
255	255	255	
255	255	255	
255	255	255	
255	255	255	
255	255	255	
255	255	255	
255	255	255	
255	255	255	
255	255	255	
255	255	255	
255	255	255	
255	255	255	
255	255	255	
255	255	255	
255	255	255	
255	255	255	
255	255	255	
255	255	255	
255	255	255	
255	255	255	
255	255	255	
255	255	255	
255	255	255	
255	255	255	
255	255	255	
255	255	255	
255	255	255	
255	255	255	
255	255	255	
255	255	255	
255	255	255	
255	255	255	
255	255	255	
255	255	255	
255	255	255	
255	255	255	
255	255	255	
255	255	255	
255	255	255	
255	255	255	
255	255	255	
255	255	255	
255	255	255	
255	255	255	
255	255	255	
255	255	255	
255	255	255	
255	255	255	
255	255	255	
255	255	255	
255	255	255	
255	255	255	
255	255	255	
255	255	255	
255	255	255	
255	255	255	
255	255	255	
255	255	255	
255	255	255	
255	255	255	
255	255	255	
255	255	255	
255	255	255	
255	255	255	
255	255	255	
255	255	255	
255	255	255	
255	255	255	
255	255	255	
255	255	255	
255	255	255	
255	255	255	
255	255	255	
255	255	255	
255	255	255	
255	255	255	
255	255	255	
255	255	255	
255	255	255	
255	255	255	
255	255	255	
255	255	255	
255	255	255	
255	255	255	
255	255	255	
255	255	255	
255	255	255	
255	255	255	
255	255	255	
255	255	255	
255	255	255	
255	255	255	
255	255	255	
255	255	255	
255	255	255	
255	255	255	
255	255	255	
255	255	255	
255	255	255	
255	255	255	
255	255	255	
255	255	255	
255	255	255	
255	255	255	
255	255	255	
255	255	255	
255	255	255	
255	255	255	
255	255	255	
255	255	255	
255	255	255	
255	255	255	
255	255	255	
255	255	255	
255	255	255	
255	255	255	
255	255	255	
255	255	255	
255	255	255	
255	255	255	
255	255	255	
255	255	255	
255	255	255	
255	255	255	
255	255	255	
255	255	255	
255	255	255	
255	255	255	
255	255	255	
255	255	255	
255	255	255	
255	255	255	
255	255	255	
255	255	255	
255	255	255	
255	255	255	
255	255	255	
255	255	255	
255	255	255	
255	255	255	
255	255	255	
255	255	255	
255	255	255	
255	255	255	
255	255	255	
255	255	255	
255	255	255	
255	255	255	
255	255	255	
255	255	255	
255	255	255	
255	255	255	
255	255	255	
255	255	255	
255	255	255	
255	255	255	
255	255	255	
255	255	255	
255	255	255	
255	255	255	
255	255	255	
255	255	255	
255	255	255	
255	255	255	
255	255	255	
255	255	255	
255	255	255	
255	255	255	
255	255	255	
255	255	255	
255	255	255	
255	255	255	
255	255	255	
255	255	255	
255	255	255	
255	255	255	
255	255	255	
255	255	255	
255	255	255	
255	255	255	
255	255	255	
255	255	255	
255	255	255	
255	255	255	
255	255	255	
255	255	255	
255	255	255	
255	255	255	
255	255	255	
255	255	255	
255	255	255	
255	255	255	
255	255	255	
255	255	255	
255	255	255	
255	255	255	
255	255	255	
255	255	255	
255	255	255	
255	255	255	
255	255	255	
255	255	255	
255	255	255	
255	255	255	
255	255	255	
255	255	255	
255	255	255	
255	255	255	
255	255	255	
255	255	255	
255	255	255	
255	255	255	
255	255	255	
255	255	255	
255	255	255	
255	255	255	
255	255	255	
255	255	255	
255	255	255	
255	255	255	
255	255	255	
255	255	255	
255	255	255	
255	255	255	
255	255	255	
255	255	255	
255	255	255	
255	255	255	
255	255	255	
255	255	255	
255	255	255	
255	255	255	
255	255	255	
255	255	255	
255	255	255	
255	255	255	
255	255	255	
255	255	255	
255	255	255	
255	255	255	
255	255	255	
255	255	255	
255	255	255	
255	255	255	
255	255	255	
255	255	255	
255	255	255	
255	255	255	
255	255	255	
255	255	255	
255	255	255	
255	255	255	
255	255	255	
255	255	255	
255	255	255	
255	255	255	
255	255	255	
255	255	255	
255	255	255	
255	255	255	
255	255	255	
255	255	255	
255	255	255	
255	255	255	
255	255	255	
255	255	255	
255	255	255	
255	255	255	
255	255	255	
255	255	255	
255	255	255	
255	255	255	
255	255	255	
255	255	255	
255	255	255	
255	255	255	
255	255	255	
255	255	255	
255	255	255	
255	255	255	
255	255	255	
255	255	255	
255	255	255	
255	255	255	
255	255	255	
255	255	255	
255	255	255	
255	255	255	
255	255	255	
255	255	255	
255	255	255	
255	255	255	
255	255	255	
255	255	255	
255	255	255	
255	255	255	
255	255	255	
255	255	255	
255	255	255	
255	255	255	
255	255	255	
255	255	255	
255	255	255	
255	255	255	
255	255	255	
255	255	255	
255	255	255	
255	255	255	
255	255	255	
255	255	255	
255	255	255	
255	255	255	
255	255	255	
255	255	255	
255	255	255	
255	255	255	
255	255	255	
255	255	255	
255	255	255	
255	255	255	
255	255	255	
255	255	255	
255	255	255	
255	255	255	
255	255	255	
255	255	255	
255	255	255	
255	255	255	
255	255	255	
255	255	255	
255	255	255	
255	255	255	
255	255	255	
255	255	255	
255	255	255	
255	255	255	
255	255	255	
255	255	255	
255	255	255	
255	255	255	
255	255	255	
255	255	255	
255	255	255	
255	255	255	
255	255	255	
255	255	255	
255	255	255	
255	255	255	
255	255	255	
255	255	255	
255	255	255	
255	255	255	
255	255	255	
255	255	255	
255	255	255	
255	255	255	
255	255	255	
255	255	255	
255	255	255	
255	255	255	
255	255	255	
255	255	255	
255	255	255	
255	255	255	
255	255	255	
255	255	255	
255	255	255	
255	255	255	
255	255	255	
255	255	255	
255	255	255	
255	255	255	
255	255	255	
255	255	255	
255	255	255	
255	255	255	
255	255	255	
255	255	255	
255	255	255	
255	255	255	
255	255	255	
255	255	255	
255	255	255	
255	255	255	
255	255	255	
255	255	255	
255	255	255	
255	255	255	
255	255	255	
255	255	255	
255	255	255	
255	255	255	
255	255	255	
255	255	255	
255	255	255	
255	255	255	
255	255	255	
255	255	255	
255	255	255	
255	255	255	
255	255	255	
255	255	255	
255	255	255	
255	255	255	
255	255	255	
255	255	255	
255	255	255	
255	255	255	
255	255	255	
255	255	255	
255	255	255	
255	255	255	
255	255	255	
255	255	255	
255	255	255	
255	255	255	
255	255	255	
255	255	255	
255	255	255	
255	255	255	
255	255	255	
255	255	255	
255	255	255	
255	255	255	
255	255	255	
255	255	255	
255	255	255	
255	255	255	
255	255	255	
255	255	255	
255	255	255	
255	255	255	
255	255	255	
255	255	255	
255	255	255	
255	255	255	
255	255	255	
255	255	255	
255	255	255	
255	255	255	
255	255	255	
255	255	255	
255	255	255	
255	255	255	
255	255	255	
255	255	255	
255	255	255	
255	255	255	
255	255	255	
255	255	255	
255	255	255	
255	255	255	
255	255	255	
255	255	255	
255	255	255	
255	255	255	
255	255	255	
255	255	255	
255	255	255	
255	255	255	
255	255	255	
255	255	255	
255	255	255	
255	255	255	
255	255	255	
255	255	255	
255	255	255	
255	255	255	
255	255	255	
255	255	255	
255	255	255	
255	255	255	
255	255	255	
255	255	255	
255	255	255	
255	255	255	
255	255	255	
255	255	255	
255	255	255	
255	255	255	
255	255	255	
255	255	255	
255	255	255	
255	255	255	
255	255	255	
255	255	255	
255	255	255	
255	255	255	
255	255	255	
255	255	255	
255	255	255	
255	255	255	
255	255	255	
255	255	255	
255	255	255	
255	255	255	
255	255	255	
255	255	255	
255	255	255	
255	255	255	
255	255	255	
255	255	255	
255	255	255	
255	255	255	
255	255	255	
255	255	255	
255	255	255	
255	255	255	
255	255	255	
255	255	255	
255	255	255	
255	255	255	
255	255	255	
255	255	255	
255	255	255	
255	255	255	
255	255	255	
255	255	255	
255	255	255	
255	255	255	
255	255	255	
255	255	255	
255	255	255	
255	255	255	
255	255	255	
255	255	255	
255	255	255	
255	255	255	
255	255	255	
255	255	255	
255	255	255	
255	255	255	
255	255	255	
255	255	255	
255	255	255	
255	255	255	
255	255	255	
255	255	255	
255	255	255	
255	255	255	
255	255	255	
255	255	255	
255	255	255	
255	255	255	
255	255	255	
255	255	255	
255	255	255	
255	255	255	
255	255	255	
255	255	255	
255	255	255	
255	255	255	
255	255	255	
255	255	255	
255	255	255	
255	255	255	
255	255	255	
255	255	255	
255	255	255	
255	255	255	
255	255	255	
255	255	255	
255	255	255	
255	255	255	
255	255	255	
255	255	255	
255	255	255	
255	255	255	
255	255	255	
255	255	255	
255	255	255	
255	255	255	
255	255	255	
255	255	255	
255	255	255	
255	255	255	
255	255	255	
255	255	255	
255	255	255	
255	255	255	
255	255	255	
255	255	255	
255	255	255	
255	255	255	
255	255	255	
255	255	255	
255	255	255	
255	255	255	
255	255	255	
255	255	255	
255	255	255	
255	255	255	
255	255	255	
255	255	255	
255	255	255	
255	255	255	
255	255	255	
255	255	255	
255	255	255	
255	255	255	
255	255	255	
255	255	255	
255	255	255	
255	255	255	
255	255	255	
255	255	255	
255	255	255	
255	255	255	
255	255	255	
255	255	255	
255	255	255	
255	255	255	
255	255	255	
255	255	255	
255	255	255	
255	255	255	
255	255	255	
255	255	255	
255	255	255	
255	255	255	
255	255	255	
255	255	255	
255	255	255	
255	255	255	
255	255	255	
255	255	255	
255	255	255	
255	255	255	
255	255	255	
255	255	255	
255	255	255	
255	255	255	
255	255	255	
255	255	255	
255	255	255	
255	255	255	
255	255	255	
255	255	255	
255	255	255	
255	255	255	
255	255	255	
255	255	255	
255	255	255	
255	255	255	
255	255	255	
255	255	255	
255	255	255	
255	255	255	
255	255	255	
255	255	255	
255	255	255	
255	255	255	
255	255	255	
255	255	255	
255	255	255	
255	255	255	
255	255	255	
255	255	255	
255	255	255	
255	255	255	
255	255	255	
255	255	255	
255	255	255	
255	255	255	
255	255	255	
255	255	255	
255	255	255	
255	255	255	
255	255	255	
255	255	255	
255	255	255	
255	255	255	
255	255	255	
255	255	255	
255	255	255	
255	255	255	
255	255	255	
255	255	255	
255	255	255	
255	255	255	
255	255	255	
255	255	255	
255	255	255	
255	255	255	
255	255	255	
255	255	255	
255	255	255	
255	255	255	
255	255	255	
255	255	255	
255	255	255	
255	255	255	
255	255	255	
255	255	255	
255	255	255	
255	255	255	
255	255	255	
255	255	255	
255	255	255	
255	255	255	
255	255	255	
255	255	255	
255	255	255	
255	255	255	
255	255	255	
255	255	255	
255	255	255	
255	255	255	
255	255	255	
255	255	255	
255	255	255	
255	255	255	
255	255	255	
255	255	255	
255	255	255	
255	255	255	
255	255	255	
255	255	255	
255	255	255	
255	255	255	
255	255	255	
255	255	255	
255	255	255	
255	255	255	
255	255	255	
255	255	255	
255	255	255	
255	255	255	
255	255	255	
255	255	255	
255	255	255	
255	255	255	
255	255	255	
255	255	255	
255	255	255	
255	255	255	
255	255	255	
255	255	255	
255	255	255	
255	255	255	
255	255	255	
255	255	255	
255	255	255	
255	255	255	
255	255	255	
255	255	255	
255	255	255	
255	255	255	
255	255	255	
255	255	255	
255	255	255	
255	255	255	
255	255	255	
255	255	255	
255	255	255	
255	255	255	
255	255	255	
255	255	255	
255	255	255	
255	255	255	
255	255	255	
255	255	255	
255	255	255	
255	255	255	
255	255	255	
255	255	255	
255	255	255	
255	255	255	
255	255	255	
255	255	255	
255	255	255	
255	255	255	
255	255	255	
255	255	255	
255	255	255	
255	255	255	
255	255	255	
255	255	255	
255	255	255	
255	255	255	
255	255	255	
255	255	255	
255	255	255	
255	255	255	
255	255	255	
255	255	255	
255	255	255	
255	255	255	
255	255	255	
255	255	255	
255	255	255	
255	255	255	
255	255	255	
255	255	255	
255	255	255	
255	255	255	
255	255	255	
255	255	255	
255	255	255	
255	255	255	
255	255	255	
255	255	255	
255	255	255	
255	255	255	
255	255	255	
255	255	255	
255	255	255	
255	255	255	
255	255	255	
255	255	255	
255	255	255	
255	255	255	
255	255	255	
255	255	255	
255	255	255	
255	255	255	
255	255	255	
255	255	255	
255	255	255	
255	255	255	
255	255	255	
255	255	255	
255	255	255	
255	255	255	
255	255	255	
255	255	255	
255	255	255	
255	255	255	
255	255	255	
255	255	255	
255	255	255	
255	255	255	
255	255	255	
255	255	255	
255	255	255	
255	255	255	
255	255	255	
255	255	255	
255	255	255	
255	255	255	
255	255	255	
255	255	255	
255	255	255	
255	255	255	
255	255	255	
255	255	255	
255	255	255	
255	255	255	
255	255	255	
255	255	255	
255	255	255	
255	255	255	
255	255	255	
255	255	255	
255	255	255	
255	255	255	
255	255	255	
255	255	255	
255	255	255	
255	255	255	
255	255	255	
255	255	255	
255	255	255	
255	255	255	
255	255	255	
255	255	255	
255	255	255	
255	255	255	
255	255	255	
255	255	255	
255	255	255	
255	255	255	
255	255	255	
255	255	255	
255	255	255	
255	255	255	
255	255	255	
255	255	255	
255	255	255	
255	255	255	
255	255	255	
255	255	255	
255	255	255	
255	255	255	
255	255	255	
255	255	255	
255	255	255	
255	255	255	
255	255	255	
255	255	255	
255	255	255	
255	255	255	
255	255	255	
255	255	255	
255	255	255	
255	255	255	
255	255	255	
255	255	255	
255	255	255	
255	255	255	
255	255	255	
255	255	255	
255	255	255	
255	255	255	
255	255	255	
255	255	255	
255	255	255	
255	255	255	
255	255	255	
255	255	255	
255	255	255	
255	255	255	
255	255	255	
255	255	255	
255	255	255	
255	255	255	
255	255	255	
255	255	255	
255	255	255	
255	255	255	
255	255	255	
255	255	255	
255	255	255	
255	255	255	
255	255	255	
255	255	255	
255	255	255	
255	255	255	
255	255	255	
255	255	255	
255	255	255	
255	255	255	
255	255	255	
255	255	255	
255	255	255	
255	255	255	
255	255	255	
255	255	255	
255	255	255	
255	255	255	
255	255	255	
255	255	255	
255	255	255	
255	255	255	
255	255	255	
255	255	255	
255	255	255	
255	255	255	
255	255	255	
255	255	255	
255	255	255	
255	255	255	
255	255	255	
255	255	255	
255	255	255	
255	255	255	
255	255	255	
255	255	255	
255	255	255	
255	255	255	
255	255	255	
255	255	255	
255	255	255	
255	255	255	
255	255	255	
255	255	255	
255	255	255	
255	255	255	
255	255	255	
255	255	255	
255	255	255	
255	255	255	
255	255	255	
255	255	255	
255	255	255	
255	255	255	
255	255	255	
255	255	255	
255	255	255	
255	255	255	
255	255	255	
255	255	255	
255	255	255	
255	255	255	
255	255	255	
255	255	255	
255	255	255	
255	255	255	
255	255	255	
255	255	255	
255	255	255	
255	255	255	
255	255	255	
255	255	255	
255	255	255	
255	255	255	
255	255	255	
255	255	255	
255	255	255	
255	255	255	
255	255	255	
255	255	255	
255	255	255	
255	255	255	
255	255	255	
255	255	255	
255	255	255	
255	255	255	
255	255	255	
255	255	255	
255	255	255	
255	255	255	
255	255	255	
255	255	255	
255	255	255	
255	255	255	
255	255	255	
255	255	255	
255	255	255	
255	255	255	
255	255	255	
255	255	255	
255	255	255	
255	255	255	
255	255	255	
255	255	255	
255	255	255	
255	255	255	
255	255	255	
255	255	255	
255	255	255	
255	255	255	
255	255	255	
255	255	255	
255	255	255	
255	255	255	
255	255	255	
255	255	255	
255	255	255	
255	255	255	
255	255	255	
255	255	255	
255	255	255	
255	255	255	
255	255	255	
255	255	255	
255	255	255	
255	255	255	
255	255	255	
255	255	255	
255	255	255	
255	255	255	
255	255	255	
255	255	255	
255	255	255	
255	255	255	
255	255	255	
255	255	255	
255	255	255	
255	255	255	
255	255	255	
255	255	255	
255	255	255	
255	255	255	
255	255	255	
255	255	255	
255	255	255	
255	255	255	
255	255	255	
255	255	255	
255	255	255	
255	255	255	
255	255	255	
255	255	255	
255	255	255	
255	255	255	
255	255	255	
255	255	255	
255	255	255	
255	255	255	
255	255	255	
255	255	255	
255	255	255	
255	255	255	
255	255	255	
255	255	255	
255	255	255	
255	255	255	
255	255	255	
255	255	255	
255	255	255	
255	255	255	
255	255	255	
255	255	255	
255	255	255	
255	255	255	
255	255	255	
255	255	255	
255	255	255	
255	255	255	
255	255	255	
255	255	255	
255	255	255	
255	255	255	
255	255	255	
255	255	255	
255	255	255	
255	255	255	
255	255	255	
255	255	255	
255	255	255	
255	255	255	
255	255	255	
255	255	255	
255	255	255	
255	255	255	
255	255	255	
255	255	255	
255	255	255	
255	255	255	
255	255	255	
255	255	255	
255	255	255	
255	255	255	
255	255	255	
255	255	255	
255	255	255	
255	255	255	
255	255	255	
255	255	255	
255	255	255	
255	255	255	
255	255	255	
255	255	255	
255	255	255	
255	255	255	
255	255	255	
255	255	255	
255	255	255	
255	255	255	
255	255	255	
255	255	255	
255	255	255	
255	255	255	
255	255	255	
255	255	255	
255	255	255	
255	255	255	
255	255	255	
255	255	255	
255	255	255	
255	255	255	
255	255	255	
255	255	255	
255	255	255	
255	255	255	
255	255	255	
255	255	255	
255	255	255	
255	255	255	
255	255	255	
255	255	255	
255	255	255	
255	255	255	
255	255	255	
255	255	255	
255	255	255	
255	255	255	
255	255	255	
255	255	255	
255	255	255	
255	255	255	
255	255	255	
255	255	255	
255	255	255	
255	255	255	
255	255	255	
255	255	255	
255	255	255	
255	255	255	
255	255	255	
255	255	255	
255	255	255	
255	255	255	
255	255	255	
255	255	255	
255	255	255	
255	255	255	
255	255	255	
255	255	255	
255	255	255	
255	255	255	
255	255	255	
255	255	255	
255	255	255	
255	255	255	
255	255	255	
255	255	255	
255	255	255	
255	255	255	
255	255	255	
255	255	255	
255	255	255	
255	255	255	
255	255	255	
255	255	255	
255	255	255	
255	255	255	
255	255	255	
255	255	255	
255	255	255	
255	255	255	
255	255	255	
255	255	255	
255	255	255	
255	255	255	
255	255	255	
255	255	255	
255	255	255	
255	255	255	
255	255	255	
255	255	255	
255	255	255	
255	255	255	
255	255	255	
255	255	255	
255	255	255	
255	255	255	
255	255	255	
255	255	255	
255	255	255	
255	255	255	
255	255	255	
255	255	255	
255	255	255	
255	255	255	
255	255	255	
255	255	255	
255	255	255	
255	255	255	
255	255	255	
255	255	255	
255	255	255	
255	255	255	
255	255	255	
255	255	255	
255	255	255	
255	255	255	
255	255	255	
255	255	255	
255	255	255	
255	255	255	
255	255	255	
255	255	255	
255	255	255	
255	255	255	
255	255	255	
255	255	255	
255	255	255	
255	255	255	
255	255	255	
255	255	255	
255	255	255	
255	255	255	
255	255	255	
255	255	255	
255	255	255	
255	255	255	
255	255	255	
255	255	255	
255	255	255	
255	255	255	
255	255	255	
255	255	255	
255	255	255	
255	255	255	
255	255	255	
255	255	255	
255	255	255	
255	255	255	
255	255	255	
255	255	255	
255	255	255	
255	255	255	
255	255	255	
255	255	255	
255	255	255	
255	255	255	
255	255	255	
255	255	255	
255	255	255	
255	255	255	
255	255	255	
255	255	255	
255	255	255	
255	255	255	
255	255	255	
255	255	255	
255	255	255	
255	255	255	
255	255	255	
255	255	255	
255	255	255	
255	255	255	
255	255	255	
255	255	255	
255	255	255	
255	255	255	
255	255	255	
255	255	255	
255	255	255	
255	255	255	
255	255	255	
255	255	255	
255	255	255	
255	255	255	
255	255	255	
255	255	255	
255	255	255	
255	255	255	
255	255	255	
255	255	255	
255	255	255	
255	255	255	
255	255	255	
255	255	255	
255	255	255	
255	255	255	
255	255	255	
255	255	255	
255	255	255	
255	255	255	
255	255	255	
255	255	255	
255	255	255	
255	255	255	
255	255	255	
255	255	255	
255	255	255	
255	255	255	
255	255	255	
255	255	255	
255	255	255	
255	255	255	
255	255	255	
255	255	255	
255	255	255	
255	255	255	
255	255	255	
255	255	255	
255	255	255	
255	255	255	
255	255	255	
255	255	255	
255	255	255	
255	255	255	
255	255	255	
255	255	255	
255	255	255	
255	255	255	
255	255	255	
255	255	255	
255	255	255	
255	255	255	
255	255	255	
255	255	255	
255	255	255	
255	255	255	
255	255	255	
255	255	255	
255	255	255	
255	255	255	
255	255	255	
255	255	255	
255	255	255	
255	255	255	
255	255	255	
255	255	255	
255	255	255	
255	255	255	
255	255	255	
255	255	255	
255	255	255	
255	255	255	
255	255	255	
255	255	255	
255	255	255	
255	255	255	
255	255	255	
255	255	255	
255	255	255	
255	255	255	
255	255	255	
255	255	255	
255	255	255	
255	255	255	
255	255	255	
255	255	255	
255	255	255	
255	255	255	
255	255	255	
255	255	255	
255	255	255	
255	255	255	
255	255	255	
255	255	255	
255	255	255	
255	255	255	
255	255	255	
255	255	255	
255	255	255	
255	255	255	
255	255	255	
255	255	255	
255	255	255	
255	255	255	
255	255	255	
255	255	255	
255	255	255	
255	255	255	
255	255	255	
255	255	255	
255	255	255	
255	255	255	
255	255	255	
255	255	255	
255	255	255	
255	255	255	
255	255	255	
255	255	255	
255	255	255	
255	255	255	
255	255	255	
255	255	255	
255	255	255	
255	255	255	
255	255	255	
255	255	255	
255	255	255	
255	255	255	
255	255	255	
255	255	255	
255	255	255	
255	255	255	
255	255	255	
255	255	255	
255	255	255	
255	255	255	
255	255	255	
255	255	255	
255	255	255	
255	255	255	
255	255	255	
255	255	255	
255	255	255	
255	255	255	
255	255	255	
255	255	255	
255	255	255	
255	255	255	
255	255	255	
255	255	255	
255	255	255	
255	255	255	
255	255	255	
255	255	255	
255	255	255	
255	255	255	
255	255	255	
255	255	255	
255	255	255	
255	255	255	
255	255	255	
255	255	255	
255	255	255	
255	255	255	
255	255	255	
255	255	255	
255	255	255	
255	255	255	
255	255	255	
255	255	255	
255	255	255	
255	255	255	
255	255	255	
255	255	255	
255	255	255	
255	255	255	
255	255	255	
255	255	255	
255	255	255	
255	255	255	
255	255	255	
255	255	255	
255	255	255	
255	255	255	
255	255	255	
255	255	255	
255	255	255	
255	255	255	
255	255	255	
255	255	255	
255	255	255	
255	255	255	
255	255	255	
255	255	255	
255	255	255	
255	255	255	
255	255	255	
255	255	255	
255	255	255	
255	255	255	
255	255	255	
255	255	255	
255	255	255	
255	255	255	
255	255	255	
255	255	255	
255	255	255	
255	255	255	
255	255	255	
255	255	255	
255	255	255	
255	255	255	
255	255	255	
255	255	255	
255	255	255	
255	255	255	
255	255	255	
255	255	255	
255	255	255	
255	255	255	
255	255	255	
255	255	255	
255	255	255	
255	255	255	
255	255	255	
255	255	255	
255	255	255	
255	255	255	
255	255	255	
255	255	255	
255	255	255	
255	255	255	
255	255	255	
255	255	255	
255	255	255	
255	255	255	
255	255	255	
255	255	255	
255	255	255	
255	255	255	
255	255	255	
255	255	255	
255	255	255	
255	255	255	
255	255	255	
255	255	255	
255	255	255	
255	255	255	
255	255	255	
255	255	255	
255	255	255	
255	255	255	
255	255	255	
255	255	255	
255	255	255	
255	255	255	
255	255	255	
255	255	255	
255	255	255	
255	255	255	
255	255	255	
255	255	255	
255	255	255	
255	255	255	
255	255	255	
255	255	255	
255	255	255	
255	255	255	
255	255	255	
255	255	255	
255	255	255	
255	255	255	
255	255	255	
255	255	255	
255	255	255	
255	255	255	
255	255	255	
255	255	255	
255	255	255	
255	255	255	
255	255	255	
255	255	255	
255	255	255	
255	255	255	
255	255	255	
255	255	255	
255	255	255	
255	255	255	
255	255	255	
255	255	255	
255	255	255	
255	255	255	
255	255	255	
255	255	255	
255	255	255	
255	255	255	
255	255	255	
255	255	255	
255	255	255	
255	255	255	
255	255	255	
255	255	255	
255	255	255	
255	255	255	
255	255	255	
255	255	255	
255	255	255	
255	255	255	
255	255	255	
255	255	255	
255	255	255	
255	255	255	
255	255	255	
255	255	255	
255	255	255	
255	255	255	
255	255	255	
255	255	255	
255	255	255	
255	255	255	
255	255	255	
255	255	255	
255	255	255	
255	255	255	
255	255	255	
255	255	255	
255	255	255	
255	255	255	
255	255	255	
255	255	255	
255	255	255	
255	255	255	
255	255	255	
255	255	255	
255	255	255	
255	255	255	
255	255	255	
255	255	255	
255	255	255	
255	255	255	
255	255	255	
255	255	255	
255	255	255	
255	255	255	
255	255	255	
255	255	255	
255	255	255	
255	255	255	
255	255	255	
255	255	255	
255	255	255	
255	255	255	
255	255	255	
255	255	255	
255	255	255	
255	255	255	
255	255	255	
255	255	255	
255	255	255	
255	255	255	
255	255	255	
255	255	255	
255	255	255	
255	255	255	
255	255	255	
255	255	255	
255	255	255	
255	255	255	
255	255	255	
255	255	255	
255	255	255	
255	255	255	
255	255	255	
255	255	255	
255	255	255	
255	255	255	
255	255	255	
255	255	255	
255	255	255	
255	255	255	
255	255	255	
255	255	255	
255	255	255	
255	255	255	
255	255	255	
255	255	255	
255	255	255	
255	255	255	
255	255	255	
255	255	255	
255	255	255	
255	255	255	
255	255	255	
255	255	255	
255	255	255	
255	255	255	
255	255	255	
255	255	255	
255	255	255	
255	255	255	
255	255	255	
255	255	255	
255	255	255	
255	255	255	
255	255	255	
255	255	255	
255	255	255	
255	255	255	
255	255	255	
255	255	255	
255	255	255	
255	255	255	
255	255	255	
255	255	255	
255	255	255	
255	255	255	
255	255	255	
255	255	255	
255	255	255	
255	255	255	
255	255	255	
255	255	255	
255	255	255	
255	255	255	
255	255	255	
255	255	255	
255	255	255	
255	255	255	
255	255	255	
255	255	255	
255	255	255	
255	255	255	
255	255	255	
255	255	255	
255	255	255	
255	255	255	
255	255	255	
255	255	255	
255	255	255	
255	255	255	
255	255	255	
255	255	255	
255	255	255	
255	255	255	
255	255	255	
255	255	255	
255	255	255	
255	255	255	
255	255	255	
255	255	255	
255	255	255	
255	255	255	
255	255	255	
255	255	255	
255	255	255	
255	255	255	
255	255	255	
255	255	255	
255	255	255	
255	255	255	
255	255	255	
255	255	255	
255	255	255	
255	255	255	
255	255	255	
255	255	255	
255	255	255	
255	255	255	
255	255	255	
255	255	255	
255	255	255	
255	255	255	
255	255	255	
255	255	255	
255	255	255	
255	255	255	
255	255	255	
255	255	255	
255	255	255	
255	255	255	
255	255	255	
255	255	255	
255	255	255	
255	255	255	
255	255	255	
255	255	255	
255	255	255	
255	255	255	
255	255	255	
255	255	255	
255	255	255	
255	255	255	
255	255	255	
255	255	255	
255	255	255	
255	255	255	
255	255	255	
255	255	255	
255	255	255	
255	255	255	
255	255	255	
255	255	255	
255	255	255	
255	255	255	
255	255	255	
255	255	255	
255	255	255	
255	255	255	
255	255	255	
255	255	255	
255	255	255	
255	255	255	
255	255	255	
255	255	255	
255	255	255	
255	255	255	
255	255	255	
255	255	255	
255	255	255	
255	255	255	
255	255	255	
255	255	255	
255	255	255	
255	255	255	
255	255	255	
255	255	255	
255	255	255	
255	255	255	
255	255	255	
255	255	255	
255	255	255	
255	255	255	
255	255	255	
255	255	255	
255	255	255	
255	255	255	
255	255	255	
255	255	255	
255	255	255	
255	255	255	
255	255	255	
255	255	255	
255	255	255	
255	255	255	
255	255	255	
255	255	255	
255	255	255	
255	255	255	
255	255	255	
255	255	255	
255	255	255	
255	255	255	
255	255	255	
255	255	255	
255	255	255	
255	255	255	
255	255	255	
255	255	255	
255	255	255	
255	255	255	
255	255	255	
255	255	255	
255	255	255	
255	255	255	
255	255	255	
255	255	255	
255	255	255	
255	255	255	
255	255	255	
255	255	255	
255	255	255	
255	255	255	
255	255	255	
255	255	255	
255	255	255	
255	255	255	
255	255	255	
255	255	255	
255	255	255	
255	255	255	
255	255	255	
255	255	255	
255	255	255	
255	255	255	
255	255	255	
255	255	255	
255	255	255	
255	255	255	
255	255	255	
255	255	255	
255	255	255	
255	255	255	
255	255	255	
255	255	255	
255	255	255	
255	255	255	
255	255	255	
255	255	255	
255	255	255	
255	255	255	
255	255	255	
255	255	255	
255	255	255	
255	255	255	
255	255	255	
255	255	255	
255	255	255	
255	255	255	
255	255	255	
255	255	255	
255	255	255	
255	255	255	
255	255	255	
255	255	255	
255	255	255	
255	255	255	
255	255	255	
255	255	255	
255	255	255	
255	255	255	
255	255	255	
255	255	255	
255	255	255	
255	255	255	
255	255	255	
255	255	255	
255	255	255	
255	255	255	
255	255	255	
255	255	255	
255	255	255	
255	255	255	
255	255	255	
255	255	255	
255	255	255	
255	255	255	
255	255	255	
255	255	255	
255	255	255	
255	255	255	
255	255	255	
255	255	255	
255	255	255	
255	255	255	
255	255	255	
255	255	255	
255	255	255	
255	255	255	
255	255	255	
255	255	255	
255	255	255	
255	255	255	
255	255	255	
255	255	255	
255	255	255	
255	255	255	
255	255	255	
255	255	255	
255	255	255	
255	255	255	
255	255	255	
255	255	255	
255	255	255	
255	255	255	
255	255	255	
255	255	255	
255	255	255	
255	255	255	
255	255	255	
255	255	255	
255	255	255	
255	255	255	
255	255	255	
255	255	255	
255	255	255	
255	255	255	
255	255	255	
255	255	255	
255	255	255	
255	255	255	
255	255	255	
255	255	255	
255	255	255	
255	255	255	
255	255	255	
255	255	255	
255	255	255	
255	255	255	
255	255	255	
255	255	255	
255	255	255	
255	255	255	
255	255	255	
255	255	255	
255	255	255	
255	255	255	
255	255	255	
255	255	255	
255	255	255	
255	255	255	
255	255	255	
255	255	255	
255	255	255	
255	255	255	
255	255	255	
255	255	255	
255	255	255	
255	255	255	
255	255	255	
255	255	255	
255	255	255	
255	255	255	
255	255	255	
255	255	255	
255	255	255	
255	255	255	
255	255	255	
255	255	255	
255	255	255	
255	255	255	
255	255	255	
255	255	255	
255	255	255	
255	255	255	
255	255	255	
255	255	255	
255	255	255	
255	255	255	
255	255	255	
255	255	255	
255	255	255	
255	255	255	
255	255	255	
255	255	255	
255	255	255	
255	255	255	
255	255	255	
255	255	255	
255	255	255	
255	255	255	
255	255	255	
255	255	255	
255	255	255	
255	255	255	
255	255	255	
255	255	255	
255	255	255	
255	255	255	
255	255	255	
255	255	255	
255	255	255	
255	255	255	
255	255	255	
255	255	255	
255	255	255	
255	255	255	
255	255	255	
255	255	255	
255	255	255	
255	255	255	
255	255	255	
255	255	255	
255	255	255	
255	255	255	
255	255	255	
255	255	255	
255	255	255	
255	255	255	
255	255	255	
255	255	255	
255	255	255	
255	255	255	
255	255	255	
255	255	255	
255	255	255	
255	255	255	
255	255	255	
255	255	255	
255	255	255	
255	255	255	
255	255	255	
255	255	255	
255	255	255	
255	255	255	
255	255	255	
255	255	255	
255	255	255	
255	255	255	
255	255	255	
255	255	255	
255	255	255	
255	255	255	
255	255	255	
255	255	255	
255	255	255	
255	255	255	
255	255	255	
255	255	255	
255	255	255	
255	255	255	
255	255	255	
255	255	255	
255	255	255	
255	255	255	
255	255	255	
255	255	255	
255	255	255	
255	255	255	
255	255	255	
255	255	255	
255	255	255	
255	255	255	
255	255	255	
255	255	255	
255	255	255	
255	255	255	
255	255	255	
255	255	255	
255	255	255	
255	255	255	
255	255	255	
255	255	255	
255	255	255	
255	255	255	
255	255	255	
255	255	255	
255	255	255	
255	255	255	
255	255	255	
255	255	255	
255	255	255	
255	255	255	
255	255	255	
255	255	255	
255	255	255	
255	255	255	
255	255	255	
255	255	255	
255	255	255	
255	255	255	
255	255	255	
255	255	255	
255	255	255	
255	255	255	
255	255	255	
255	255	255	
255	255	255	
255	255	255	
255	255	255	
255	255	255	
255	255	255	
255	255	255	
255	255	255	
255	255	255	
255	255	255	
255	255	255	
255	255	255	
255	255	255	
255	255	255	
255	255	255	
255	255	255	
255	255	255	
255	255	255	
255	255	255	
255	255	255	
255	255	255	
255	255	255	
255	255	255	
255	255	255	
255	255	255	
255	255	255	
255	255	255	
255	255	255	
255	255	255	
255	255	255	
255	255	255	
255	255	255	
255	255	255	
255	255	255	
255	255	255	
255	255	255	
255	255	255	
255	255	255	
255	255	255	
255	255	255	
255	255	255	
255	255	255	
255	255	255	
255	255	255	
255	255	255	
255	255	255	
255	255	255	
255	255	255	
255	255	255	
255	255	255	
255	255	255	
255	255	255	
255	255	255	
255	255	255	
255	255	255	
255	255	255	
255	255	255	
255	255	255	
255	255	255	
255	255	255	
255	255	255	
255	255	255	
255	255	255	
255	255	255	
255	255	255	
255	255	255	
255	255	255	
255	255	255	
255	255	255	
255	255	255	
255	255	255	
255	255	255	
255	255	255	
255	255	255	
255	255	255	
255	255	255	
255	255	255	
255	255	255	
255	255	255	
255	255	255	
255	255	255	
255	255	255	
255	255	255	
255	255	255	
255	255	255	
255	255	255	
255	255	255	
255	255	255	
255	255	255	
255	255	255	
255	255	255	
255	255	255	
255	255	255	
255	255	255	
255	255	255	
255	255	255	
255	255	255	
255	255	255	
255	255	255	
255	255	255	
255	255	255	
255	255	255	
255	255	255	
255	255	255	
255	255	255	
255	255	255	
255	255	255	
255	255	255	
255	255	255	
255	255	255	
255	255	255	
255	255	255	
255	255	255	
255	255	255	
255	255	255	
255	255	255	
255	255	255	
255	255	255	
255	255	255	
255	255	255	
255	255	255	
255	255	255	
255	255	255	
255	255	255	
255	255	255	
255	255	255	
255	255	255	
255	255	255	
255	255	255	
255	255	255	
255	255	255	
255	255	255	
255	255	255	
255	255	255	
255	255	255	
255	255	255	
255	255	255	
255	255	255	
255	255	255	
255	255	255	
255	255	255	
255	255	255	
255	255	255	
255	255	255	
255	255	255	
255	255	255	
255	255	255	
255	255	255	
255	255	255	
255	255	255	
255	255	255	
255	255	255	
255	255	255	
255	255	255	
255	255	255	
255	255	255	
255	255	255	
255	255	255	
255	255	255	
255	255	255	
255	255	255	
255	255	255	
255	255	255	
255	255	255	
255	255	255	
255	255	255	
255	255	255	
255	255	255	
255	255	255	
255	255	255	
255	255	255	
255	255	255	
255	255	255	
255	255	255	
255	255	255	
255	255	255	
255	255	255	
255	255	255	
255	255	255	
255	255	255	
255	255	255	
255	255	255	
255	255	255	
255	255	255	
255	255	255	
255	255	255	
255	255	255	
255	255	255	
255	255	255	
255	255	255	
255	255	255	
255	255	255	
255	255	255	
255	255	255	
255	255	255	
255	255	255	
255	255	255	
255	255	255	
255	255	255	
255	255	255	
255	255	255	
255	255	255	
255	255	255	
255	255	255	
255	255	255	
255	255	255	
255	255	255	
255	255	255	
255	255	255	
255	255	255	
255	255	255	
255	255	255	
255	255	255	
255	255	255	
255	255	255	
255	255	255	
255	255	255	
255	255	255	
255	255	255	
255	255	255	
255	255	255	
255	255	255	
255	255	255	
255	255	255	
255	255	255	
255	255	255	
255	255	255	
255	255	255	
255	255	255	
255	255	255	
255	255	255	
255	255	255	
255	255	255	
255	255	255	
255	255	255	
255	255	255	
255	255	255	
255	255	255	
255	255	255	
255	255	255	
255	255	255	
255	255	255	
255	255	255	
255	255	255	
255	255	255	
255	255	255	
255	255	255	
255	255	255	
255	255	255	
255	255	255	
255	255	255	
255	255	255	
255	255	255	
255	255	255	
255	255	255	
255	255	255	
255	255	255	
255	255	255	
255	255	255	
255	255	255	
255	255	255	
255	255	255	
255	255	255	
255	255	255	
255	255	255	
255	255	255	
255	255	255	
255	255	255	
255	255	255	
255	255	255	
255	255	255	
255	255	255	
255	255	255	
255	255	255	
255	255	255	
255	255	255	
255	255	255	
255	255	255	
255	255	255	
255	255	255	
255	255	255	
255	255	255	
255	255	255	
255	255	255	
255	255	255	
255	255	255	
255	255	255	
255	255	255	
255	255	255	
255	255	255	
255	255	255	
255	255	255	
255	255	255	
255	255	255	
255	255	255	
255	255	255	
255	255	255	
255	255	255	
255	255	255	
255	255	255	
255	255	255	
255	255	255	
255	255	255	
255	255	255	
255	255	255	
255	255	255	
255	255	255	
255	255	255	
255	255	255	
255	255	255	
255	255	255	
255	255	255	
255	255	255	
255	255	255	
255	255	255	
255	255	255	
255	255	255	
255	255	255	
255	255	255	
255	255	255	
255	255	255	
255	255	255	
255	255	255	
255	255	255	
255	255	255	
255	255	255	
255	255	255	
255	255	255	
255	255	255	
255	255	255	
255	255	255	
255	255	255	
255	255	255	
255	255	255	
255	255	255	
255	255	255	
255	255	255	
255	255	255	
255	255	255	
255	255	255	
255	255	255	
255	255	255	
255	255	255	
255	255	255	
255	255	255	
255	255	255	
255	255	255	
255	255	255	
255	255	255	
255	255	255	
255	255	255	
255	255	255	
255	255	255	
255	255	255	
255	255	255	
255	255	255	
255	255	255	
255	255	255	
255	255	255	
255	255	255	
255	255	255	
255	255	255	
255	255	255	
255	255	255	
255	255	255	
255	255	255	
255	255	255	
255	255	255	
255	255	255	
255	255	255	
255	255	255	
255	255	255	
255	255	255	
255	255	255	
255	255	255	
255	255	255	
255	255	255	
255	255	255	
255	255	255	
255	255	255	
255	255	255	
255	255	255	
255	255	255	
255	255	255	
255	255	255	
255	255	255	
255	255	255	
255	255	255	
255	255	255	
255	255	255	
255	255	255	
255	255	255	
255	255	255	
255	255	255	
255	255	255	
255	255	255	
255	255	255	
255	255	255	
255	255	255	
255	255	255	
255	255	255	
255	255	255	
255	255	255	
255	255	255	
255	255	255	
255	255	255	
255	255	255	
255	255	255	
255	255	255	
255	255	255	
255	255	255	
255	255	255	
255	255	255	
255	255	255	
255	255	255	
255	255	255	
255	255	255	
255	255	255	
255	255	255	
255	255	255	
255	255	255	
255	255	255	
255	255	255	
255	255	255	
255	255	255	
255	255	255	
255	255	255	
255	255	255	
255	255	255	
255	255	255	
255	255	255	
255	255	255	
255	255	255	
255	255	255	
255	255	255	
255	255	255	
255	255	255	
255	255	255	
255	255	255	
255	255	255	
255	255	255	
255	255	255	
255	255	255	
255	255	255	
255	255	255	
255	255	255	
255	255	255	
255	255	255	
255	255	255	
255	255	255	
255	255	255	
255	255	255	
255	255	255	
255	255	255	
255	255	255	
255	255	255	
255	255	255	
255	255	255	
255	255	255	
255	255	255	
255	255	255	
255	255	255	
255	255	255	
255	255	255	
255	255	255	
255	255	255	
255	255	255	
255	255	255	
255	255	255	
255	255	255	
255	255	255	
255	255	255	
255	255	255	
255	255	255	
255	255	255	
255	255	255	
255	255	255	
255	255	255	
255	255	255	
255	255	255	
255	255	255	
255	255	255	
255	255	255	
255	255	255	
255	255	255	
255	255	255	
255	255	255	
255	255	255	
255	255	255	
255	255	255	
255	255	255	
255	255	255	
255	255	255	
255	255	255	
255	255	255	
255	255	255	
255	255	255	
255	255	255	
255	255	255	
255	255	255	
255	255	255	
255	255	255	
255	255	255	
255	255	255	
255	255	255	
255	255	255	
255	255	255	
255	255	255	
255	255	255	
255	255	255	
255	255	255	
255	255	255	
255	255	255	
255	255	255	
255	255	255	
255	255	255	
255	255	255	
255	255	255	
255	255	255	
255	255	255	
255	255	255	
255	255	255	
255	255	255	
255	255	255	
255	255	255	
255	255	255	
255	255	255	
255	255	255	
255	255	255	
255	255	255	
255	255	255	
255	255	255	
255	255	255	
255	255	255	
255	255	255	
255	255	255	
255	255	255	
255	255	255	
255	255	255	
255	255	255	
255	255	255	
255	255	255	
255	255	255	
255	255	255	
255	255	255	
255	255	255	
255	255	255	
255	255	255	
255	255	255	
255	255	255	
255	255	255	
255	255	255	
255	255	255	
255	255	255	
255	255	255	
255	255	255	
255	255	255	
255	255	255	
255	255	255	
255	255	255	
255	255	255	
255	255	255	
255	255	255	
255	255	255	
255	255	255	
255	255	255	
255	255	255	
255	255	255	
255	255	255	
255	255	255	
255	255	255	
255	255	255	
255	255	255	
255	255	255	
255	255	255	
255	255	255	
255	255	255	
255	255	255	
255	255	255	
255	255	255	
255	255	255	
255	255	255	
255	255	255	
255	255	255	
255	255	255	
255	255	255	
255	255	255	
255	255	255	
255	255	255	
255	255	255	
255	255	255	
255	255	255	
255	255	255	
255	255	255	
255	255	255	
255	255	255	
255	255	255	
255	255	255	
255	255	255	
255	255	255	
255	255	255	
255	255	255	
255	255	255	
255	255	255	
255	255	255	
255	255	255	
255	255	255	
255	255	255	
255	255	255	
255	255	255	
255	255	255	
255	255	255	
255	255	255	
255	255	255	
255	255	255	
255	255	255	
255	255	255	
255	255	255	
255	255	255	
255	255	255	
255	255	255	
255	255	255	
255	255	255	
255	255	255	
255	255	255	
255	255	255	
255	255	255	
255	255	255	
255	255	255	
255	255	255	
255	255	255	
255	255	255	
255	255	255	
255	255	255	
255	255	255	
255	255	255	
255	255	255	
255	255	255	
255	255	255	
255	255	255	
255	255	255	
255	255	255	
255	255	255	
255	255	255	
255	255	255	
255	255	255	
255	255	255	
255	255	255	
255	255	255	
255	255	255	
255	255	255	
255	255	255	
255	255	255	
255	255	255	
255	255	255	
255	255	255	
255	255	255	
255	255	255	
255	255	255	
255	255	255	
255	255	255	
255	255	255	
255	255	255	
255	255	255	
255	255	255	
255	255	255	
255	255	255	
255	255	255	
255	255	255	
255	255	255	
255	255	255	
255	255	255	
255	255	255	
255	255	255	
255	255	255	
255	255	255	
255	255	255	
255	255	255	
255	255	255	
255	255	255	
255	255	255	
255	255	255	
255	255	255	
255	255	255	
255	255	255	
255	255	255	
255	255	255	
255	255	255	
255	255	255	
255	255	255	
255	255	255	
255	255	255	
255	255	255	
255	255	255	
255	255	255	
255	255	255	
255	255	255	
255	255	255	
255	255	255	
255	255	255	
255	255	255	
255	255	255	
255	255	255	
255	255	255	
255	255	255	
255	255	255	
255	255	255	
255	255	255	
255	255	255	
255	255	255	
255	255	255	
255	255	255	
255	255	255	
255	255	255	
255	255	255	
255	255	255	
255	255	255	
255	255	255	
255	255	255	
255	255	255	
255	255	255	
255	255	255	
255	255	255	
255	255	255	
255	255	255	
255	255	255	
255	255	255	
255	255	255	
255	255	255	
255	255	255	
255	255	255	
255	255	255	
255	255	255	
255	255	255	
255	255	255	
255	255	255	
255	255	255	
255	255	255	
255	255	255	
255	255	255	
255	255	255	
255	255	255	
255	255	255	
255	255	255	
255	255	255	
255	255	255	
255	255	255	
255	255	255	
255	255	255	
255	255	255	
255	255	255	
255	255	255	
255	255	255	
255	255	255	
255	255	255	
255	255	255	
255	255	255	
255	255	255	
255	255	255	
255	255	255	
255	255	255	
255	255	255	
255	255	255	
255	255	255	
255	255	255	
255	255	255	
255	255	255	
255	255	255	
255	255	255	
255	255	255	
255	255	255	
255	255	255	
255	255	255	
255	255	255	
255	255	255	
255	255	255	
255	255	255	
255	255	255	
255	255	255	
255	255	255	
255	255	255	
255	255	255	
255	255	255	
255	255	255	
255	255	255	
255	255	255	
255	255	255	
255	255	255	
255	255	255	
255	255	255	
255	255	255	
255	255	255	
255	255	255	
255	255	255	
255	255	255	
255	255	255	
255	255	255	
255	255	255	
255	255	255	
255	255	255	
255	255	255	
255	255	255	
255	255	255	
255	255	255	
255	255	255	
255	255	255	
255	255	255	
255	255	255	
255	255	255	
255	255	255	
255	255	255	
255	255	255	
255	255	255	
255	255	255	
255	255	255	
255	255	255	
255	255	255	
255	255	255	
255	255	255	
255	255	255	
255	255	255	
255	255	255	
255	255	255	
255	255	255	
255	255	255	
255	255	255	
255	255	255	
255	255	255	
255	255	255	
255	255	255	
255	255	255	
255	255	255	
255	255	255	
255	255	255	
255	255	255	
255	255	255	
255	255	255	
255	255	255	
255	255	255	
255	255	255	
255	255	255	
255	255	255	
255	255	255	
255	255	255	
255	255	255	
255	255	255	
255	255	255	
255	255	255	
255	255	255	
255	255	255	
255	255	255	
255	255	255	
255	255	255	
255	255	255	
255	255	255	
255	255	255	
255	255	255	
255	255	255	
255	255	255	
255	255	255	
255	255	255	
255	255	255	
255	255	255	
255	255	255	
255	255	255	
255	255	255	
255	255	255	
255	255	255	
255	255	255	
255	255	255	
255	255	255	
255	255	255	
255	255	255	
255	255	255	
255	255	255	
255	255	255	
255	255	255	
255	255	255	
255	255	255	
255	255	255	
255	255	255	
255	255	255	
255	255	255	
255	255	255	
255	255	255	
255	255	255	
255	255	255	
255	255	255	
255	255	255	
255	255	255	
255	255	255	
255	255	255	
255	255	255	
255	255	255	
255	255	255	
255	255	255	
255	255	255	
255	255	255	
255	255	255	
255	255	255	
255	255	255	
255	255	255	
255	255	255	
255	255	255	
255	255	255	
255	255	255	
255	255	255	
255	255	255	
255	255	255	
255	255	255	
255	255	255	
255	255	255	
255	255	255	
255	255	255	
255	255	255	
255	255	255	
255	255	255	
255	255	255	
255	255	255	
255	255	255	
255	255	255	
255	255	255	
255	255	255	
255	255	255	
255	255	255	
255	255	255	
255	255	255	
255	255	255	
255	255	255	
255	255	255	
255	255	255	
255	255	255	
255	255	255	
255	255	255	
255	255	255	
255	255	255	
255	255	255	
255	255	255	
255	255	255	
255	255	255	
255	255	255	
255	255	255	
255	255	255	
255	255	255	
255	255	255	
255	255	255	
255	255	255	
255	255	255	
255	255	255	
255	255	255	
255	255	255	
255	255	255	
255	255	255	
255	255	255	
255	255	255	
255	255	255	
255	255	255	
255	255	255	
255	255	255	
255	255	255	
255	255	255	
255	255	255	
255	255	255	
255	255	255	
255	255	255	
255	255	255	
255	255	255	
255	255	255	
255	255	255	
255	255	255	
255	255	255	
255	255	255	
255	255	255	
255	255	255	
255	255	255	
255	255	255	
255	255	255	
255	255	255	
255	255	255	
255	255	255	
255	255	255	
255	255	255	
255	255	255	
255	255	255	
255	255	255	
255	255	255	
255	255	255	
255	255	255	
255	255	255	
255	255	255	
255	255	255	
255	255	255	
255	255	255	
255	255	255	
255	255	255	
255	255	255	
255	255	255	
255	255	255	
255	255	255	
255	255	255	
255	255	255	
255	255	255	
255	255	255	
255	255	255	
255	255	255	
255	255	255	
255	255	255	
255	255	255	
255	255	255	
255	255	255	
255	255	255	
255	255	255	
255	255	255	
255	255	255	
255	255	255	
255	255	255	
255	255	255	
255	255	255	
255	255	255	
255	255	255	
255	255	255	
255	255	255	
255	255	255	
255	255	255	
255	255	255	
255	255	255	
255	255	255	
255	255	255	
255	255	255	
255	255	255	
255	255	255	
255	255	255	
255	255	255	
255	255	255	
255	255	255	
255	255	255	
255	255	255	
255	255	255	
255	255	255	
255	255	255	
255	255	255	
255	255	255	
255	255	255	
255	255	255	
255	255	255	
255	255	255	
255	255	255	
255	255	255	
255	255	255	
255	255	255	
255	255	255	
255	255	255	
255	255	255	
255	255	255	
255	255	255	
255	255	255	
255	255	255	
255	255	255	
255	255	255	
255	255	255	
255	255	255	
255	255	255	
255	255	255	
255	255	255	
255	255	255	
255	255	255	
255	255	255	
255	255	255	
255	255	255	
255	255	255	
255	255	255	
255	255	255	
255	255	255	
255	255	255	
255	255	255	
255	255	255	
255	255	255	
255	255	255	
255	255	255	
255	255	255	
255	255	255	
255	255	255	
255	255	255	
255	255	255	
255	255	255	
255	255	255	
255	255	255	
255	255	255	
255	255	255	
255	255	255	
255	255	255	
255	255	255	
255	255	255	
255	255	255	
255	255	255	
255	255	255	
255	255	255	
255	255	255	
255	255	255	
255	255	255	
255	255	255	
255	255	255	
255	255	255	
255	255	255	
255	255	255	
255	255	255	
255	255	255	
255	255	255	
255	255	255	
255	255	255	
255	255	255	
255	255	255	
255	255	255	
255	255	255	
255	255	255	
255	255	255	
255	255	255	
255	255	255	
255	255	255	
255	255	255	
255	255	255	
255	255	255	
255	255	255	
255	255	255	
255	255	255	
255	255	255	
255	255	255	
255	255	255	
255	255	255	
255	255	255	
255	255	255	
255	255	255	
255	255	255	
255	255	255	
255	255	255	
255	255	255	
255	255	255	
255	255	255	
255	255	255	
255	255	255	
255	255	255	
255	255	255	
255	255	255	
255	255	255	
255	255	255	
255	255	255	
255	255	255	
255	255	255	
255	255	255	
255	255	255	
255	255	255	
255	255	255	
255	255	255	
255	255	255	
255	255	255	
255	255	255	
255	255	255	
255	255	255	
255	255	255	
255	255	255	
255	255	255	
255	255	255	
255	255	255	
255	255	255	
255	255	255	
255	255	255	
255	255	255	
255	255	255	
255	255	255	
255	255	255	
255	255	255	
255	255	255	
255	255	255	
255	255	255	
255	255	255	
255	255	255	
255	255	255	
255	255	255	
255	255	255	
255	255	255	
255	255	255	
255	255	255	
255	255	255	
255	255	255	
255	255	255	
255	255	255	
255	255	255	
255	255	255	
255	255	255	
255	255	255	
255	255	255	
255	255	255	
255	255	255	
255	255	255	
255	255	255	
255	255	255	
255	255	255	
255	255	255	
255	255	255	
255	255	255	
255	255	255	
255	255	255	
255	255	255	
255	255	255	
255	255	255	
255	255	255	
255	255	255	
255	255	255	
255	255	255	
255	255	255	
255	255	255	
255	255	255	
255	255	255	
255	255	255	
255	255	255	
255	255	255	
255	255	255	
255	255	255	
255	255	255	
255	255	255	
255	255	255	
255	255	255	
255	255	255	
255	255	255	
255	255	255	
255	255	255	
255	255	255	
255	255	255	
255	255	255	
255	255	255	
255	255	255	
255	255	255	
255	255	255	
255	255	255	
255	255	255	
255	255	255	
255	255	255	
255	255	255	
255	255	255	
255	255	255	
255	255	255	
255	255	255	
255	255	255	
255	255	255	
255	255	255	
255	255	255	
255	255	255	
255	255	255	
255	255	255	
255	255	255	
255	255	255	
255	255	255	
255	255	255	
255	255	255	
255	255	255	
255	255	255	
255	255	255	
255	255	255	
255	255	255	
255	255	255	
255	255	255	
255	255	255	
255	255	255	
255	255	255	
255	255	255	
255	255	255	
255	255	255	
255	255	255	
255	255	255	
255	255	255	
255	255	255	
255	255	255	
255	255	255	
255	255	255	
255	255	255	
255	255	255	
255	255	255	
255	255	255	
255	255	255	
255	255	255	
255	255	255	
255	255	255	
255	255	255	
255	255	255	
255	255	255	
255	255	255	
255	255	255	
255	255	255	
255	255	255	
255	255	255	
255	255	255	
255	255	255	
255	255	255	
255	255	255	
255	255	255	
255	255	255	
255	255	255	
255	255	255	
255	255	255	
255	255	255	
255	255	255	
255	255	255	
255	255	255	
255	255	255	
255	255	255	
255	255	255	
255	255	255	
255	255	255	
255	255	255	
255	255	255	
255	255	255	
255	255	255	
255	255	255	
255	255	255	
255	255	255	
255	255	255	
255	255	255	
255	255	255	
255	255	255	
255	255	255	
255	255	255	
255	255	255	
255	255	255	
255	255	255	
255	255	255	
255	255	255	
255	255	255	
255	255	255	
255	255	255	
255	255	255	
255	255	255	
255	255	255	
255	255	255	
255	255	255	
255	255	255	
255	255	255	
255	255	255	
255	255	255	
255	255	255	
255	255	255	
255	255	255	
255	255	255	
255	255	255	
255	255	255	
255	255	255	
255	255	255	
255	255	255	
255	255	255	
255	255	255	
255	255	255	
255	255	255	
255	255	255	
255	255	255	
255	255	255	
255	255	255	
255	255	255	
255	255	255	
255	255	255	
255	255	255	
255	255	255	
255	255	255	
255	255	255	
255	255	255	
255	255	255	
255	255	255	
255	255	255	
255	255	255	
255	255	255	
255	255	255	
255	255	255	
255	255	255	
255	255	255	
255	255	255	
255	255	255	
255	255	255	
255	255	255	
255	255	255	
255	255	255	
255	255	255	
255	255	255	
255	255	255	
255	255	255	
255	255	255	
255	255	255	
255	255	255	
255	255	255	
255	255	255	
255	255	255	
255	255	255	
255	255	255	
255	255	255	
255	255	255	
255	255	255	
255	255	255	
255	255	255	
255	255	255	
255	255	255	
255	255	255	
255	255	255	
255	255	255	
255	255	255	
255	255	255	
255	255	255	
255	255	255	
255	255	255	
255	255	255	
255	255	255	
255	255	255	
255	255	255	
255	255	255	
255	255	255	
255	255	255	
255	255	255	
255	255	255	
255	255	255	
255	255	255	
255	255	255	
255	255	255	
255	255	255	
255	255	255	
255	255	255	
255	255	255	
255	255	255	
255	255	255	
255	255	255	
255	255	255	
255	255	255	
255	255	255	
255	255	255	
255	255	255	
255	255	255	
255	255	255	
255	255	255	
255	255	255	
255	255	255	
255	255	255	
255	255	255	
255	255	255	
255	255	255	
255	255	255	
255	255	255	
255	255	255	
255	255	255	
255	255	255	
255	255	255	
255	255	255	
255	255	255	
255	255	255	
255	255	255	
255	255	255	
255	255	255	
255	255	255	
255	255	255	
255	255	255	
255	255	255	
255	255	255	
255	255	255	
255	255	255	
255	255	255	
255	255	255	
255	255	255	
255	255	255	
255	255	255	
255	255	255	
255	255	255	
255	255	255	
255	255	255	
255	255	255	
255	255	255	
255	255	255	
255	255	255	
255	255	255	
255	255	255	
255	255	255	
255	255	255	
255	255	255	
255	255	255	
255	255	255	
255	255	255	
255	255	255	
255	255	255	
255	255	255	
255	255	255	
255	255	255	
255	255	255	
255	255	255	
255	255	255	
255	255	255	
255	255	255	
255	255	255	
255	255	255	
255	255	255	
255	255	255	
255	255	255	
255	255	255	
255	255	255	
255	255	255	
255	255	255	
255	255	255	
255	255	255	
255	255	255	
255	255	255	
255	255	255	
255	255	255	
255	255	255	
255	255	255	
255	255	255	
255	255	255	
255	255	255	
255	255	255	
255	255	255	
255	255	255	
255	255	255	
255	255	255	
255	255	255	
255	255	255	
255	255	255	
255	255	255	
255	255	255	
255	255	255	
255	255	255	
255	255	255	
255	255	255	
255	255	255	
255	255	255	
255	255	255	
255	255	255	
255	255	255	
255	255	255	
255	255	255	
255	255	255	
255	255	255	
255	255	255	
255	255	255	
255	255	255	
255	255	255	
255	255	255	
255	255	255	
255	255	255	
255	255	255	
255	255	255	
255	255	255	
255	255	255	
255	255	255	
255	255	255	
255	255	255	
255	255	255	
255	255	255	
255	255	255	
255	255	255	
255	255	255	
255	255	255	
255	255	255	
255	255	255	
255	255	255	
255	255	255	
255	255	255	
255	255	255	
255	255	255	
255	255	255	
255	255	255	
255	255	255	
255	255	255	
255	255	255	
255	255	255	
255	255	255	
255	255	255	
255	255	255	
255	255	255	
255	255	255	
255	255	255	
255	255	255	
255	255	255	
255	255	255	
255	255	255	
255	255	255	
255	255	255	
255	255	255	
255	255	255	
255	255	255	
255	255	255	
255	255	255	
255	255	255	
255	255	255	
255	255	255	
255	255	255	
255	255	255	
255	255	255	
255	255	255	
255	255	255	
255	255	255	
255	255	255	
255	255	255	
255	255	255	
255	255	255	
255	255	255	
255	255	255	
255	255	255	
255	255	255	
255	255	255	
255	255	255	
255	255	255	
255	255	255	
255	255	255	
255	255	255	
255	255	255	
255	255	255	
255	255	255	
255	255	255	
255	255	255	
255	255	255	
255	255	255	
255	255	255	
255	255	255	
255	255	255	
255	255	255	
255	255	255	
255	255	255	
255	255	255	
255	255	255	
255	255	255	
255	255	255	
255	255	255	
255	255	255	
255	255	255	
255	255	255	
255	255	255	
255	255	255	
255	255	255	
255	255	255	
255	255	255	
255	255	255	
255	255	255	
255	255	255	
255	255	255	
255	255	255	
255	255	255	
255	255	255	
255	255	255	
255	255	255	
255	255	255	
255	255	255	
255	255	255	
255	255	255	
255	255	255	
255	255	255	
255	255	255	
255	255	255	
255	255	255	
255	255	255	
255	255	255	
255	255	255	
255	255	255	
255	255	255	
255	255	255	
255	255	255	
255	255	255	
255	255	255	
255	255	255	
255	255	255	
255	255	255	
255	255	255	
255	255	255	
255	255	255	
255	255	255	
255	255	255	
255	255	255	
255	255	255	
255	255	255	
255	255	255	
255	255	255	
255	255	255	
255	255	255	
255	255	255	
255	255	255	
255	255	255	
255	255	255	
255	255	255	
255	255	255	
255	255	255	
255	255	255	
255	255	255	
255	255	255	
255	255	255	
255	255	255	
255	255	255	
255	255	255	
255	255	255	
255	255	255	
255	255	255	
255	255	255	
255	255	255	
255	255	255	
255	255	255	
255	255	255	
255	255	255	
255	255	255	
255	255	255	
255	255	255	
255	255	255	
255	255	255	
255	255	255	
255	255	255	
255	255	255	
255	255	255	
255	255	255	
255	255	255	
255	255	255	
255	255	255	
255	255	255	
255	255	255	
255	255	255	
255	255	255	
255	255	255	
255	255	255	
255	255	255	
255	255	255	
255	255	255	
255	255	255	
255	255	255	
255	255	255	
255	255	255	
255	255	255	
255	255	255	
255	255	255	
255	255	255	
255	255	255	
255	255	255	
255	255	255	
255	255	255	
255	255	255	
255	255	255	
255	255	255	
255	255	255	
255	255	255	
255	255	255	
255	255	255	
255	255	255	
255	255	255	
255	255	255	
255	255	255	
255	255	255	
255	255	255	
255	255	255	
255	255	255	
255	255	255	
255	255	255	
255	255	255	
255	255	255	
255	255	255	
255	255	255	
255	255	255	
255	255	255	
255	255	255	
255	255	255	
255	255	255	
255	255	255	
255	255	255	
255	255	255	
255	255	255	
255	255	255	
255	255	255	
255	255	255	
255	255	255	
255	255	255	
255	255	255	
255	255	255	
255	255	255	
255	255	255	
255	255	255	
255	255	255	
255	255	255	
255	255	255	
255	255	255	
255	255	255	
255	255	255	
255	255	255	
255	255	255	
255	255	255	
255	255	255	
255	255	255	
255	255	255	
255	255	255	
255	255	255	
255	255	255	
255	255	255	
255	255	255	
255	255	255	
255	255	255	
255	255	255	
255	255	255	
255	255	255	
255	255	255	
255	255	255	
255	255	255	
255	255	255	
255	255	255	
255	255	255	
255	255	255	
255	255	255	
255	255	255	
255	255	255	
255	255	255	
255	255	255	
255	255	255	
255	255	255	
255	255	255	
255	255	255	
255	255	255	
255	255	255	
255	255	255	
255	255	255	
255	255	255	
255	255	255	
255	255	255	
255	255	255	
255	255	255	
255	255	255	
255	255	255	
255	255	255	
255	255	255	
255	255	255	
255	255	255	
255	255	255	
255	255	255	
255	255	255	
255	255	255	
255	255	255	
255	255	255	
255	255	255	
255	255	255	
255	255	255	
255	255	255	
255	255	255	
255	255	255	
255	255	255	
255	255	255	
255	255	255	
255	255	255	
255	255	255	
255	255	255	
255	255	255	
255	255	255	
255	255	255	
255	255	255	
255	255	255	
255	255	255	
255	255	255	
255	255	255	
255	255	255	
255	255	255	
255	255	255	
255	255	255	
255	255	255	
255	255	255	
255	255	255	
255	255	255	
255	255	255	
255	255	255	
255	255	255	
255	255	255	
255	255	255	
255	255	255	
255	255	255	
255	255	255	
255	255	255	
255	255	255	
255	255	255	
255	255	255	
255	255	255	
255	255	255	
255	255	255	
255	255	255	
255	255	255	
255	255	255	
255	255	255	
255	255	255	
255	255	255	
255	255	255	
255	255	255	
255	255	255	
255	255	255	
255	255	255	
255	255	255	
255	255	255	
255	255	255	
255	255	255	
255	255	255	
255	255	255	
255	255	255	
255	255	255	
255	255	255	
255	255	255	
255	255	255	
255	255	255	
255	255	255	
255	255	255	
255	255	255	
255	255	255	
255	255	255	
255	255	255	
255	255	255	
255	255	255	
255	255	255	
255	255	255	
255	255	255	
255	255	255	
255	255	255	
255	255	255	
255	255	255	
255	255	255	
255	255	255	
255	255	255	
255	255	255	
255	255	255	
255	255	255	
255	255	255	
255	255	255	
255	255	255	
255	255	255	
255	255	255	
255	255	255	
255	255	255	
255	255	255	
255	255	255	
255	255	255	
255	255	255	
255	255	255	
255	255	255	
255	255	255	
255	255	255	
255	255	255	
255	255	255	
255	255	255	
255	255	255	
255	255	255	
255	255	255	
255	255	255	
255	255	255	
255	255	255	
255	255	255	
255	255	255	
255	255	255	
255	255	255	
255	255	255	
255	255	255	
255	255	255	
255	255	255	
255	255	255	
255	255	255	
255	255	255	
255	255	255	
255	255	255	
255	255	255	
255	255	255	
255	255	255	
255	255	255	
255	255	255	
255	255	255	
255	255	255	
255	255	255	
255	255	255	
255	255	255	
255	255	255	
255	255	255	
255	255	255	
255	255	255	
255	255	255	
255	255	255	
255	255	255	
255	255	255	
255	255	255	
255	255	255	
255	255	255	
255	255	255	
255	255	255	
255	255	255	
255	255	255	
255	255	255	
255	255	255	
255	255	255	
255	255	255	
255	255	255	
255	255	255	
255	255	255	
255	255	255	
255	255	255	
255	255	255	
255	255	255	
255	255	255	
255	255	255	
255	255	255	
255	255	255	
255	255	255	
255	255	255	
255	255	255	
255	255	255	
255	255	255	
255	255	255	
255	255	255	
255	255	255	
255	255	255	
255	255	255	
255	255	255	
255	255	255	
255	255	255	
255	255	255	
255	255	255	
255	255	255	
255	255	255	
255	255	255	
255	255	255	
255	255	255	
255	255	255	
255	255	255	
255	255	255	
255	255	255	
255	255	255	
255	255	255	
255	255	255	
255	255	255	
255	255	255	
255	255	255	
255	255	255	
255	255	255	
255	255	255	
255	255	255	
255	255	255	
255	255	255	
255	255	255	
255	255	255	
255	255	255	
255	255	255	
255	255	255	
255	255	255	
255	255	255	
255	255	255	
255	255	255	
255	255	255	
255	255	255	
255	255	255	
255	255	255	
255	255	255	
255	255	255	
255	255	255	
255	255	255	
255	255	255	
255	255	255	
255	255	255	
255	255	255	
255	255	255	
255	255	255	
255	255	255	
255	255	255	
255	255	255	
255	255	255	
255	255	255	
255	255	255	
255	255	255	
255	255	255	
255	255	255	
255	255	255	
255	255	255	
255	255	255	
255	255	255	
255	255	255	
255	255	255	
255	255	255	
255	255	255	
255	255	255	
255	255	255	
255	255	255	
255	255	255	
255	255	255	
255	255	255	
255	255	255	
255	255	255	
255	255	255	
255	255	255	
255	255	255	
255	255	255	
255	255	255	
255	255	255	
255	255	255	
255	255	255	
255	255	255	
255	255	255	
255	255	255	
255	255	255	
255	255	255	
255	255	255	
255	255	255	
255	255	255	
255	255	255	
255	255	255	
255	255	255	
255	255	255	
255	255	255	
255	255	255	
255	255	255	
255	255	255	
255	255	255	
255	255	255	
255	255	255	
255	255	255	
255	255	255	
255	255	255	
255	255	255	
255	255	255	
255	255	255	
255	255	255	
255	255	255	
255	255	255	
255	255	255	
255	255	255	
255	255	255	
255	255	255	
255	255	255	
255	255	255	
255	255	255	
255	255	255	
255	255	255	
255	255	255	
255	255	255	
255	255	255	
255	255	255	
255	255	255	
255	255	255	
255	255	255	
255	255	255	
255	255	255	
255	255	255	
255	255	255	
255	255	255	
255	255	255	
255	255	255	
255	255	255	
255	255	255	
255	255	255	
255	255	255	
255	255	255	
255	255	255	
255	255	255	
255	255	255	
255	255	255	
255	255	255	
255	255	255	
255	255	255	
255	255	255	
255	255	255	
255	255	255	
255	255	255	
255	255	255	
255	255	255	
255	255	255	
255	255	255	
255	255	255	
255	255	255	
255	255	255	
255	255	255	
255	255	255	
255	255	255	
255	255	255	
255	255	255	
255	255	255	
255	255	255	
255	255	255	
255	255	255	
255	255	255	
255	255	255	
255	255	255	
255	255	255	
255	255	255	
255	255	255	
255	255	255	
255	255	255	
255	255	255	
255	255	255	
255	255	255	
255	255	255	
255	255	255	
255	255	255	
255	255	255	
255	255	255	
255	255	255	
255	255	255	
255	255	255	
255	255	255	
255	255	255	
255	255	255	
255	255	255	
255	255	255	
255	255	255	
255	255	255	
255	255	255	
255	255	255	
255	255	255	
255	255	255	
255	255	255	
255	255	255	
255	255	255	
255	255	255	
255	255	255	
255	255	255	
255	255	255	
255	255	255	
255	255	255	
255	255	255	
255	255	255	
255	255	255	
255	255	255	
255	255	255	
255	255	255	
255	255	255	
255	255	255	
255	255	255	
255	255	255	
255	255	255	
255	255	255	
255	255	255	
255	255	255	
255	255	255	
255	255	255	
255	255	255	
255	255	255	
255	255	255	
255	255	255	
255	255	255	
255	255	255	
255	255	255	
255	255	255	
255	255	255	
255	255	255	
255	255	255	
255	255	255	
255	255	255	
255	255	255	
255	255	255	
255	255	255	
255	255	255	
255	255	255	
255	255	255	
255	255	255	
255	255	255	
255	255	255	
255	255	255	
255	255	255	
255	255	255	
255	255	255	
255	255	255	
255	255	255	
255	255	255	
255	255	255	
255	255	255	
255	255	255	
255	255	255	
255	255	255	
255	255	255	
255	255	255	
255	255	255	
255	255	255	
255	255	255	
255	255	255	
255	255	255	
255	255	255	
255	255	255	
255	255	255	
255	255	255	
255	255	255	
255	255	255	
255	255	255	
255	255	255	
255	255	255	
255	255	255	
255	255	255	
255	255	255	
255	255	255	
255	255	255	
255	255	255	
255	255	255	
255	255	255	
255	255	255	
255	255	255	
255	255	255	
255	255	255	
255	255	255	
255	255	255	
255	255	255	
255	255	255	
255	255	255	
255	255	255	
255	255	255	
255	255	255	
255	255	255	
255	255	255	
255	255	255	
255	255	255	
255	255	255	
255	255	255	
255	255	255	
255	255	255	
255	255	255	
255	255	255	
255	255	255	
255	255	255	
255	255	255	
255	255	255	
255	255	255	
255	255	255	
255	255	255	
255	255	255	
255	255	255	
255	255	255	
255	255	255	
255	255	255	
255	255	255	
255	255	255	
255	255	255	
255	255	255	
255	255	255	
255	255	255	
255	255	255	
255	255	255	
255	255	255	
255	255	255	
255	255	255	
255	255	255	
255	255	255	
255	255	255	
255	255	255	
255	255	255	
255	255	255	
255	255	255	
255	255	255	
255	255	255	
255	255	255	
255	255	255	
255	255	255	
255	255	255	
255	255	255	
255	255	255	
255	255	255	
255	255	255	
255	255	255	
255	255	255	
255	255	255	
255	255	255	
255	255	255	
255	255	255	
255	255	255	
255	255	255	
255	255	255	
255	255	255	
255	255	255	
255	255	255	
255	255	255	
255	255	255	
255	255	255	
255	255	255	
255	255	255	
255	255	255	
255	255	255	
255	255	255	
255	255	255	
255	255	255	
255	255	255	
255	255	255	
255	255	255	
255	255	255	
255	255	255	
255	255	255	
255	255	255	
255	255	255	
255	255	255	
255	255	255	
255	255	255	
255	255	255	
255	255	255	
255	255	255	
255	255	255	
255	255	255	
255	255	255	
255	255	255	
255	255	255	
255	255	255	
255	255	255	
255	255	255	
255	255	255	
255	255	255	
255	255	255	
255	255	255	
255	255	255	
255	255	255	
255	255	255	
255	255	255	
255	255	255	
255	255	255	
255	255	255	
255	255	255	
255	255	255	
255	255	255	
255	255	255	
255	255	255	
255	255	255	
255	255	255	
255	255	255	
255	255	255	
255	255	255	
255	255	255	
255	255	255	
255	255	255	
255	255	255	
255	255	255	
255	255	255	
255	255	255	
255	255	255	
255	255	255	
255	255	255	
255	255	255	
255	255	255	
255	255	255	
255	255	255	
255	255	255	
255	255	255	
255	255	255	
255	255	255	
255	255	255	
255	255	255	
255	255	255	
255	255	255	
255	255	255	
255	255	255	
255	255	255	
255	255	255	
255	255	255	
255	255	255	
255	255	255	
255	255	255	
255	255	255	
255	255	255	
255	255	255	
255	255	255	
255	255	255	
255	255	255	
255	255	255	
255	255	255	
255	255	255	
255	255	255	
255	255	255	
255	255	255	
255	255	255	
255	255	255	
255	255	255	
255	255	255	
255	255	255	
255	255	255	
255	255	255	
255	255	255	
255	255	255	
255	255	255	
255	255	255	
255	255	255	
255	255	255	
255	255	255	
255	255	255	
255	255	255	
255	255	255	
255	255	255	
255	255	255	
255	255	255	
255	255	255	
255	255	255	
255	255	255	
255	255	255	
255	255	255	
255	255	255	
255	255	255	
255	255	255	
255	255	255	
255	255	255	
255	255	255	
255	255	255	
255	255	255	
255	255	255	
255	255	255	
255	255	255	
255	255	255	
255	255	255	
255	255	255	
255	255	255	
255	255	255	
255	255	255	
255	255	255	
255	255	255	
255	255	255	
255	255	255	
255	255	255	
255	255	255	
255	255	255	
255	255	255	
255	255	255	
255	255	255	
255	255	255	
255	255	255	
255	255	255	
255	255	255	
255	255	255	
255	255	255	
255	255	255	
255	255	255	
255	255	255	
255	255	255	
255	255	255	
255	255	255	
255	255	255	
255	255	255	
255	255	255	
255	255	255	
255	255	255	
255	255	255	
255	255	255	
255	255	255	
255	255	255	
255	255	255	
255	255	255	
255	255	255	
255	255	255	
255	255	255	
255	255	255	
255	255	255	
255	255	255	
255	255	255	
255	255	255	
255	255	255	
255	255	255	
255	255	255	
255	255	255	
255	255	255	
255	255	255	
255	255	255	
255	255	255	
255	255	255	
255	255	255	
255	255	255	
255	255	255	
255	255	255	
255	255	255	
255	255	255	
255	255	255	
255	255	255	
255	255	255	
255	255	255	
255	255	255	
255	255	255	
255	255	255	
255	255	255	
255	255	255	
255	255	255	
255	255	255	
255	255	255	
255	255	255	
255	255	255	
255	255	255	
255	255	255	
255	255	255	
255	255	255	
255	255	255	
255	255	255	
255	255	255	
255	255	255	
255	255	255	
255	255	255	
255	255	255	
255	255	255	
255	255	255	
255	255	255	
255	255	255	
255	255	255	
255	255	255	
255	255	255	
255	255	255	
255	255	255	
255	255	255	
255	255	255	
255	255	255	
255	255	255	
255	255	255	
255	255	255	
255	255	255	
255	255	255	
255	255	255	
255	255	255	
255	255	255	
255	255	255	
255	255	255	
255	255	255	
255	255	255	
255	255	255	
255	255	255	
255	255	255	
255	255	255	
255	255	255	
255	255	255	
255	255	255	
255	255	255	
255	255	255	
255	255	255	
255	255	255	
255	255	255	
255	255	255	
255	255	255	
255	255	255	
255	255	255	
255	255	255	
255	255	255	
255	255	255	
255	255	255	
255	255	255	
255	255	255	
255	255	255	
255	255	255	
255	255	255	
255	255	255	
255	255	255	
255	255	255	
255	255	255	
255	255	255	
255	255	255	
255	255	255	
255	255	255	
255	255	255	
255	255	255	
255	255	255	
255	255	255	
255	255	255	
255	255	255	
255	255	255	
255	255	255	
255	255	255	
255	255	255	
255	255	255	
255	255	255	
255	255	255	
255	255	255	
255	255	255	
255	255	255	
255	255	255	
255	255	255	
255	255	255	
255	255	255	
255	255	255	
255	255	255	
255	255	255	
255	255	255	
255	255	255	
255	255	255	
255	255	255	
255	255	255	
255	255	255	
255	255	255	
255	255	255	
255	255	255	
255	255	255	
255	255	255	
255	255	255	
255	255	255	
255	255	255	
255	255	255	
255	255	255	
255	255	255	
255	255	255	
255	255	255	
255	255	255	
255	255	255	
255	255	255	
255	255	255	
255	255	255	
255	255	255	
255	255	255	
255	255	255	
255	255	255	
255	255	255	
255	255	255	
255	255	255	
255	255	255	
255	255	255	
255	255	255	
255	255	255	
255	255	255	
255	255	255	
255	255	255	
255	255	255	
255	255	255	
255	255	255	
255	255	255	
255	255	255	
255	255	255	
255	255	255	
255	255	255	
255	255	255	
255	255	255	
255	255	255	
255	255	255	
255	255	255	
255	255	255	
255	255	255	
255	255	255	
255	255	255	
255	255	255	
255	255	255	
255	255	255	
255	255	255	
255	255	255	
255	255	255	
255	255	255	
255	255	255	
255	255	255	
255	255	255	
255	255	255	
255	255	255	
255	255	255	
255	255	255	
255	255	255	
255	255	255	
255	255	255	
255	255	255	
255	255	255	
255	255	255	
255	255	255	
255	255	255	
255	255	255	
255	255	255	
255	255	255	
255	255	255	
255	255	255	
255	255	255	
255	255	255	
255	255	255	
255	255	255	
255	255	255	
255	255	255	
255	255	255	
255	255	255	
255	255	255	
255	255	255	
255	255	255	
255	255	255	
255	255	255	
255	255	255	
255	255	255	
255	255	255	
255	255	255	
255	255	255	
255	255	255	
255	255	255	
255	255	255	
255	255	255	
255	255	255	
255	255	255	
255	255	255	
255	255	255	
255	255	255	
255	255	255	
255	255	255	
255	255	255	
255	255	255	
255	255	255	
255	255	255	
255	255	255	
255	255	255	
255	255	255	
255	255	255	
255	255	255	
255	255	255	
255	255	255	
255	255	255	
255	255	255	
255	255	255	
255	255	255	
255	255	255	
255	255	255	
255	255	255	
255	255	255	
255	255	255	
255	255	255	
255	255	255	
255	255	255	
255	255	255	
255	255	255	
255	255	255	
255	255	255	
255	255	255	
255	255	255	
255	255	255	
255	255	255	
255	255	255	
255	255	255	
255	255	255	
255	255	255	
255	255	255	
255	255	255	
255	255	255	
255	255	255	
255	255	255	
255	255	255	
255	255	255	
255	255	255	
255	255	255	
255	255	255	
255	255	255	
255	255	255	
255	255	255	
255	255	255	
255	255	255	
255	255	255	
255	255	255	
255	255	255	
255	255	255	
255	255	255	
255	255	255	
255	255	255	
255	255	255	
255	255	255	
255	255	255	
255	255	255	
255	255	255	
255	255	255	
255	255	255	
255	255	255	
255	255	255	
255	255	255	
255	255	255	
255	255	255	
255	255	255	
255	255	255	
255	255	255	
255	255	255	
255	255	255	
255	255	255	
255	255	255	
255	255	255	
255	255	255	
255	255	255	
255	255	255	
255	255	255	
255	255	255	
255	255	255	
255	255	255	
255	255	255	
255	255	255	
255	255	255	
255	255	255	
255	255	255	
255	255	255	
255	255	255	
255	255	255	
255	255	255	
255	255	255	
255	255	255	
255	255	255	
255	255	255	
255	255	255	
255	255	255	
255	255	255	
255	255	255	
255	255	255	
255	255	255	
255	255	255	
255	255	255	
255	255	255	
255	255	255	
255	255	255	
255	255	255	
255	255	255	
255	255	255	
255	255	255	
255	255	255	
255	255	255	
255	255	255	
255	255	255	
255	255	255	
255	255	255	
255	255	255	
255	255	255	
255	255	255	
255	255	255	
255	255	255	
255	255	255	
255	255	255	
255	255	255	
255	255	255	
255	255	255	
255	255	255	
255	255	255	
255	255	255	
255	255	255	
255	255	255	
255	255	255	
255	255	255	
255	255	255	
255	255	255	
255	255	255	
255	255	255	
255	255	255	
255	255	255	
255	255	255	
255	255	255	
255	255	255	
255	255	255	
255	255	255	
255	255	255	
255	255	255	
255	255	255	
255	255	255	
255	255	255	
255	255	255	
255	255	255	
255	255	255	
255	255	255	
255	255	255	
255	255	255	
255	255	255	
255	255	255	
255	255	255	
255	255	255	
255	255	255	
255	255	255	
255	255	255	
255	255	255	
255	255	255	
255	255	255	
255	255	255	
255	255	255	
255	255	255	
255	255	255	
255	255	255	
255	255	255	
255	255	255	
255	255	255	
255	255	255	
255	255	255	
255	255	255	
255	255	255	
255	255	255	
255	255	255	
255	255	255	
255	255	255	
255	255	255	
255	255	255	
255	255	255	
255	255	255	
255	255	255	
255	255	255	
255	255	255	
255	255	255	
255	255	255	
255	255	255	
255	255	255	
255	255	255	
255	255	255	
255	255	255	
255	255	255	
255	255	255	
255	255	255	
255	255	255	
255	255	255	
255	255	255	
255	255	255	
255	255	255	
255	255	255	
255	255	255	
255	255	255	
255	255	255	
255	255	255	
255	255	255	
255	255	255	
255	255	255	
255	255	255	
255	255	255	
255	255	255	
255	255	255	
255	255	255	
255	255	255	
255	255	255	
255	255	255	
255	255	255	
255	255	255	
255	255	255	
255	255	255	
255	255	255	
255	255	255	
255	255	255	
255	255	255	
255	255	255	
255	255	255	
255	255	255	
255	255	255	
255	255	255	
255	255	255	
255	255	255	
255	255	255	
255	255	255	
255	255	255	
255	255	255	
255	255	255	
255	255	255	
255	255	255	
255	255	255	
255	255	255	
255	255	255	
255	255	255	
255	255	255	
255	255	255	
255	255	255	
255	255	255	
255	255	255	
255	255	255	
255	255	255	
255	255	255	
255	255	255	
255	255	255	
255	255	255	
255	255	255	
255	255	255	
255	255	255	
255	255	255	
255	255	255	
255	255	255	
255	255	255	
255	255	255	
255	255	255	
255	255	255	
255	255	255	
255	255	255	
255	255	255	
255	255	255	
255	255	255	
255	255	255	
255	255	255	
255	255	255	
255	255	255	
255	255	255	
255	255	255	
255	255	255	
255	255	255	
255	255	255	
255	255	255	
255	255	255	
255	255	255	
255	255	255	
255	255	255	
255	255	255	
255	255	255	
255	255	255	
255	255	255	
255	255	255	
255	255	255	
255	255	255	
255	255	255	
255	255	255	
255	255	255	
255	255	255	
255	255	255	
255	255	255	
255	255	255	
255	255	255	
255	255	255	
255	255	255	
255	255	255	
255	255	255	
255	255	255	
255	255	255	
255	255	255	
255	255	255	
255	255	255	
255	255	255	
255	255	255	
255	255	255	
255	255	255	
255	255	255	
255	255	255	
255	255	255	
255	255	255	
255	255	255	
255	255	255	
255	255	255	
255	255	255	
255	255	255	
255	255	255	
255	255	255	
255	255	255	
255	255	255	
255	255	255	
255	255	255	
255	255	255	
255	255	255	
255	255	255	
255	255	255	
255	255	255	
255	255	255	
255	255	255	
255	255	255	
255	255	255	
255	255	255	
255	255	255	
255	255	255	
255	255	255	
255	255	255	
255	255	255	
255	255	255	
255	255	255	
255	255	255	
255	255	255	
255	255	255	
255	255	255	
255	255	255	
255	255	255	
255	255	255	
255	255	255	
255	255	255	
255	255	255	
255	255	255	
255	255	255	
255	255	255	
255	255	255	
255	255	255	
255	255	255	
255	255	255	
255	255	255	
255	255	255	
255	255	255	
255	255	255	
255	255	255	
255	255	255	
255	255	255	
255	255	255	
255	255	255	
255	255	255	
255	255	255	
255	255	255	
255	255	255	
255	255	255	
255	255	255	
255	255	255	
255	255	255	
255	255	255	
255	255	255	
255	255	255	
255	255	255	
255	255	255	
255	255	255	
255	255	255	
255	255	255	
255	255	255	
255	255	255	
255	255	255	
255	255	255	
255	255	255	
255	255	255	
255	255	255	
255	255	255	
255	255	255	
255	255	255	
255	255	255	
255	255	255	
255	255	255	
255	255	255	
255	255	255	
255	255	255	
255	255	255	
255	255	255	
255	255	255	
255	255	255	
255	255	255	
255	255	255	
255	255	255	
255	255	255	
255	255	255	
255	255	255	
255	255	255	
255	255	255	
255	255	255	
255	255	255	
255	255	255	
255	255	255	
255	255	255	
255	255	255	
255	255	255	
255	255	255	
255	255	255	
255	255	255	
255	255	255	
255	255	255	
255	255	255	
255	255	255	
255	255	255	
255	255	255	
255	255	255	
255	255	255	
255	255	255	
255	255	255	
255	255	255	
255	255	255	
255	255	255	
255	255	255	
255	255	255	
255	255	255	
255	255	255	
255	255	255	
255	255	255	
255	255	255	
255	255	255	
255	255	255	
255	255	255	
255	255	255	
255	255	255	
255	255	255	
255	255	255	
255	255	255	
255	255	255	
255	255	255	
255	255	255	
255	255	255	
255	255	255	
255	255	255	
255	255	255	
255	255	255	
255	255	255	
255	255	255	
255	255	255	
255	255	255	
255	255	255	
255	255	255	
255	255	255	
255	255	255	
255	255	255	
255	255	255	
255	255	255	
255	255	255	
255	255	255	
255	255	255	
255	255	255	
255	255	255	
255	255	255	
255	255	255	
255	255	255	
255	255	255	
255	255	255	
255	255	255	
255	255	255	
255	255	255	
255	255	255	
255	255	255	
255	255	255	
255	255	255	
255	255	255	
255	255	255	
255	255	255	
255	255	255	
255	255	255	
255	255	255	
255	255	255	
255	255	255	
255	255	255	
255	255	255	
255	255	255	
255	255	255	
255	255	255	
255	255	255	
255	255	255	
255	255	255	
255	255	255	
255	255	255	
255	255	255	
255	255	255	
255	255	255	
255	255	255	
255	255	255	
255	255	255	
255	255	255	
255	255	255	
255	255	255	
255	255	255	
255	255	255	
255	255	255	
255	255	255	
255	255	255	
255	255	255	
255	255	255	
255	255	255	
255	255	255	
255	255	255	
255	255	255	
255	255	255	
255	255	255	
255	255	255	
255	255	255	
255	255	255	
255	255	255	
255	255	255	
255	255	255	
255	255	255	
255	255	255	
255	255	255	
255	255	255	
255	255	255	
255	255	255	
255	255	255	
255	255	255	
255	255	255	
255	255	255	
255	255	255	
255	255	255	
255	255	255	
255	255	255	
255	255	255	
255	255	255	
255	255	255	
255	255	255	
255	255	255	
255	255	255	
255	255	255	
255	255	255	
255	255	255	
255	255	255	
255	255	255	
255	255	255	
255	255	255	
255	255	255	
255	255	255	
255	255	255	
255	255	255	
255	255	255	
255	255	255	
255	255	255	
255	255	255	
255	255	255	
255	255	255	
255	255	255	
255	255	255	
255	255	255	
255	255	255	
255	255	255	
255	255	255	
255	255	255	
255	255	255	
255	255	255	
255	255	255	
255	255	255	
255	255	255	
255	255	255	
255	255	255	
255	255	255	
255	255	255	
255	255	255	
255	255	255	
255	255	255	
255	255	255	
255	255	255	
255	255	255	
255	255	255	
255	255	255	
255	255	255	
255	255	255	
255	255	255	
255	255	255	
255	255	255	
255	255	255	
255	255	255	
255	255	255	
255	255	255	
255	255	255	
255	255	255	
255	255	255	
255	255	255	
255	255	255	
255	255	255	
255	255	255	
255	255	255	
255	255	255	
255	255	255	
255	255	255	
255	255	255	
255	255	255	
255	255	255	
255	255	255	
255	255	255	
255	255	255	
255	255	255	
255	255	255	
255	255	255	
255	255	255	
255	255	255	
255	255	255	
255	255	255	
255	255	255	
255	255	255	
255	255	255	
255	255	255	
255	255	255	
255	255	255	
255	255	255	
255	255	255	
255	255	255	
255	255	255	
255	255	255	
255	255	255	
255	255	255	
255	255	255	
255	255	255	
255	255	255	
255	255	255	
255	255	255	
255	255	255	
255	255	255	
255	255	255	
255	255	255	
255	255	255	
255	255	255	
255	255	255	
255	255	255	
255	255	255	
255	255	255	
255	255	255	
255	255	255	
255	255	255	
255	255	255	
255	255	255	
255	255	255	
255	255	255	
255	255	255	
255	255	255	
255	255	255	
255	255	255	
255	255	255	
255	255	255	
255	255	255	
255	255	255	
255	255	255	
255	255	255	
255	255	255	
255	255	255	
255	255	255	
255	255	255	
255	255	255	
255	255	255	
255	255	255	
255	255	255	
255	255	255	
255	255	255	
255	255	255	
255	255	255	
255	255	255	
255	255	255	
255	255	255	
255	255	255	
255	255	255	
255	255	255	
255	255	255	
255	255	255	
255	255	255	
255	255	255	
255	255	255	
255	255	255	
255	255	255	
255	255	255	
255	255	255	
255	255	255	
255	255	255	
255	255	255	
255	255	255	
255	255	255	
255	255	255	
255	255	255	
255	255	255	
255	255	255	
255	255	255	
255	255	255	
255	255	255	
255	255	255	
255	255	255	
255	255	255	
255	255	255	
255	255	255	
255	255	255	
255	255	255	
255	255	255	
255	255	255	
255	255	255	
255	255	255	
255	255	255	
255	255	255	
255	255	255	
255	255	255	
255	255	255	
255	255	255	
255	255	255	
255	255	255	
255	255	255	
255	255	255	
255	255	255	
255	255	255	
255	255	255	
255	255	255	
255	255	255	
255	255	255	
255	255	255	
255	255	255	
255	255	255	
255	255	255	
255	255	255	
255	255	255	
255	255	255	
255	255	255	
255	255	255	
255	255	255	
255	255	255	
255	255	255	
255	255	255	
255	255	255	
255	255	255	
255	255	255	
255	255	255	
255	255	255	
255	255	255	
255	255	255	
255	255	255	
255	255	255	
255	255	255	
255	255	255	
255	255	255	
255	255	255	
255	255	255	
255	255	255	
255	255	255	
255	255	255	
255	255	255	
255	255	255	
255	255	255	
255	255	255	
255	255	255	
255	255	255	
255	255	255	
255	255	255	
255	255	255	
255	255	255	
255	255	255	
255	255	255	
255	255	255	
255	255	255	
255	255	255	
255	255	255	
255	255	255	
255	255	255	
255	255	255	
255	255	255	
255	255	255	
255	255	255	
255	255	255	
255	255	255	
255	255	255	
255	255	255	
255	255	255	
255	255	255	
255	255	255	
255	255	255	
255	255	255	
255	255	255	
255	255	255	
255	255	255	
255	255	255	
255	255	255	
255	255	255	
255	255	255	
255	255	255	
255	255	255	
255	255	255	
255	255	255	
255	255	255	
255	255	255	
255	255	255	
255	255	255	
255	255	255	
255	255	255	
255	255	255	
255	255	255	
255	255	255	
255	255	255	
255	255	255	
255	255	255	
255	255	255	
255	255	255	
255	255	255	
255	255	255	
255	255	255	
255	255	255	
255	255	255	
255	255	255	
255	255	255	
255	255	255	
255	255	255	
255	255	255	
255	255	255	
255	255	255	
255	255	255	
255	255	255	
255	255	255	
255	255	255	
255	255	255	
255	255	255	
255	255	255	
255	255	255	
255	255	255	
255	255	255	
255	255	255	
255	255	255	
255	255	255	
255	255	255	
255	255	255	
255	255	255	
255	255	255	
255	255	255	
255	255	255	
255	255	255	
255	255	255	
255	255	255	
255	255	255	
255	255	255	
255	255	255	
255	255	255	
255	255	255	
255	255	255	
255	255	255	
255	255	255	
255	255	255	
255	255	255	
255	255	255	
255	255	255	
255	255	255	
255	255	255	
255	255	255	
255	255	255	
255	255	255	
255	255	255	
255	255	255	
255	255	255	
255	255	255	
255	255	255	
255	255	255	
255	255	255	
255	255	255	
255	255	255	
255	255	255	
255	255	255	
255	255	255	
255	255	255	
255	255	255	
255	255	255	
255	255	255	
255	255	255	
255	255	255	
255	255	255	
255	255	255	
255	255	255	
255	255	255	
255	255	255	
255	255	255	
255	255	255	
255	255	255	
255	255	255	
255	255	255	
255	255	255	
255	255	255	
255	255	255	
255	255	255	
255	255	255	
255	255	255	
255	255	255	
255	255	255	
255	255	255	
255	255	255	
255	255	255	
255	255	255	
255	255	255	
255	255	255	
255	255	255	
255	255	255	
255	255	255	
255	255	255	
255	255	255	
255	255	255	
255	255	255	
255	255	255	
255	255	255	
255	255	255	
255	255	255	
255	255	255	
255	255	255	
255	255	255	
255	255	255	
255	255	255	
255	255	255	
255	255	255	
255	255	255	
255	255	255	
255	255	255	
255	255	255	
255	255	255	
255	255	255	
255	255	255	
255	255	255	
255	255	255	
255	255	255	
255	255	255	
255	255	255	
255	255	255	
255	255	255	
255	255	255	
255	255	255	
255	255	255	
255	255	255	
255	255	255	
255	255	255	
255	255	255	
255	255	255	
255	255	255	
255	255	255	
255	255	255	
255	255	255	
255	255	255	
255	255	255	
255	255	255	
255	255	255	
255	255	255	
255	255	255	
255	255	255	
255	255	255	
255	255	255	
255	255	255	
255	255	255	
255	255	255	
255	255	255	
255	255	255	
255	255	255	
255	255	255	
255	255	255	
255	255	255	
255	255	255	
255	255	255	
255	255	255	
255	255	255	
255	255	255	
255	255	255	
255	255	255	
255	255	255	
255	255	255	
255	255	255	
255	255	255	
255	255	255	
255	255	255	
255	255	255	
255	255	255	
255	255	255	
255	255	255	
255	255	255	
255	255	255	
255	255	255	
255	255	255	
255	255	255	
255	255	255	
255	255	255	
255	255	255	
255	255	255	
255	255	255	
255	255	255	
255	255	255	
255	255	255	
255	255	255	
255	255	255	
255	255	255	
255	255	255	
255	255	255	
255	255	255	
255	255	255	
255	255	255	
255	255	255	
255	255	255	
255	255	255	
255	255	255	
255	255	255	
255	255	255	
255	255	255	
255	255	255	
255	255	255	
255	255	255	
255	255	255	
255	255	255	
255	255	255	
255	255	255	
255	255	255	
255	255	255	
255	255	255	
255	255	255	
255	255	255	
255	255	255	
255	255	255	
255	255	255	
255	255	255	
255	255	255	
255	255	255	
255	255	255	
255	255	255	
255	255	255	
255	255	255	
255	255	255	
255	255	255	
255	255	255	
255	255	255	
255	255	255	
255	255	255	
255	255	255	
255	255	255	
255	255	255	
255	255	255	
255	255	255	
255	255	255	
255	255	255	
255	255	255	
255	255	255	
255	255	255	
255	255	255	
255	255	255	
255	255	255	
255	255	255	
255	255	255	
255	255	255	
255	255	255	
255	255	255	
255	255	255	
255	255	255	
255	255	255	
255	255	255	
255	255	255	
255	255	255	
255	255	255	
255	255	255	
255	255	255	
255	255	255	
255	255	255	
255	255	255	
255	255	255	
255	255	255	
255	255	255	
255	255	255	
255	255	255	
255	255	255	
255	255	255	
255	255	255	
255	255	255	
255	255	255	
255	255	255	
255	255	255	
255	255	255	
255	255	255	
255	255	255	
255	255	255	
255	255	255	
255	255	255	
255	255	255	
255	255	255	
255	255	255	
255	255	255	
255	255	255	
255	255	255	
255	255	255	
255	255	255	
255	255	255	
255	255	255	
255	255	255	
255	255	255	
255	255	255	
255	255	255	
255	255	255	
255	255	255	
255	255	255	
255	255	255	
255	255	255	
255	255	255	
255	255	255	
255	255	255	
255	255	255	
255	255	255	
255	255	255	
255	255	255	
255	255	255	
255	255	255	
255	255	255	
255	255	255	
255	255	255	
255	255	255	
255	255	255	
255	255	255	
255	255	255	
255	255	255	
255	255	255	
255	255	255	
255	255	255	
255	255	255	
255	255	255	
255	255	255	
255	255	255	
255	255	255	
255	255	255	
255	255	255	
255	255	255	
255	255	255	
255	255	255	
255	255	255	
255	255	255	
255	255	255	
255	255	255	
255	255	255	
255	255	255	
255	255	255	
255	255	255	
255	255	255	
255	255	255	
255	255	255	
255	255	255	
255	255	255	
255	255	255	
255	255	255	
255	255	255	
255	255	255	
255	255	255	
255	255	255	
255	255	255	
255	255	255	
255	255	255	
255	255	255	
255	255	255	
255	255	255	
255	255	255	
255	255	255	
255	255	255	
255	255	255	
255	255	255	
255	255	255	
255	255	255	
255	255	255	
255	255	255	
255	255	255	
255	255	255	
255	255	255	
255	255	255	
255	255	255	
255	255	255	
255	255	255	
255	255	255	
255	255	255	
255	255	255	
255	255	255	
255	255	255	
255	255	255	
255	255	255	
255	255	255	
255	255	255	
255	255	255	
255	255	255	
255	255	255	
255	255	255	
255	255	255	
255	255	255	
255	255	255	
255	255	255	
255	255	255	
255	255	255	
255	255	255	
255	255	255	
255	255	255	
255	255	255	
255	255	255	
255	255	255	
255	255	255	
255	255	255	
255	255	255	
255	255	255	
255	255	255	
255	255	255	
255	255	255	
255	255	255	
255	255	255	
255	255	255	
255	255	255	
255	255	255	
255	255	255	
255	255	255	
255	255	255	
255	255	255	
255	255	255	
255	255	255	
255	255	255	
255	255	255	
255	255	255	
255	255	255	
255	255	255	
255	255	255	
255	255	255	
255	255	255	
255	255	255	
255	255	255	
255	255	255	
255	255	255	
255	255	255	
255	255	255	
255	255	255	
255	255	255	
255	255	255	
255	255	255	
255	255	255	
255	255	255	
255	255	255	
255	255	255	
255	255	255	
255	255	255	
255	255	255	
255	255	255	
255	255	255	
255	255	255	
255	255	255	
255	255	255	
255	255	255	
255	255	255	
255	255	255	
255	255	255	
255	255	255	
255	255	255	
255	255	255	
255	255	255	
255	255	255	
255	255	255	
255	255	255	
255	255	255	
255	255	255	
255	255	255	
255	255	255	
255	255	255	
255	255	255	
255	255	255	
255	255	255	
255	255	255	
255	255	255	
255	255	255	
255	255	255	
255	255	255	
255	255	255	
255	255	255	
255	255	255	
255	255	255	
255	255	255	
255	255	255	
255	255	255	
255	255	255	
255	255	255	
255	255	255	
255	255	255	
255	255	255	
255	255	255	
255	255	255	
255	255	255	
255	255	255	
255	255	255	
255	255	255	
255	255	255	
255	255	255	
255	255	255	
255	255	255	
255	255	255	
255	255	255	
255	255	255	
255	255	255	
255	255	255	
255	255	255	
255	255	255	
255	255	255	
255	255	255	
255	255	255	
255	255	255	
255	255	255	
255	255	255	
255	255	255	
255	255	255	
255	255	255	
255	255	255	
255	255	255	
255	255	255	
255	255	255	
255	255	255	
255	255	255	
255	255	255	
255	255	255	
255	255	255	
255	255	255	
255	255	255	
255	255	255	
255	255	255	
255	255	255	
255	255	255	
255	255	255	
255	255	255	
255	255	255	
255	255	255	
255	255	255	
255	255	255	
255	255	255	
255	255	255	
255	255	255	
255	255	255	
255	255	255	
255	255	255	
255	255	255	
255	255	255	
255	255	255	
255	255	255	
255	255	255	
255	255	255	
255	255	255	
255	255	255	
255	255	255	
255	255	255	
255	255	255	
255	255	255	
255	255	255	
255	255	255	
255	255	255	
255	255	255	
255	255	255	
255	255	255	
255	255	255	
255	255	255	
255	255	255	
255	255	255	
255	255	255	
255	255	255	
255	255	255	
255	255	255	
255	255	255	
255	255	255	
255	255	255	
255	255	255	
255	255	255	
255	255	255	
255	255	255	
255	255	255	
255	255	255	
255	255	255	
255	255	255	
255	255	255	
255	255	255	
255	255	255	
255	255	255	
255	255	255	
255	255	255	
255	255	255	
255	255	255	
255	255	255	
255	255	255	
255	255	255	
255	255	255	
255	255	255	
255	255	255	
255	255	255	
255	255	255	
255	255	255	
255	255	255	
255	255	255	
255	255	255	
255	255	255	
255	255	255	
255	255	255	
255	255	255	
255	255	255	
255	255	255	
255	255	255	
255	255	255	
255	255	255	
255	255	255	
255	255	255	
255	255	255	
255	255	255	
255	255	255	
255	255	255	
255	255	255	
255	255	255	
255	255	255	
255	255	255	
255	255	255	
255	255	255	
255	255	255	
255	255	255	
255	255	255	
255	255	255	
255	255	255	
255	255	255	
255	255	255	
255	255	255	
255	255	255	
255	255	255	
255	255	255	
255	255	255	
255	255	255	
255	255	255	
255	255	255	
255	255	255	
255	255	255	
255	255	255	
255	255	255	
255	255	255	
255	255	255	
255	255	255	
255	255	255	
255	255	255	
255	255	255	
255	255	255	
255	255	255	
255	255	255	
255	255	255	
255	255	255	
255	255	255	
255	255	255	
255	255	255	
255	255	255	
255	255	255	
255	255	255	
255	255	255	
255	255	255	
255	255	255	
255	255	255	
255	255	255	
255	255	255	
255	255	255	
255	255	255	
255	255	255	
255	255	255	
255	255	255	
255	255	255	
255	255	255	
255	255	255	
255	255	255	
255	255	255	
255	255	255	
255	255	255	
255	255	255	
255	255	255	
255	255	255	
255	255	255	
255	255	255	
255	255	255	
255	255	255	
255	255	255	
255	255	255	
255	255	255	
255	255	255	
255	255	255	
255	255	255	
255	255	255	
255	255	255	
255	255	255	
255	255	255	
255	255	255	
255	255	255	
255	255	255	
255	255	255	
255	255	255	
255	255	255	
255	255	255	
255	255	255	
255	255	255	
255	255	255	
255	255	255	
255	255	255	
255	255	255	
255	255	255	
255	255	255	
255	255	255	
255	255	255	
255	255	255	
255	255	255	
255	255	255	
255	255	255	
255	255	255	
255	255	255	
255	255	255	
255	255	255	
255	255	255	
255	255	255	
255	255	255	
255	255	255	
255	255	255	
255	255	255	
255	255	255	
255	255	255	
255	255	255	
255	255	255	
255	255	255	
255	255	255	
255	255	255	
255	255	255	
255	255	255	
255	255	255	
255	255	255	
255	255	255	
255	255	255	
255	255	255	
255	255	255	
255	255	255	
255	255	255	
255	255	255	
255	255	255	
255	255	255	
255	255	255	
255	255	255	
255	255	255	
255	255	255	
255	255	255	
255	255	255	
255	255	255	
255	255	255	
255	255	255	
255	255	255	
255	255	255	
255	255	255	
255	255	255	
255	255	255	
255	255	255	
255	255	255	
255	255	255	
255	255	255	
255	255	255	
255	255	255	
255	255	255	
255	255	255	
255	255	255	
255	255	255	
255	255	255	
255	255	255	
255	255	255	
255	255	255	
255	255	255	
255	255	255	
255	255	255	
255	255	255	
255	255	255	
255	255	255	
255	255	255	
255	255	255	
255	255	255	
255	255	255	
255	255	255	
255	255	255	
255	255	255	
255	255	255	
255	255	255	
255	255	255	
255	255	255	
255	255	255	
255	255	255	
255	255	255	
255	255	255	
255	255	255	
255	255	255	
255	255	255	
255	255	255	
255	255	255	
255	255	255	
255	255	255	
255	255	255	
255	255	255	
255	255	255	
255	255	255	
255	255	255	
255	255	255	
255	255	255	
255	255	255	
255	255	255	
255	255	255	
255	255	255	
255	255	255	
255	255	255	
255	255	255	
255	255	255	
255	255	255	
255	255	255	
255	255	255	
255	255	255	
255	255	255	
255	255	255	
255	255	255	
255	255	255	
255	255	255	
255	255	255	
255	255	255	
255	255	255	
255	255	255	
255	255	255	
255	255	255	
255	255	255	
255	255	255	
255	255	255	
255	255	255	
255	255	255	
255	255	255	
255	255	255	
255	255	255	
255	255	255	
255	255	255	
255	255	255	
255	255	255	
255	255	255	
255	255	255	
255	255	255	
255	255	255	
255	255	255	
255	255	255	
255	255	255	
255	255	255	
255	255	255	
255	255	255	
255	255	255	
255	255	255	
255	255	255	
255	255	255	
255	255	255	
255	255	255	
255	255	255	
255	255	255	
255	255	255	
255	255	255	
255	255	255	
255	255	255	
255	255	255	
255	255	255	
255	255	255	
255	255	255	
255	255	255	
255	255	255	
255	255	255	
255	255	255	
255	255	255	
255	255	255	
255	255	255	
255	255	255	
255	255	255	
255	255	255	
255	255	255	
255	255	255	
255	255	255	
255	255	255	
255	255	255	
255	255	255	
255	255	255	
255	255	255	
255	255	255	
255	255	255	
255	255	255	
255	255	255	
255	255	255	
255	255	255	
255	255	255	
255	255	255	
255	255	255	
255	255	255	
255	255	255	
255	255	255	
255	255	255	
255	255	255	
255	255	255	
255	255	255	
255	255	255	
255	255	255	
255	255	255	
255	255	255	
255	255	255	
255	255	255	
255	255	255	
255	255	255	
255	255	255	
255	255	255	
255	255	255	
255	255	255	
255	255	255	
255	255	255	
255	255	255	
255	255	255	
255	255	255	
255	255	255	
255	255	255	
255	255	255	
255	255	255	
255	255	255	
255	255	255	
255	255	255	
255	255	255	
255	255	255	
255	255	255	
255	255	255	
255	255	255	
255	255	255	
255	255	255	
255	255	255	
255	255	255	
255	255	255	
255	255	255	
255	255	255	
255	255	255	
255	255	255	
255	255	255	
255	255	255	
255	255	255	
255	255	255	
255	255	255	
255	255	255	
255	255	255	
255	255	255	
255	255	255	
255	255	255	
255	255	255	
255	255	255	
255	255	255	
255	255	255	
255	255	255	
255	255	255	
255	255	255	
255	255	255	
255	255	255	
255	255	255	
255	255	255	
255	255	255	
255	255	255	
255	255	255	
255	255	255	
255	255	255	
255	255	255	
255	255	255	
255	255	255	
255	255	255	
255	255	255	
255	255	255	
255	255	255	
255	255	255	
255	255	255	
255	255	255	
255	255	255	
255	255	255	
255	255	255	
255	255	255	
255	255	255	
255	255	255	
255	255	255	
255	255	255	
255	255	255	
255	255	255	
255	255	255	
255	255	255	
255	255	255	
255	255	255	
255	255	255	
255	255	255	
255	255	255	
255	255	255	
255	255	255	
255	255	255	
255	255	255	
255	255	255	
255	255	255	
255	255	255	
255	255	255	
255	255	255	
255	255	255	
255	255	255	
255	255	255	
255	255	255	
255	255	255	
255	255	255	
255	255	255	
255	255	255	
255	255	255	
255	255	255	
255	255	255	
255	255	255	
255	255	255	
255	255	255	
255	255	255	
255	255	255	
255	255	255	
255	255	255	
255	255	255	
255	255	255	
255	255	255	
255	255	255	
255	255	255	
255	255	255	
255	255	255	
255	255	255	
255	255	255	
255	255	255	
255	255	255	
255	255	255	
255	255	255	
255	255	255	
255	255	255	
255	255	255	
255	255	255	
255	255	255	
255	255	255	
255	255	255	
255	255	255	
255	255	255	
255	255	255	
255	255	255	
255	255	255	
255	255	255	
255	255	255	
255	255	255	
255	255	255	
255	255	255	
255	255	255	
255	255	255	
255	255	255	
255	255	255	
255	255	255	
255	255	255	
255	255	255	
255	255	255	
255	255	255	
255	255	255	
255	255	255	
255	255	255	
255	255	255	
255	255	255	
255	255	255	
255	255	255	
255	255	255	
255	255	255	
255	255	255	
255	255	255	
255	255	255	
255	255	255	
255	255	255	
255	255	255	
255	255	255	
255	255	255	
255	255	255	
255	255	255	
255	255	255	
255	255	255	
255	255	255	
255	255	255	
255	255	255	
255	255	255	
255	255	255	
255	255	255	
255	255	255	
255	255	255	
255	255	255	
255	255	255	
255	255	255	
255	255	255	
255	255	255	
255	255	255	
255	255	255	
255	255	255	
255	255	255	
255	255	255	
255	255	255	
255	255	255	
255	255	255	
255	255	255	
255	255	255	
255	255	255	
255	255	255	
255	255	255	
255	255	255	
255	255	255	
255	255	255	
255	255	255	
255	255	255	
255	255	255	
255	255	255	
255	255	255	
255	255	255	
255	255	255	
255	255	255	
255	255	255	
255	255	255	
255	255	255	
255	255	255	
255	255	255	
255	255	255	
255	255	255	
255	255	255	
255	255	255	
255	255	255	
255	255	255	
255	255	255	
255	255	255	
255	255	255	
255	255	255	
255	255	255	
255	255	255	
255	255	255	
255	255	255	
255	255	255	
255	255	255	
255	255	255	
255	255	255	
255	255	255	
255	255	255	
255	255	255	
255	255	255	
255	255	255	
255	255	255	
255	255	255	
255	255	255	
255	255	255	
255	255	255	
255	255	255	
255	255	255	
255	255	255	
255	255	255	
255	255	255	
255	255	255	
255	255	255	
255	255	255	
255	255	255	
255	255	255	
255	255	255	
255	255	255	
255	255	255	
255	255	255	
255	255	255	
255	255	255	
255	255	255	
255	255	255	
255	255	255	
255	255	255	
255	255	255	
255	255	255	
255	255	255	
255	255	255	
255	255	255	
255	255	255	
255	255	255	
255	255	255	
255	255	255	
255	255	255	
255	255	255	
255	255	255	
255	255	255	
255	255	255	
255	255	255	
255	255	255	
255	255	255	
255	255	255	
255	255	255	
255	255	255	
255	255	255	
255	255	255	
255	255	255	
255	255	255	
255	255	255	
255	255	255	
255	255	255	
255	255	255	
255	255	255	
255	255	255	
255	255	255	
255	255	255	
255	255	255	
255	255	255	
255	255	255	
255	255	255	
255	255	255	
255	255	255	
255	255	255	
255	255	255	
255	255	255	
255	255	255	
255	255	255	
255	255	255	
255	255	255	
255	255	255	
255	255	255	
255	255	255	
255	255	255	
255	255	255	
255	255	255	
255	255	255	
255	255	255	
255	255	255	
255	255	255	
255	255	255	
255	255	255	
255	255	255	
255	255	255	
255	255	255	
255	255	255	
255	255	255	
255	255	255	
255	255	255	
255	255	255	
255	255	255	
255	255	255	
255	255	255	
255	255	255	
255	255	255	
255	255	255	
255	255	255	
255	255	255	
255	255	255	
255	255	255	
255	255	255	
255	255	255	
255	255	255	
255	255	255	
255	255	255	
255	255	255	
255	255	255	
255	255	255	
255	255	255	
255	255	255	
255	255	255	
255	255	255	
255	255	255	
255	255	255	
255	255	255	
255	255	255	
255	255	255	
255	255	255	
255	255	255	
255	255	255	
255	255	255	
255	255	255	
255	255	255	
255	255	255	
255	255	255	
255	255	255	
255	255	255	
255	255	255	
255	255	255	
255	255	255	
255	255	255	
255	255	255	
255	255	255	
255	255	255	
255	255	255	
255	255	255	
255	255	255	
255	255	255	
255	255	255	
255	255	255	
255	255	255	
255	255	255	
255	255	255	
255	255	255	
255	255	255	
255	255	255	
255	255	255	
255	255	255	
255	255	255	
255	255	255	
255	255	255	
255	255	255	
255	255	255	
255	255	255	
255	255	255	
255	255	255	
255	255	255	
255	255	255	
255	255	255	
255	255	255	
255	255	255	
255	255	255	
255	255	255	
255	255	255	
255	255	255	
255	255	255	
255	255	255	
255	255	255	
255	255	255	
255	255	255	
255	255	255	
255	255	255	
255	255	255	
255	255	255	
255	255	255	
255	255	255	
255	255	255	
255	255	255	
255	255	255	
255	255	255	
255	255	255	
255	255	255	
255	255	255	
255	255	255	
255	255	255	
255	255	255	
255	255	255	
255	255	255	
255	255	255	
255	255	255	
255	255	255	
255	255	255	
255	255	255	
255	255	255	
255	255	255	
255	255	255	
255	255	255	
255	255	255	
255	255	255	
255	255	255	
255	255	255	
255	255	255	
255	255	255	
255	255	255	
255	255	255	
255	255	255	
255	255	255	
255	255	255	
255	255	255	
255	255	255	
255	255	255	
255	255	255	
255	255	255	
255	255	255	
255	255	255	
255	255	255	
255	255	255	
255	255	255	
255	255	255	
255	255	255	
255	255	255	
255	255	255	
255	255	255	
255	255	255	
255	255	255	
255	255	255	
255	255	255	
255	255	255	
255	255	255	
255	255	255	
255	255	255	
255	255	255	
255	255	255	
255	255	255	
255	255	255	
255	255	255	
255	255	255	
255	255	255	
255	255	255	
255	255	255	
255	255	255	
255	255	255	
255	255	255	
255	255	255	
255	255	255	
255	255	255	
255	255	255	
255	255	255	
255	255	255	
255	255	255	
255	255	255	
255	255	255	
255	255	255	
255	255	255	
255	255	255	
255	255	255	
255	255	255	
255	255	255	
255	255	255	
255	255	255	
255	255	255	
255	255	255	
255	255	255	
255	255	255	
255	255	255	
255	255	255	
255	255	255	
255	255	255	
255	255	255	
255	255	255	
255	255	255	
255	255	255	
255	255	255	
255	255	255	
255	255	255	
255	255	255	
255	255	255	
255	255	255	
255	255	255	
255	255	255	
255	255	255	
255	255	255	
255	255	255	
255	255	255	
255	255	255	
255	255	255	
255	255	255	
255	255	255	
255	255	255	
255	255	255	
255	255	255	
255	255	255	
255	255	255	
255	255	255	
255	255	255	
255	255	255	
255	255	255	
255	255	255	
255	255	255	
255	255	255	
255	255	255	
255	255	255	
255	255	255	
255	255	255	
255	255	255	
255	255	255	
255	255	255	
255	255	255	
255	255	255	
255	255	255	
255	255	255	
255	255	255	
255	255	255	
255	255	255	
255	255	255	
255	255	255	
255	255	255	
255	255	255	
255	255	255	
255	255	255	
255	255	255	
255	255	255	
255	255	255	
255	255	255	
255	255	255	
255	255	255	
255	255	255	
255	255	255	
255	255	255	
255	255	255	
255	255	255	
255	255	255	
255	255	255	
255	255	255	
255	255	255	
255	255	255	
255	255	255	
255	255	255	
255	255	255	
255	255	255	
255	255	255	
255	255	255	
255	255	255	
255	255	255	
255	255	255	
255	255	255	
255	255	255	
255	255	255	
255	255	255	
255	255	255	
255	255	255	
255	255	255	
255	255	255	
255	255	255	
255	255	255	
255	255	255	
255	255	255	
255	255	255	
255	255	255	
255	255	255	
255	255	255	
255	255	255	
255	255	255	
255	255	255	
255	255	255	
255	255	255	
255	255	255	
255	255	255	
255	255	255	
255	255	255	
255	255	255	
255	255	255	
255	255	255	
255	255	255	
255	255	255	
255	255	255	
255	255	255	
255	255	255	
255	255	255	
255	255	255	
255	255	255	
255	255	255	
255	255	255	
255	255	255	
255	255	255	
255	255	255	
255	255	255	
255	255	255	
255	255	255	
255	255	255	
255	255	255	
255	255	255	
255	255	255	
255	255	255	
255	255	255	
255	255	255	
255	255	255	
255	255	255	
255	255	255	
255	255	255	
255	255	255	
255	255	255	
255	255	255	
255	255	255	
255	255	255	
255	255	255	
255	255	255	
255	255	255	
255	255	255	
255	255	255	
255	255	255	
255	255	255	
255	255	255	
255	255	255	
255	255	255	
255	255	255	
255	255	255	
255	255	255	
255	255	255	
255	255	255	
255	255	255	
255	255	255	
255	255	255	
255	255	255	
255	255	255	
255	255	255	
255	255	255	
255	255	255	
255	255	255	
255	255	255	
255	255	255	
255	255	255	
255	255	255	
255	255	255	
255	255	255	
255	255	255	
255	255	255	
255	255	255	
255	255	255	
255	255	255	
255	255	255	
255	255	255	
255	255	255	
255	255	255	
255	255	255	
255	255	255	
255	255	255	
255	255	255	
255	255	255	
255	255	255	
255	255	255	
255	255	255	
255	255	255	
255	255	255	
255	255	255	
255	255	255	
255	255	255	
255	255	255	
255	255	255	
255	255	255	
255	255	255	
255	255	255	
255	255	255	
255	255	255	
255	255	255	
255	255	255	
255	255	255	
255	255	255	
255	255	255	
255	255	255	
255	255	255	
255	255	255	
255	255	255	
255	255	255	
255	255	255	
255	255	255	
255	255	255	
255	255	255	
255	255	255	
255	255	255	
255	255	255	
255	255	255	
255	255	255	
255	255	255	
255	255	255	
255	255	255	
255	255	255	
255	255	255	
255	255	255	
255	255	255	
255	255	255	
255	255	255	
255	255	255	
255	255	255	
255	255	255	
255	255	255	
255	255	255	
255	255	255	
255	255	255	
255	255	255	
255	255	255	
255	255	255	
255	255	255	
255	255	255	
255	255	255	
255	255	255	
255	255	255	
255	255	255	
255	255	255	
255	255	255	
255	255	255	
255	255	255	
255	255	255	
255	255	255	
255	255	255	
255	255	255	
255	255	255	
255	255	255	
255	255	255	
255	255	255	
255	255	255	
255	255	255	
255	255	255	
255	255	255	
255	255	255	
255	255	255	
255	255	255	
255	255	255	
255	255	255	
255	255	255	
255	255	255	
255	255	255	
255	255	255	
255	255	255	
255	255	255	
255	255	255	
255	255	255	
255	255	255	
255	255	255	
255	255	255	
255	255	255	
255	255	255	
255	255	255	
255	255	255	
255	255	255	
255	255	255	
255	255	255	
255	255	255	
255	255	255	
255	255	255	
255	255	255	
255	255	255	
255	255	255	
255	255	255	
255	255	255	
255	255	255	
255	255	255	
255	255	255	
255	255	255	
255	255	255	
255	255	255	
255	255	255	
255	255	255	
255	255	255	
255	255	255	
255	255	255	
255	255	255	
255	255	255	
255	255	255	
255	255	255	
255	255	255	
255	255	255	
255	255	255	
255	255	255	
255	255	255	
255	255	255	
255	255	255	
255	255	255	
255	255	255	
255	255	255	
255	255	255	
255	255	255	
255	255	255	
255	255	255	
255	255	255	
255	255	255	
255	255	255	
255	255	255	
255	255	255	
255	255	255	
255	255	255	
255	255	255	
255	255	255	
255	255	255	
255	255	255	
255	255	255	
255	255	255	
255	255	255	
255	255	255	
255	255	255	
255	255	255	
255	255	255	
255	255	255	
255	255	255	
255	255	255	
255	255	255	
255	255	255	
255	255	255	
255	255	255	
255	255	255	
255	255	255	
255	255	255	
255	255	255	
255	255	255	
255	255	255	
255	255	255	
255	255	255	
255	255	255	
255	255	255	
255	255	255	
255	255	255	
255	255	255	
255	255	255	
255	255	255	
255	255	255	
255	255	255	
255	255	255	
255	255	255	
255	255	255	
255	255	255	
255	255	255	
255	255	255	
255	255	255	
255	255	255	
255	255	255	
255	255	255	
255	255	255	
255	255	255	
255	255	255	
255	255	255	
255	255	255	
255	255	255	
255	255	255	
255	255	255	
255	255	255	
255	255	255	
255	255	255	
255	255	255	
255	255	255	
255	255	255	
255	255	255	
255	255	255	
255	255	255	
255	255	255	
255	255	255	
255	255	255	
255	255	255	
255	255	255	
255	255	255	
255	255	255	
255	255	255	
255	255	255	
255	255	255	
255	255	255	
255	255	255	
255	255	255	
255	255	255	
255	255	255	
255	255	255	
255	255	255	
255	255	255	
255	255	255	
255	255	255	
255	255	255	
255	255	255	
255	255	255	
255	255	255	
255	255	255	
255	255	255	
255	255	255	
255	255	255	
255	255	255	
255	255	255	
255	255	255	
255	255	255	
255	255	255	
255	255	255	
255	255	255	
255	255	255	
255	255	255	
255	255	255	
255	255	255	
255	255	255	
255	255	255	
255	255	255	
255	255	255	
255	255	255	
255	255	255	
255	255	255	
255	255	255	
255	255	255	
255	255	255	
255	255	255	
255	255	255	
255	255	255	
255	255	255	
255	255	255	
255	255	255	
255	255	255	
255	255	255	
255	255	255	
255	255	255	
255	255	255	
255	255	255	
255	255	255	
255	255	255	
255	255	255	
255	255	255	
255	255	255	
255	255	255	
255	255	255	
255	255	255	
255	255	255	
255	255	255	
255	255	255	
255	255	255	
255	255	255	
255	255	255	
255	255	255	
255	255	255	
255	255	255	
255	255	255	
255	255	255	
255	255	255	
255	255	255	
255	255	255	
255	255	255	
255	255	255	
255	255	255	
255	255	255	
255	255	255	
255	255	255	
255	255	255	
255	255	255	
255	255	255	
255	255	255	
255	255	255	
255	255	255	
255	255	255	
255	255	255	
255	255	255	
255	255	255	
255	255	255	
255	255	255	
255	255	255	
255	255	255	
255	255	255	
255	255	255	
255	255	255	
255	255	255	
255	255	255	
255	255	255	
255	255	255	
255	255	255	
255	255	255	
255	255	255	
255	255	255	
255	255	255	
255	255	255	
255	255	255	
255	255	255	
255	255	255	
255	255	255	
255	255	255	
255	255	255	
255	255	255	
255	255	255	
255	255	255	
255	255	255	
255	255	255	
255	255	255	
255	255	255	
255	255	255	
255	255	255	
255	255	255	
255	255	255	
255	255	255	
255	255	255	
255	255	255	
255	255	255	
255	255	255	
255	255	255	
255	255	255	
255	255	255	
255	255	255	
255	255	255	
255	255	255	
255	255	255	
255	255	255	
255	255	255	
255	255	255	
255	255	255	
255	255	255	
255	255	255	
255	255	255	
255	255	255	
255	255	255	
255	255	255	
255	255	255	
255	255	255	
255	255	255	
255	255	255	
255	255	255	
255	255	255	
255	255	255	
255	255	255	
255	255	255	
255	255	255	
255	255	255	
255	255	255	
255	255	255	
255	255	255	
255	255	255	
255	255	255	
255	255	255	
255	255	255	
255	255	255	
255	255	255	
255	255	255	
255	255	255	
255	255	255	
255	255	255	
255	255	255	
255	255	255	
255	255	255	
255	255	255	
255	255	255	
255	255	255	
255	255	255	
255	255	255	
255	255	255	
255	255	255	
255	255	255	
255	255	255	
255	255	255	
255	255	255	
255	255	255	
255	255	255	
255	255	255	
255	255	255	
255	255	255	
255	255	255	
255	255	255	
255	255	255	
255	255	255	
255	255	255	
255	255	255	
255	255	255	
255	255	255	
255	255	255	
255	255	255	
255	255	255	
255	255	255	
255	255	255	
255	255	255	
255	255	255	
255	255	255	
255	255	255	
255	255	255	
255	255	255	
255	255	255	
255	255	255	
255	255	255	
255	255	255	
255	255	255	
255	255	255	
255	255	255	
255	255	255	
255	255	255	
255	255	255	
255	255	255	
255	255	255	
255	255	255	
255	255	255	
255	255	255	
255	255	255	
255	255	255	
255	255	255	
255	255	255	
255	255	255	
255	255	255	
255	255	255	
255	255	255	
255	255	255	
255	255	255	
255	255	255	
255	255	255	
255	255	255	
255	255	255	
255	255	255	
255	255	255	
255	255	255	
255	255	255	
255	255	255	
255	255	255	
255	255	255	
255	255	255	
255	255	255	
255	255	255	
255	255	255	
255	255	255	
255	255	255	
255	255	255	
255	255	255	
255	255	255	
255	255	255	
255	255	255	
255	255	255	
255	255	255	
255	255	255	
255	255	255	
255	255	255	
255	255	255	
255	255	255	
255	255	255	
255	255	255	
255	255	255	
255	255	255	
255	255	255	
255	255	255	
255	255	255	
255	255	255	
255	255	255	
255	255	255	
255	255	255	
255	255	255	
255	255	255	
255	255	255	
255	255	255	
255	255	255	
255	255	255	
255	255	255	
255	255	255	
255	255	255	
255	255	255	
255	255	255	
255	255	255	
255	255	255	
255	255	255	
255	255	255	
255	255	255	
255	255	255	
255	255	255	
255	255	255	
255	255	255	
255	255	255	
255	255	255	
255	255	255	
255	255	255	
255	255	255	
255	255	255	
255	255	255	
255	255	255	
255	255	255	
255	255	255	
255	255	255	
255	255	255	
255	255	255	
255	255	255	
255	255	255	
255	255	255	
255	255	255	
255	255	255	
255	255	255	
255	255	255	
255	255	255	
255	255	255	
255	255	255	
255	255	255	
255	255	255	
255	255	255	
255	255	255	
255	255	255	
255	255	255	
255	255	255	
255	255	255	
255	255	255	
255	255	255	
255	255	255	
255	255	255	
255	255	255	
255	255	255	
255	255	255	
255	255	255	
255	255	255	
255	255	255	
255	255	255	
255	255	255	
255	255	255	
255	255	255	
255	255	255	
255	255	255	
255	255	255	
255	255	255	
255	255	255	
255	255	255	
255	255	255	
255	255	255	
255	255	255	
255	255	255	
255	255	255	
255	255	255	
255	255	255	
255	255	255	
255	255	255	
255	255	255	
255	255	255	
255	255	255	
255	255	255	
255	255	255	
255	255	255	
255	255	255	
255	255	255	
255	255	255	
255	255	255	
255	255	255	
255	255	255	
255	255	255	
255	255	255	
255	255	255	
255	255	255	
255	255	255	
255	255	255	
255	255	255	
255	255	255	
255	255	255	
255	255	255	
255	255	255	
255	255	255	
255	255	255	
255	255	255	
255	255	255	
255	255	255	
255	255	255	
255	255	255	
255	255	255	
255	255	255	
255	255	255	
255	255	255	
255	255	255	
255	255	255	
255	255	255	
255	255	255	
255	255	255	
255	255	255	
255	255	255	
255	255	255	
255	255	255	
255	255	255	
255	255	255	
255	255	255	
255	255	255	
255	255	255	
255	255	255	
255	255	255	
255	255	255	
255	255	255	
255	255	255	
255	255	255	
255	255	255	
255	255	255	
255	255	255	
255	255	255	
255	255	255	
255	255	255	
255	255	255	
255	255	255	
255	255	255	
255	255	255	
255	255	255	
255	255	255	
255	255	255	
255	255	255	
255	255	255	
255	255	255	
255	255	255	
255	255	255	
255	255	255	
255	255	255	
255	255	255	
255	255	255	
255	255	255	
255	255	255	
255	255	255	
255	255	255	
255	255	255	
255	255	255	
255	255	255	
255	255	255	
255	255	255	
255	255	255	
255	255	255	
255	255	255	
255	255	255	
255	255	255	
255	255	255	
255	255	255	
255	255	255	
255	255	255	
255	255	255	
255	255	255	
255	255	255	
255	255	255	
255	255	255	
255	255	255	
255	255	255	
255	255	255	
255	255	255	
255	255	255	
255	255	255	
255	255	255	
255	255	255	
255	255	255	
255	255	255	
255	255	255	
255	255	255	
255	255	255	
255	255	255	
255	255	255	
255	255	255	
255	255	255	
255	255	255	
255	255	255	
255	255	255	
255	255	255	
255	255	255	
255	255	255	
255	255	255	
255	255	255	
255	255	255	
255	255	255	
255	255	255	
255	255	255	
255	255	255	
255	255	255	
255	255	255	
255	255	255	
255	255	255	
255	255	255	
255	255	255	
255	255	255	
255	255	255	
255	255	255	
255	255	255	
255	255	255	
255	255	255	
255	255	255	
255	255	255	
255	255	255	
255	255	255	
255	255	255	
255	255	255	
255	255	255	
255	255	255	
255	255	255	
255	255	255	
255	255	255	
255	255	255	
255	255	255	
255	255	255	
255	255	255	
255	255	255	
255	255	255	
255	255	255	
255	255	255	
255	255	255	
255	255	255	
255	255	255	
255	255	255	
255	255	255	
255	255	255	
255	255	255	
255	255	255	
255	255	255	
255	255	255	
255	255	255	
255	255	255	
255	255	255	
255	255	255	
255	255	255	
255	255	255	
255	255	255	
255	255	255	
255	255	255	
255	255	255	
255	255	255	
255	255	255	
255	255	255	
255	255	255	
255	255	255	
255	255	255	
255	255	255	
255	255	255	
255	255	255	
255	255	255	
255	255	255	
255	255	255	
255	255	255	
255	255	255	
255	255	255	
255	255	255	
255	255	255	
255	255	255	
255	255	255	
255	255	255	
255	255	255	
255	255	255	
255	255	255	
255	255	255	
255	255	255	
255	255	255	
255	255	255	
255	255	255	
255	255	255	
255	255	255	
255	255	255	
255	255	255	
255	255	255	
255	255	255	
255	255	255	
255	255	255	
255	255	255	
255	255	255	
255	255	255	
255	255	255	
255	255	255	
255	255	255	
255	255	255	
255	255	255	
255	255	255	
255	255	255	
255	255	255	
255	255	255	
255	255	255	
255	255	255	
255	255	255	
255	255	255	
255	255	255	
255	255	255	
255	255	255	
255	255	255	
255	255	255	
255	255	255	
255	255	255	
255	255	255	
255	255	255	
255	255	255	
255	255	255	
255	255	255	
255	255	255	
255	255	255	
255	255	255	
255	255	255	
255	255	255	
255	255	255	
255	255	255	
255	255	255	
255	255	255	
255	255	255	
255	255	255	
255	255	255	
255	255	255	
255	255	255	
255	255	255	
255	255	255	
255	255	255	
255	255	255	
255	255	255	
255	255	255	
255	255	255	
255	255	255	
255	255	255	
255	255	255	
255	255	255	
255	255	255	
255	255	255	
255	255	255	
255	255	255	
255	255	255	
255	255	255	
255	255	255	
255	255	255	
255	255	255	
255	255	255	
255	255	255	
255	255	255	
255	255	255	
255	255	255	
255	255	255	
255	255	255	
255	255	255	
255	255	255	
255	255	255	
255	255	255	
255	255	255	
255	255	255	
255	255	255	
255	255	255	
255	255	255	
255	255	255	
255	255	255	
255	255	255	
255	255	255	
255	255	255	
255	255	255	
255	255	255	
255	255	255	
255	255	255	
255	255	255	
255	255	255	
255	255	255	
255	255	255	
255	255	255	
255	255	255	
255	255	255	
255	255	255	
255	255	255	
255	255	255	
255	255	255	
255	255	255	
255	255	255	
255	255	255	
255	255	255	
255	255	255	
255	255	255	
255	255	255	
255	255	255	
255	255	255	
255	255	255	
255	255	255	
255	255	255	
255	255	255	
255	255	255	
255	255	255	
255	255	255	
255	255	255	
255	255	255	
255	255	255	
255	255	255	
255	255	255	
255	255	255	
255	255	255	
255	255	255	
255	255	255	
255	255	255	
255	255	255	
255	255	255	
255	255	255	
255	255	255	
255	255	255	
255	255	255	
255	255	255	
255	255	255	
255	255	255	
255	255	255	
255	255	255	
255	255	255	
255	255	255	
255	255	255	
255	255	255	
255	255	255	
255	255	255	
255	255	255	
255	255	255	
255	255	255	
255	255	255	
255	255	255	
255	255	255	
255	255	255	
255	255	255	
255	255	255	
255	255	255	
255	255	255	
255	255	255	
255	255	255	
255	255	255	
255	255	255	
255	255	255	
255	255	255	
255	255	255	
255	255	255	
255	255	255	
255	255	255	
255	255	255	
255	255	255	
255	255	255	
255	255	255	
255	255	255	
255	255	255	
255	255	255	
255	255	255	
255	255	255	
255	255	255	
255	255	255	
255	255	255	
255	255	255	
255	255	255	
255	255	255	
255	255	255	
255	255	255	
255	255	255	
255	255	255	
255	255	255	
255	255	255	
255	255	255	
255	255	255	
255	255	255	
255	255	255	
255	255	255	
255	255	255	
255	255	255	
255	255	255	
255	255	255	
255	255	255	
255	255	255	
255	255	255	
255	255	255	
255	255	255	
255	255	255	
255	255	255	
255	255	255	
255	255	255	
255	255	255	
255	255	255	
255	255	255	
255	255	255	
255	255	255	
255	255	255	
255	255	255	
255	255	255	
255	255	255	
255	255	255	
255	255	255	
255	255	255	
255	255	255	
255	255	255	
255	255	255	
255	255	255	
255	255	255	
255	255	255	
255	255	255	
255	255	255	
255	255	255	
255	255	255	
255	255	255	
255	255	255	
255	255	255	
255	255	255	
255	255	255	
255	255	255	
255	255	255	
255	255	255	
255	255	255	
255	255	255	
255	255	255	
255	255	255	
255	255	255	
255	255	255	
255	255	255	
255	255	255	
255	255	255	
255	255	255	
255	255	255	
255	255	255	
255	255	255	
255	255	255	
255	255	255	
255	255	255	
255	255	255	
255	255	255	
255	255	255	
255	255	255	
255	255	255	
255	255	255	
255	255	255	
255	255	255	
255	255	255	
255	255	255	
255	255	255	
255	255	255	
255	255	255	
255	255	255	
255	255	255	
255	255	255	
255	255	255	
255	255	255	
255	255	255	
255	255	255	
255	255	255	
255	255	255	
255	255	255	
255	255	255	
255	255	255	
255	255	255	
255	255	255	
255	255	255	
255	255	255	
255	255	255	
255	255	255	
255	255	255	
255	255	255	
255	255	255	
255	255	255	
255	255	255	
255	255	255	
255	255	255	
255	255	255	
255	255	255	
255	255	255	
255	255	255	
255	255	255	
255	255	255	
255	255	255	
255	255	255	
255	255	255	
255	255	255	
255	255	255	
255	255	255	
255	255	255	
255	255	255	
255	255	255	
255	255	255	
255	255	255	
255	255	255	
255	255	255	
255	255	255	
255	255	255	
255	255	255	
255	255	255	
255	255	255	
255	255	255	
255	255	255	
255	255	255	
255	255	255	
255	255	255	
255	255	255	
255	255	255	
255	255	255	
255	255	255	
255	255	255	
255	255	255	
255	255	255	
255	255	255	
255	255	255	
255	255	255	
255	255	255	
255	255	255	
255	255	255	
255	255	255	
255	255	255	
255	255	255	
255	255	255	
255	255	255	
255	255	255	
255	255	255	
255	255	255	
255	255	255	
255	255	255	
255	255	255	
255	255	255	
255	255	255	
255	255	255	
255	255	255	
255	255	255	
255	255	255	
255	255	255	
255	255	255	
255	255	255	
255	255	255	
255	255	255	
255	255	255	
255	255	255	
255	255	255	
255	255	255	
255	255	255	
255	255	255	
255	255	255	
255	255	255	
255	255	255	
255	255	255	
255	255	255	
255	255	255	
255	255	255	
255	255	255	
255	255	255	
255	255	255	
255	255	255	
255	255	255	
255	255	255	
255	255	255	
255	255	255	
255	255	255	
255	255	255	
255	255	255	
255	255	255	
255	255	255	
255	255	255	
255	255	255	
255	255	255	
255	255	255	
255	255	255	
255	255	255	
255	255	255	
255	255	255	
255	255	255	
255	255	255	
255	255	255	
255	255	255	
255	255	255	
255	255	255	
255	255	255	
255	255	255	
255	255	255	
255	255	255	
255	255	255	
255	255	255	
255	255	255	
255	255	255	
255	255	255	
255	255	255	
255	255	255	
255	255	255	
255	255	255	
255	255	255	
255	255	255	
255	255	255	
255	255	255	
255	255	255	
255	255	255	
255	255	255	
255	255	255	
255	255	255	
255	255	255	
255	255	255	
255	255	255	
255	255	255	
255	255	255	
255	255	255	
255	255	255	
255	255	255	
255	255	255	
255	255	255	
255	255	255	
255	255	255	
255	255	255	
255	255	255	
255	255	255	
255	255	255	
255	255	255	
255	255	255	
255	255	255	
255	255	255	
255	255	255	
255	255	255	
255	255	255	
255	255	255	
255	255	255	
255	255	255	
255	255	255	
255	255	255	
255	255	255	
255	255	255	
255	255	255	
255	255	255	
255	255	255	
255	255	255	
255	255	255	
255	255	255	
255	255	255	
255	255	255	
255	255	255	
255	255	255	
255	255	255	
255	255	255	
255	255	255	
255	255	255	
255	255	255	
255	255	255	
255	255	255	
255	255	255	
255	255	255	
255	255	255	
255	255	255	
255	255	255	
255	255	255	
255	255	255	
255	255	255	
255	255	255	
255	255	255	
255	255	255	
255	255	255	
255	255	255	
255	255	255	
255	255	255	
255	255	255	
255	255	255	
255	255	255	
255	255	255	
255	255	255	
255	255	255	
255	255	255	
255	255	255	
255	255	255	
255	255	255	
255	255	255	
255	255	255	
255	255	255	
255	255	255	
255	255	255	
255	255	255	
255	255	255	
255	255	255	
255	255	255	
255	255	255	
255	255	255	
255	255	255	
255	255	255	
255	255	255	
255	255	255	
255	255	255	
255	255	255	
255	255	255	
255	255	255	
255	255	255	
255	255	255	
255	255	255	
255	255	255	
255	255	255	
255	255	255	
255	255	255	
255	255	255	
255	255	255	
255	255	255	
255	255	255	
255	255	255	
255	255	255	
255	255	255	
255	255	255	
255	255	255	
255	255	255	
255	255	255	
255	255	255	
255	255	255	
255	255	255	
255	255	255	
255	255	255	
255	255	255	
255	255	255	
255	255	255	
255	255	255	
255	255	255	
255	255	255	
255	255	255	
255	255	255	
255	255	255	
255	255	255	
255	255	255	
255	255	255	
255	255	255	
255	255	255	
255	255	255	
255	255	255	
255	255	255	
255	255	255	
255	255	255	
255	255	255	
255	255	255	
255	255	255	
255	255	255	
255	255	255	
255	255	255	
255	255	255	
255	255	255	
255	255	255	
255	255	255	
255	255	255	
255	255	255	
255	255	255	
255	255	255	
255	255	255	
255	255	255	
255	255	255	
255	255	255	
255	255	255	
255	255	255	
255	255	255	
255	255	255	
255	255	255	
255	255	255	
255	255	255	
255	255	255	
255	255	255	
255	255	255	
255	255	255	
255	255	255	
255	255	255	
255	255	255	
255	255	255	
255	255	255	
255	255	255	
255	255	255	
255	255	255	
255	255	255	
255	255	255	
255	255	255	
255	255	255	
255	255	255	
255	255	255	
255	255	255	
255	255	255	
255	255	255	
255	255	255	
255	255	255	
255	255	255	
255	255	255	
255	255	255	
255	255	255	
255	255	255	
255	255	255	
255	255	255	
255	255	255	
255	255	255	
255	255	255	
255	255	255	
255	255	255	
255	255	255	
255	255	255	
255	255	255	
255	255	255	
255	255	255	
255	255	255	
255	255	255	
255	255	255	
255	255	255	
255	255	255	
255	255	255	
255	255	255	
255	255	255	
255	255	255	
255	255	255	
255	255	255	
255	255	255	
255	255	255	
255	255	255	
255	255	255	
255	255	255	
255	255	255	
255	255	255	
255	255	255	
255	255	255	
255	255	255	
255	255	255	
255	255	255	
255	255	255	
255	255	255	
255	255	255	
255	255	255	
255	255	255	
255	255	255	
255	255	255	
255	255	255	
255	255	255	
255	255	255	
255	255	255	
255	255	255	
255	255	255	
255	255	255	
255	255	255	
255	255	255	
255	255	255	
255	255	255	
255	255	255	
255	255	255	
255	255	255	
255	255	255	
255	255	255	
255	255	255	
255	255	255	
255	255	255	
255	255	255	
255	255	255	
255	255	255	
255	255	255	
255	255	255	
255	255	255	
255	255	255	
255	255	255	
255	255	255	
255	255	255	
255	255	255	
255	255	255	
255	255	255	
255	255	255	
255	255	255	
255	255	255	
255	255	255	
255	255	255	
255	255	255	
255	255	255	
255	255	255	
255	255	255	
255	255	255	
255	255	255	
255	255	255	
255	255	255	
255	255	255	
255	255	255	
255	255	255	
255	255	255	
255	255	255	
255	255	255	
255	255	255	
255	255	255	
255	255	255	
255	255	255	
255	255	255	
255	255	255	
255	255	255	
255	255	255	
255	255	255	
255	255	255	
255	255	255	
255	255	255	
255	255	255	
255	255	255	
255	255	255	
255	255	255	
255	255	255	
255	255	255	
255	255	255	
255	255	255	
255	255	255	
255	255	255	
255	255	255	
255	255	255	
255	255	255	
255	255	255	
255	255	255	
255	255	255	
255	255	255	
255	255	255	
255	255	255	
255	255	255	
255	255	255	
255	255	255	
255	255	255	
255	255	255	
255	255	255	
255	255	255	
255	255	255	
255	255	255	
255	255	255	
255	255	255	
255	255	255	
255	255	255	
255	255	255	
255	255	255	
255	255	255	
255	255	255	
255	255	255	
255	255	255	
255	255	255	
255	255	255	
255	255	255	
255	255	255	
255	255	255	
255	255	255	
255	255	255	
255	255	255	
255	255	255	
255	255	255	
255	255	255	
255	255	255	
255	255	255	
255	255	255	
255	255	255	
255	255	255	
255	255	255	
255	255	255	
255	255	255	
255	255	255	
255	255	255	
255	255	255	
255	255	255	
255	255	255	
255	255	255	
255	255	255	
255	255	255	
255	255	255	
255	255	255	
255	255	255	
255	255	255	
255	255	255	
255	255	255	
255	255	255	
255	255	255	
255	255	255	
255	255	255	
255	255	255	
255	255	255	
255	255	255	
255	255	255	
255	255	255	
255	255	255	
255	255	255	
255	255	255	
255	255	255	
255	255	255	
255	255	255	
255	255	255	
255	255	255	
255	255	255	
255	255	255	
255	255	255	
255	255	255	
255	255	255	
255	255	255	
255	255	255	
255	255	255	
255	255	255	
255	255	255	
255	255	255	
255	255	255	
255	255	255	
255	255	255	
255	255	255	
255	255	255	
255	255	255	
255	255	255	
255	255	255	
255	255	255	
255	255	255	
255	255	255	
255	255	255	
255	255	255	
255	255	255	
255	255	255	
255	255	255	
255	255	255	
255	255	255	
255	255	255	
255	255	255	
255	255	255	
255	255	255	
255	255	255	
255	255	255	
255	255	255	
255	255	255	
255	255	255	
255	255	255	
255	255	255	
255	255	255	
255	255	255	
255	255	255	
255	255	255	
255	255	255	
255	255	255	
255	255	255	
255	255	255	
255	255	255	
255	255	255	
255	255	255	
255	255	255	
255	255	255	
255	255	255	
255	255	255	
255	255	255	
255	255	255	
255	255	255	
255	255	255	
255	255	255	
255	255	255	
255	255	255	
255	255	255	
255	255	255	
255	255	255	
255	255	255	
255	255	255	
255	255	255	
255	255	255	
255	255	255	
255	255	255	
255	255	255	
255	255	255	
255	255	255	
255	255	255	
255	255	255	
255	255	255	
255	255	255	
255	255	255	
255	255	255	
255	255	255	
255	255	255	
255	255	255	
255	255	255	
255	255	255	
255	255	255	
255	255	255	
255	255	255	
255	255	255	
255	255	255	
255	255	255	
255	255	255	
255	255	255	
255	255	255	
255	255	255	
255	255	255	
255	255	255	
255	255	255	
255	255	255	
255	255	255	
255	255	255	
255	255	255	
255	255	255	
255	255	255	
255	255	255	
255	255	255	
255	255	255	
255	255	255	
255	255	255	
255	255	255	
255	255	255	
255	255	255	
255	255	255	
255	255	255	
255	255	255	
255	255	255	
255	255	255	
255	255	255	
255	255	255	
255	255	255	
255	255	255	
255	255	255	
255	255	255	
255	255	255	
255	255	255	
255	255	255	
255	255	255	
255	255	255	
255	255	255	
255	255	255	
255	255	255	
255	255	255	
255	255	255	
255	255	255	
255	255	255	
255	255	255	
255	255	255	
255	255	255	
255	255	255	
255	255	255	
255	255	255	
255	255	255	
255	255	255	
255	255	255	
255	255	255	
255	255	255	
255	255	255	
255	255	255	
255	255	255	
255	255	255	
255	255	255	
255	255	255	
255	255	255	
255	255	255	
255	255	255	
255	255	255	
255	255	255	
255	255	255	
255	255	255	
255	255	255	
255	255	255	
255	255	255	
255	255	255	
255	255	255	
255	255	255	
255	255	255	
255	255	255	
255	255	255	
255	255	255	
255	255	255	
255	255	255	
255	255	255	
255	255	255	
255	255	255	
255	255	255	
255	255	255	
255	255	255	
255	255	255	
255	255	255	
255	255	255	
255	255	255	
255	255	255	
255	255	255	
255	255	255	
255	255	255	
255	255	255	
255	255	255	
255	255	255	
255	255	255	
255	255	255	
255	255	255	
255	255	255	
255	255	255	
255	255	255	
255	255	255	
255	255	255	
255	255	255	
255	255	255	
255	255	255	
255	255	255	
255	255	255	
255	255	255	
255	255	255	
255	255	255	
255	255	255	
255	255	255	
255	255	255	
255	255	255	
255	255	255	
255	255	255	
255	255	255	
255	255	255	
255	255	255	
255	255	255	
255	255	255	
255	255	255	
255	255	255	
255	255	255	
255	255	255	
255	255	255	
255	255	255	
255	255	255	
255	255	255	
255	255	255	
255	255	255	
255	255	255	
255	255	255	
255	255	255	
255	255	255	
255	255	255	
255	255	255	
255	255	255	
255	255	255	
255	255	255	
255	255	255	
255	255	255	
255	255	255	
255	255	255	
255	255	255	
255	255	255	
255	255	255	
255	255	255	
255	255	255	
255	255	255	
255	255	255	
255	255	255	
255	255	255	
255	255	255	
255	255	255	
255	255	255	
255	255	255	
255	255	255	
255	255	255	
255	255	255	
255	255	255	
255	255	255	
255	255	255	
255	255	255	
255	255	255	
255	255	255	
255	255	255	
255	255	255	
255	255	255	
255	255	255	
255	255	255	
255	255	255	
255	255	255	
255	255	255	
255	255	255	
255	255	255	
255	255	255	
255	255	255	
255	255	255	
255	255	255	
255	255	255	
255	255	255	
255	255	255	
255	255	255	
255	255	255	
255	255	255	
255	255	255	
255	255	255	
255	255	255	
255	255	255	
255	255	255	
255	255	255	
255	255	255	
255	255	255	
255	255	255	
255	255	255	
255	255	255	
255	255	255	
255	255	255	
255	255	255	
255	255	255	
255	255	255	
255	255	255	
255	255	255	
255	255	255	
255	255	255	
255	255	255	
255	255	255	
255	255	255	
255	255	255	
255	255	255	
255	255	255	
255	255	255	
255	255	255	
255	255	255	
255	255	255	
255	255	255	
255	255	255	
255	255	255	
255	255	255	
255	255	255	
255	255	255	
255	255	255	
255	255	255	
255	255	255	
255	255	255	
255	255	255	
255	255	255	
255	255	255	
255	255	255	
255	255	255	
255	255	255	
255	255	255	
255	255	255	
255	255	255	
255	255	255	
255	255	255	
255	255	255	
255	255	255	
255	255	255	
255	255	255	
255	255	255	
255	255	255	
255	255	255	
255	255	255	
255	255	255	
255	255	255	
255	255	255	
255	255	255	
255	255	255	
255	255	255	
255	255	255	
255	255	255	
255	255	255	
255	255	255	
255	255	255	
255	255	255	
255	255	255	
255	255	255	
255	255	255	
255	255	255	
255	255	255	
255	255	255	
255	255	255	
255	255	255	
255	255	255	
255	255	255	
255	255	255	
255	255	255	
255	255	255	
255	255	255	
255	255	255	
255	255	255	
255	255	255	
255	255	255	
255	255	255	
255	255	255	
255	255	255	
255	255	255	
255	255	255	
255	255	255	
255	255	255	
255	255	255	
255	255	255	
255	255	255	
255	255	255	
255	255	255	
255	255	255	
255	255	255	
255	255	255	
255	255	255	
255	255	255	
255	255	255	
255	255	255	
255	255	255	
255	255	255	
255	255	255	
255	255	255	
255	255	255	
255	255	255	
255	255	255	
255	255	255	
255	255	255	
255	255	255	
255	255	255	
255	255	255	
255	255	255	
255	255	255	
255	255	255	
255	255	255	
255	255	255	
255	255	255	
255	255	255	
255	255	255	
255	255	255	
255	255	255	
255	255	255	
255	255	255	
255	255	255	
255	255	255	
255	255	255	
255	255	255	
255	255	255	
255	255	255	
255	255	255	
255	255	255	
255	255	255	
255	255	255	
255	255	255	
255	255	255	
255	255	255	
255	255	255	
255	255	255	
255	255	255	
255	255	255	
255	255	255	
255	255	255	
255	255	255	
255	255	255	
255	255	255	
255	255	255	
255	255	255	
255	255	255	
255	255	255	
255	255	255	
255	255	255	
255	255	255	
255	255	255	
255	255	255	
255	255	255	
255	255	255	
255	255	255	
255	255	255	
255	255	255	
255	255	255	
255	255	255	
255	255	255	
255	255	255	
255	255	255	
255	255	255	
255	255	255	
255	255	255	
255	255	255	
255	255	255	
255	255	255	
255	255	255	
255	255	255	
255	255	255	
255	255	255	
255	255	255	
255	255	255	
255	255	255	
255	255	255	
255	255	255	
255	255	255	
255	255	255	
255	255	255	
255	255	255	
255	255	255	
255	255	255	
255	255	255	
255	255	255	
255	255	255	
255	255	255	
255	255	255	
255	255	255	
255	255	255	
255	255	255	
255	255	255	
255	255	255	
255	255	255	
255	255	255	
255	255	255	
255	255	255	
255	255	255	
255	255	255	
255	255	255	
255	255	255	
255	255	255	
255	255	255	
255	255	255	
255	255	255	
255	255	255	
255	255	255	
255	255	255	
255	255	255	
255	255	255	
255	255	255	
255	255	255	
255	255	255	
255	255	255	
255	255	255	
255	255	255	
255	255	255	
255	255	255	
255	255	255	
255	255	255	
255	255	255	
255	255	255	
255	255	255	
255	255	255	
255	255	255	
255	255	255	
255	255	255	
255	255	255	
255	255	255	
255	255	255	
255	255	255	
255	255	255	
255	255	255	
255	255	255	
255	255	255	
255	255	255	
255	255	255	
255	255	255	
255	255	255	
255	255	255	
255	255	255	
255	255	255	
255	255	255	
255	255	255	
255	255	255	
255	255	255	
255	255	255	
255	255	255	
255	255	255	
255	255	255	
255	255	255	
255	255	255	
255	255	255	
255	255	255	
255	255	255	
255	255	255	
255	255	255	
255	255	255	
255	255	255	
255	255	255	
255	255	255	
255	255	255	
255	255	255	
255	255	255	
255	255	255	
255	255	255	
255	255	255	
255	255	255	
255	255	255	
255	255	255	
255	255	255	
255	255	255	
255	255	255	
255	255	255	
255	255	255	
255	255	255	
255	255	255	
255	255	255	
255	255	255	
255	255	255	
255	255	255	
255	255	255	
255	255	255	
255	255	255	
255	255	255	
255	255	255	
255	255	255	
255	255	255	
255	255	255	
255	255	255	
255	255	255	
255	255	255	
255	255	255	
255	255	255	
255	255	255	
255	255	255	
255	255	255	
255	255	255	
255	255	255	
255	255	255	
255	255	255	
255	255	255	
255	255	255	
255	255	255	
255	255	255	
255	255	255	
255	255	255	
255	255	255	
255	255	255	
255	255	255	
255	255	255	
255	255	255	
255	255	255	
255	255	255	
255	255	255	
255	255	255	
255	255	255	
255	255	255	
255	255	255	
255	255	255	
255	255	255	
255	255	255	
255	255	255	
255	255	255	
255	255	255	
255	255	255	
255	255	255	
255	255	255	
255	255	255	
255	255	255	
255	255	255	
255	255	255	
255	255	255	
255	255	255	
255	255	255	
255	255	255	
255	255	255	
255	255	255	
255	255	255	
255	255	255	
255	255	255	
255	255	255	
255	255	255	
255	255	255	
255	255	255	
255	255	255	
255	255	255	
255	255	255	
255	255	255	
255	255	255	
255	255	255	
255	255	255	
255	255	255	
255	255	255	
255	255	255	
255	255	255	
255	255	255	
255	255	255	
255	255	255	
255	255	255	
255	255	255	
255	255	255	
255	255	255	
255	255	255	
255	255	255	
255	255	255	
255	255	255	
255	255	255	
255	255	255	
255	255	255	
255	255	255	
255	255	255	
255	255	255	
255	255	255	
255	255	255	
255	255	255	
255	255	255	
255	255	255	
255	255	255	
255	255	255	
255	255	255	
255	255	255	
255	255	255	
255	255	255	
255	255	255	
255	255	255	
255	255	255	
255	255	255	
255	255	255	
255	255	255	
255	255	255	
255	255	255	
255	255	255	
255	255	255	
255	255	255	
255	255	255	
255	255	255	
255	255	255	
255	255	255	
255	255	255	
255	255	255	
255	255	255	
255	255	255	
255	255	255	
255	255	255	
255	255	255	
255	255	255	
255	255	255	
255	255	255	
255	255	255	
255	255	255	
255	255	255	
255	255	255	
255	255	255	
255	255	255	
255	255	255	
255	255	255	
255	255	255	
255	255	255	
255	255	255	
255	255	255	
255	255	255	
255	255	255	
255	255	255	
255	255	255	
255	255	255	
255	255	255	
255	255	255	
255	255	255	
255	255	255	
255	255	255	
255	255	255	
255	255	255	
255	255	255	
255	255	255	
255	255	255	
255	255	255	
255	255	255	
255	255	255	
255	255	255	
255	255	255	
255	255	255	
255	255	255	
255	255	255	
255	255	255	
255	255	255	
255	255	255	
255	255	255	
255	255	255	
255	255	255	
255	255	255	
255	255	255	
255	255	255	
255	255	255	
255	255	255	
255	255	255	
255	255	255	
255	255	255	
255	255	255	
255	255	255	
255	255	255	
255	255	255	
255	255	255	
255	255	255	
255	255	255	
255	255	255	
255	255	255	
255	255	255	
255	255	255	
255	255	255	
255	255	255	
255	255	255	
255	255	255	
255	255	255	
255	255	255	
255	255	255	
255	255	255	
255	255	255	
255	255	255	
255	255	255	
255	255	255	
255	255	255	
255	255	255	
255	255	255	
255	255	255	
255	255	255	
255	255	255	
255	255	255	
255	255	255	
255	255	255	
255	255	255	
255	255	255	
255	255	255	
255	255	255	
255	255	255	
255	255	255	
255	255	255	
255	255	255	
255	255	255	
255	255	255	
255	255	255	
255	255	255	
255	255	255	
255	255	255	
255	255	255	
255	255	255	
255	255	255	
255	255	255	
255	255	255	
255	255	255	
255	255	255	
255	255	255	
255	255	255	
255	255	255	
255	255	255	
255	255	255	
255	255	255	
255	255	255	
255	255	255	
255	255	255	
255	255	255	
255	255	255	
255	255	255	
255	255	255	
255	255	255	
255	255	255	
255	255	255	
255	255	255	
255	255	255	
255	255	255	
255	255	255	
255	255	255	
255	255	255	
255	255	255	
255	255	255	
255	255	255	
255	255	255	
255	255	255	
255	255	255	
255	255	255	
255	255	255	
255	255	255	
255	255	255	
255	255	255	
255	255	255	
255	255	255	
255	255	255	
255	255	255	
255	255	255	
255	255	255	
255	255	255	
255	255	255	
255	255	255	
255	255	255	
255	255	255	
255	255	255	
255	255	255	
255	255	255	
255	255	255	
255	255	255	
255	255	255	
255	255	255	
255	255	255	
255	255	255	
255	255	255	
255	255	255	
255	255	255	
255	255	255	
255	255	255	
255	255	255	
255	255	255	
255	255	255	
255	255	255	
255	255	255	
255	255	255	
255	255	255	
255	255	255	
255	255	255	
255	255	255	
255	255	255	
255	255	255	
255	255	255	
255	255	255	
255	255	255	
255	255	255	
255	255	255	
255	255	255	
255	255	255	
255	255	255	
255	255	255	
255	255	255	
255	255	255	
255	255	255	
255	255	255	
255	255	255	
255	255	255	
255	255	255	
255	255	255	
255	255	255	
255	255	255	
255	255	255	
255	255	255	
255	255	255	
255	255	255	
255	255	255	
255	255	255	
255	255	255	
255	255	255	
255	255	255	
255	255	255	
255	255	255	
255	255	255	
255	255	255	
255	255	255	
255	255	255	
255	255	255	
255	255	255	
255	255	255	
255	255	255	
255	255	255	
255	255	255	
255	255	255	
255	255	255	
255	255	255	
255	255	255	
255	255	255	
255	255	255	
255	255	255	
255	255	255	
255	255	255	
255	255	255	
255	255	255	
255	255	255	
255	255	255	
255	255	255	
255	255	255	
255	255	255	
255	255	255	
255	255	255	
255	255	255	
255	255	255	
255	255	255	
255	255	255	
255	255	255	
255	255	255	
255	255	255	
255	255	255	
255	255	255	
255	255	255	
255	255	255	
255	255	255	
255	255	255	
255	255	255	
255	255	255	
255	255	255	
255	255	255	
255	255	255	
255	255	255	
255	255	255	
255	255	255	
255	255	255	
255	255	255	
255	255	255	
255	255	255	
255	255	255	
255	255	255	
255	255	255	
255	255	255	
255	255	255	
255	255	255	
255	255	255	
255	255	255	
255	255	255	
255	255	255	
255	255	255	
255	255	255	
255	255	255	
255	255	255	
255	255	255	
255	255	255	
255	255	255	
255	255	255	
255	255	255	
255	255	255	
255	255	255	
255	255	255	
255	255	255	
255	255	255	
255	255	255	
255	255	255	
255	255	255	
255	255	255	
255	255	255	
255	255	255	
255	255	255	
255	255	255	
255	255	255	
255	255	255	
255	255	255	
255	255	255	
255	255	255	
255	255	255	
255	255	255	
255	255	255	
255	255	255	
255	255	255	
255	255	255	
255	255	255	
255	255	255	
255	255	255	
255	255	255	
255	255	255	
255	255	255	
255	255	255	
255	255	255	
255	255	255	
255	255	255	
255	255	255	
255	255	255	
255	255	255	
255	255	255	
255	255	255	
255	255	255	
255	255	255	
255	255	255	
255	255	255	
255	255	255	
255	255	255	
255	255	255	
255	255	255	
255	255	255	
255	255	255	
255	255	255	
255	255	255	
255	255	255	
255	255	255	
255	255	255	
255	255	255	
255	255	255	
255	255	255	
255	255	255	
255	255	255	
255	255	255	
255	255	255	
255	255	255	
255	255	255	
255	255	255	
255	255	255	
255	255	255	
255	255	255	
255	255	255	
255	255	255	
255	255	255	
255	255	255	
255	255	255	
255	255	255	
255	255	255	
255	255	255	
255	255	255	
255	255	255	
255	255	255	
255	255	255	
255	255	255	
255	255	255	
255	255	255	
255	255	255	
255	255	255	
255	255	255	
255	255	255	
255	255	255	
255	255	255	
255	255	255	
255	255	255	
255	255	255	
255	255	255	
255	255	255	
255	255	255	
255	255	255	
255	255	255	
255	255	255	
255	255	255	
255	255	255	
255	255	255	
255	255	255	
255	255	255	
255	255	255	
255	255	255	
255	255	255	
255	255	255	
255	255	255	
255	255	255	
255	255	255	
255	255	255	
255	255	255	
255	255	255	
255	255	255	
255	255	255	
255	255	255	
255	255	255	
255	255	255	
255	255	255	
255	255	255	
255	255	255	
255	255	255	
255	255	255	
255	255	255	
255	255	255	
255	255	255	
255	255	255	
255	255	255	
255	255	255	
255	255	255	
255	255	255	
255	255	255	
255	255	255	
255	255	255	
255	255	255	
255	255	255	
255	255	255	
255	255	255	
255	255	255	
255	255	255	
255	255	255	
255	255	255	
255	255	255	
255	255	255	
255	255	255	
255	255	255	
255	255	255	
255	255	255	
255	255	255	
255	255	255	
255	255	255	
255	255	255	
255	255	255	
255	255	255	
255	255	255	
255	255	255	
255	255	255	
255	255	255	
255	255	255	
255	255	255	
255	255	255	
255	255	255	
255	255	255	
255	255	255	
255	255	255	
255	255	255	
255	255	255	
255	255	255	
255	255	255	
255	255	255	
255	255	255	
255	255	255	
255	255	255	
255	255	255	
255	255	255	
255	255	255	
255	255	255	
255	255	255	
255	255	255	
255	255	255	
255	255	255	
255	255	255	
255	255	255	
255	255	255	
255	255	255	
255	255	255	
255	255	255	
255	255	255	
255	255	255	
255	255	255	
255	255	255	
255	255	255	
255	255	255	
255	255	255	
255	255	255	
255	255	255	
255	255	255	
255	255	255	
255	255	255	
255	255	255	
255	255	255	
255	255	255	
255	255	255	
255	255	255	
255	255	255	
255	255	255	
255	255	255	
255	255	255	
255	255	255	
255	255	255	
255	255	255	
255	255	255	
255	255	255	
255	255	255	
255	255	255	
255	255	255	
255	255	255	
255	255	255	
255	255	255	
255	255	255	
255	255	255	
255	255	255	
255	255	255	
255	255	255	
255	255	255	
255	255	255	
255	255	255	
255	255	255	
255	255	255	
255	255	255	
255	255	255	
255	255	255	
255	255	255	
255	255	255	
255	255	255	
255	255	255	
255	255	255	
255	255	255	
255	255	255	
255	255	255	
255	255	255	
255	255	255	
255	255	255	
255	255	255	
255	255	255	
255	255	255	
255	255	255	
255	255	255	
255	255	255	
255	255	255	
255	255	255	
255	255	255	
255	255	255	
255	255	255	
255	255	255	
255	255	255	
255	255	255	
255	255	255	
255	255	255	
255	255	255	
255	255	255	
255	255	255	
255	255	255	
255	255	255	
255	255	255	
255	255	255	
255	255	255	
255	255	255	
255	255	255	
255	255	255	
255	255	255	
255	255	255	
255	255	255	
255	255	255	
255	255	255	
255	255	255	
255	255	255	
255	255	255	
255	255	255	
255	255	255	
255	255	255	
255	255	255	
255	255	255	
255	255	255	
255	255	255	
255	255	255	
255	255	255	
255	255	255	
255	255	255	
255	255	255	
255	255	255	
255	255	255	
255	255	255	
255	255	255	
255	255	255	
255	255	255	
255	255	255	
255	255	255	
255	255	255	
255	255	255	
255	255	255	
255	255	255	
255	255	255	
255	255	255	
255	255	255	
255	255	255	
255	255	255	
255	255	255	
255	255	255	
255	255	255	
255	255	255	
255	255	255	
255	255	255	
255	255	255	
255	255	255	
255	255	255	
255	255	255	
255	255	255	
255	255	255	
255	255	255	
255	255	255	
255	255	255	
255	255	255	
255	255	255	
255	255	255	
255	255	255	
255	255	255	
255	255	255	
255	255	255	
255	255	255	
255	255	255	
255	255	255	
255	255	255	
255	255	255	
255	255	255	
255	255	255	
255	255	255	
255	255	255	
255	255	255	
255	255	255	
255	255	255	
255	255	255	
255	255	255	
255	255	255	
255	255	255	
255	255	255	
255	255	255	
255	255	255	
255	255	255	
255	255	255	
255	255	255	
255	255	255	
255	255	255	
255	255	255	
255	255	255	
255	255	255	
255	255	255	
255	255	255	
255	255	255	
255	255	255	
255	255	255	
255	255	255	
255	255	255	
255	255	255	
255	255	255	
255	255	255	
255	255	255	
255	255	255	
255	255	255	
255	255	255	
255	255	255	
255	255	255	
255	255	255	
255	255	255	
255	255	255	
255	255	255	
255	255	255	
255	255	255	
255	255	255	
255	255	255	
255	255	255	
255	255	255	
255	255	255	
255	255	255	
255	255	255	
255	255	255	
255	255	255	
255	255	255	
255	255	255	
255	255	255	
255	255	255	
255	255	255	
255	255	255	
255	255	255	
255	255	255	
255	255	255	
255	255	255	
255	255	255	
255	255	255	
255	255	255	
255	255	255	
255	255	255	
255	255	255	
255	255	255	
255	255	255	
255	255	255	
255	255	255	
255	255	255	
255	255	255	
255	255	255	
255	255	255	
255	255	255	
255	255	255	
255	255	255	
255	255	255	
255	255	255	
255	255	255	
255	255	255	
255	255	255	
255	255	255	
255	255	255	
255	255	255	
255	255	255	
255	255	255	
255	255	255	
255	255	255	
255	255	255	
255	255	255	
255	255	255	
255	255	255	
255	255	255	
255	255	255	
255	255	255	
255	255	255	
255	255	255	
255	255	255	
255	255	255	
255	255	255	
255	255	255	
255	255	255	
255	255	255	
255	255	255	
255	255	255	
255	255	255	
255	255	255	
255	255	255	
255	255	255	
255	255	255	
255	255	255	
255	255	255	
255	255	255	
255	255	255	
255	255	255	
255	255	255	
255	255	255	
255	255	255	
255	255	255	
255	255	255	
255	255	255	
255	255	255	
255	255	255	
255	255	255	
255	255	255	
255	255	255	
255	255	255	
255	255	255	
255	255	255	
255	255	255	
255	255	255	
255	255	255	
255	255	255	
255	255	255	
255	255	255	
255	255	255	
255	255	255	
255	255	255	
255	255	255	
255	255	255	
255	255	255	
255	255	255	
255	255	255	
255	255	255	
255	255	255	
255	255	255	
255	255	255	
255	255	255	
255	255	255	
255	255	255	
255	255	255	
255	255	255	
255	255	255	
255	255	255	
255	255	255	
255	255	255	
255	255	255	
255	255	255	
255	255	255	
255	255	255	
255	255	255	
255	255	255	
255	255	255	
255	255	255	
255	255	255	
255	255	255	
255	255	255	
255	255	255	
255	255	255	
255	255	255	
255	255	255	
255	255	255	
255	255	255	
255	255	255	
255	255	255	
255	255	255	
255	255	255	
255	255	255	
255	255	255	
255	255	255	
255	255	255	
255	255	255	
255	255	255	
255	255	255	
255	255	255	
255	255	255	
255	255	255	
255	255	255	
255	255	255	
255	255	255	
255	255	255	
255	255	255	
255	255	255	
255	255	255	
255	255	255	
255	255	255	
255	255	255	
255	255	255	
255	255	255	
255	255	255	
255	255	255	
255	255	255	
255	255	255	
255	255	255	
255	255	255	
255	255	255	
255	255	255	
255	255	255	
255	255	255	
255	255	255	
255	255	255	
255	255	255	
255	255	255	
255	255	255	
255	255	255	
255	255	255	
255	255	255	
255	255	255	
255	255	255	
255	255	255	
255	255	255	
255	255	255	
255	255	255	
255	255	255	
255	255	255	
255	255	255	
255	255	255	
255	255	255	
255	255	255	
255	255	255	
255	255	255	
255	255	255	
255	255	255	
255	255	255	
255	255	255	
255	255	255	
255	255	255	
255	255	255	
255	255	255	
255	255	255	
255	255	255	
255	255	255	
255	255	255	
255	255	255	
255	255	255	
255	255	255	
255	255	255	
255	255	255	
255	255	255	
255	255	255	
255	255	255	
255	255	255	
255	255	255	
255	255	255	
255	255	255	
255	255	255	
255	255	255	
255	255	255	
255	255	255	
255	255	255	
255	255	255	
255	255	255	
255	255	255	
255	255	255	
255	255	255	
255	255	255	
255	255	255	
255	255	255	
255	255	255	
255	255	255	
255	255	255	
255	255	255	
255	255	255	
255	255	255	
255	255	255	
255	255	255	
255	255	255	
255	255	255	
255	255	255	
255	255	255	
255	255	255	
255	255	255	
255	255	255	
255	255	255	
255	255	255	
255	255	255	
255	255	255	
255	255	255	
255	255	255	
255	255	255	
255	255	255	
255	255	255	
255	255	255	
255	255	255	
255	255	255	
255	255	255	
255	255	255	
255	255	255	
255	255	255	
255	255	255	
255	255	255	
255	255	255	
255	255	255	
255	255	255	
255	255	255	
255	255	255	
255	255	255	
255	255	255	
255	255	255	
255	255	255	
255	255	255	
255	255	255	
255	255	255	
255	255	255	
255	255	255	
255	255	255	
255	255	255	
255	255	255	
255	255	255	
255	255	255	
255	255	255	
255	255	255	
255	255	255	
255	255	255	
255	255	255	
255	255	255	
255	255	255	
255	255	255	
255	255	255	
255	255	255	
255	255	255	
255	255	255	
255	255	255	
255	255	255	
255	255	255	
255	255	255	
255	255	255	
255	255	255	
255	255	255	
255	255	255	
255	255	255	
255	255	255	
255	255	255	
255	255	255	
255	255	255	
255	255	255	
255	255	255	
255	255	255	
255	255	255	
255	255	255	
255	255	255	
255	255	255	
255	255	255	
255	255	255	
255	255	255	
255	255	255	
255	255	255	
255	255	255	
255	255	255	
255	255	255	
255	255	255	
255	255	255	
255	255	255	
255	255	255	
255	255	255	
255	255	255	
255	255	255	
255	255	255	
255	255	255	
255	255	255	
255	255	255	
255	255	255	
255	255	255	
255	255	255	
255	255	255	
255	255	255	
255	255	255	
255	255	255	
255	255	255	
255	255	255	
255	255	255	
255	255	255	
255	255	255	
255	255	255	
255	255	255	
255	255	255	
255	255	255	
255	255	255	
255	255	255	
255	255	255	
255	255	255	
255	255	255	
255	255	255	
255	255	255	
255	255	255	
255	255	255	
255	255	255	
255	255	255	
255	255	255	
255	255	255	
255	255	255	
255	255	255	
255	255	255	
255	255	255	
255	255	255	
255	255	255	
255	255	255	
255	255	255	
255	255	255	
255	255	255	
255	255	255	
255	255	255	
255	255	255	
255	255	255	
255	255	255	
255	255	255	
255	255	255	
255	255	255	
255	255	255	
255	255	255	
255	255	255	
255	255	255	
255	255	255	
255	255	255	
255	255	255	
255	255	255	
255	255	255	
255	255	255	
255	255	255	
255	255	255	
255	255	255	
255	255	255	
255	255	255	
255	255	255	
255	255	255	
255	255	255	
255	255	255	
255	255	255	
255	255	255	
255	255	255	
255	255	255	
255	255	255	
255	255	255	
255	255	255	
255	255	255	
255	255	255	
255	255	255	
255	255	255	
255	255	255	
255	255	255	
255	255	255	
255	255	255	
255	255	255	
255	255	255	
255	255	255	
255	255	255	
255	255	255	
255	255	255	
255	255	255	
255	255	255	
255	255	255	
255	255	255	
255	255	255	
255	255	255	
255	255	255	
255	255	255	
255	255	255	
255	255	255	
255	255	255	
255	255	255	
255	255	255	
255	255	255	
255	255	255	
255	255	255	
255	255	255	
255	255	255	
255	255	255	
255	255	255	
255	255	255	
255	255	255	
255	255	255	
255	255	255	
255	255	255	
255	255	255	
255	255	255	
255	255	255	
255	255	255	
255	255	255	
255	255	255	
255	255	255	
255	255	255	
255	255	255	
255	255	255	
255	255	255	
255	255	255	
255	255	255	
255	255	255	
255	255	255	
255	255	255	
255	255	255	
255	255	255	
255	255	255	
255	255	255	
255	255	255	
255	255	255	
255	255	255	
255	255	255	
255	255	255	
255	255	255	
255	255	255	
255	255	255	
255	255	255	
255	255	255	
255	255	255	
255	255	255	
255	255	255	
255	255	255	
255	255	255	
255	255	255	
255	255	255	
255	255	255	
255	255	255	
255	255	255	
255	255	255	
255	255	255	
255	255	255	
255	255	255	
255	255	255	
255	255	255	
255	255	255	
255	255	255	
255	255	255	
255	255	255	
255	255	255	
255	255	255	
255	255	255	
255	255	255	
255	255	255	
255	255	255	
255	255	255	
255	255	255	
255	255	255	
255	255	255	
255	255	255	
255	255	255	
255	255	255	
255	255	255	
255	255	255	
255	255	255	
255	255	255	
255	255	255	
255	255	255	
255	255	255	
255	255	255	
255	255	255	
255	255	255	
255	255	255	
255	255	255	
255	255	255	
255	255	255	
255	255	255	
255	255	255	
255	255	255	
255	255	255	
255	255	255	
255	255	255	
255	255	255	
255	255	255	
255	255	255	
255	255	255	
255	255	255	
255	255	255	
255	255	255	
255	255	255	
255	255	255	
255	255	255	
255	255	255	
255	255	255	
255	255	255	
255	255	255	
255	255	255	
255	255	255	
255	255	255	
255	255	255	
255	255	255	
255	255	255	
255	255	255	
255	255	255	
255	255	255	
255	255	255	
255	255	255	
255	255	255	
255	255	255	
255	255	255	
255	255	255	
255	255	255	
255	255	255	
255	255	255	
255	255	255	
255	255	255	
255	255	255	
255	255	255	
255	255	255	
255	255	255	
255	255	255	
255	255	255	
255	255	255	
255	255	255	
255	255	255	
255	255	255	
255	255	255	
255	255	255	
255	255	255	
255	255	255	
255	255	255	
255	255	255	
255	255	255	
255	255	255	
255	255	255	
255	255	255	
255	255	255	
255	255	255	
255	255	255	
255	255	255	
255	255	255	
255	255	255	
255	255	255	
255	255	255	
255	255	255	
255	255	255	
255	255	255	
255	255	255	
255	255	255	
255	255	255	
255	255	255	
255	255	255	
255	255	255	
255	255	255	
255	255	255	
255	255	255	
255	255	255	
255	255	255	
255	255	255	
255	255	255	
255	255	255	
255	255	255	
255	255	255	
255	255	255	
255	255	255	
255	255	255	
255	255	255	
255	255	255	
255	255	255	
255	255	255	
255	255	255	
255	255	255	
255	255	255	
255	255	255	
255	255	255	
255	255	255	
255	255	255	
255	255	255	
255	255	255	
255	255	255	
255	255	255	
255	255	255	
255	255	255	
255	255	255	
255	255	255	
255	255	255	
255	255	255	
255	255	255	
255	255	255	
255	255	255	
255	255	255	
255	255	255	
255	255	255	
255	255	255	
255	255	255	
255	255	255	
255	255	255	
255	255	255	
255	255	255	
255	255	255	
255	255	255	
255	255	255	
255	255	255	
255	255	255	
255	255	255	
255	255	255	
255	255	255	
255	255	255	
255	255	255	
255	255	255	
255	255	255	
255	255	255	
255	255	255	
255	255	255	
255	255	255	
255	255	255	
255	255	255	
255	255	255	
255	255	255	
255	255	255	
255	255	255	
255	255	255	
255	255	255	
255	255	255	
255	255	255	
255	255	255	
255	255	255	
255	255	255	
255	255	255	
255	255	255	
255	255	255	
255	255	255	
255	255	255	
255	255	255	
255	255	255	
255	255	255	
255	255	255	
255	255	255	
255	255	255	
255	255	255	
255	255	255	
255	255	255	
255	255	255	
255	255	255	
255	255	255	
255	255	255	
255	255	255	
255	255	255	
255	255	255	
255	255	255	
255	255	255	
255	255	255	
255	255	255	
255	255	255	
255	255	255	
255	255	255	
255	255	255	
255	255	255	
255	255	255	
255	255	255	
255	255	255	
255	255	255	
255	255	255	
255	255	255	
255	255	255	
255	255	255	
255	255	255	
255	255	255	
255	255	255	
255	255	255	
255	255	255	
255	255	255	
255	255	255	
255	255	255	
255	255	255	
255	255	255	
255	255	255	
255	255	255	
255	255	255	
255	255	255	
255	255	255	
255	255	255	
255	255	255	
255	255	255	
255	255	255	
255	255	255	
255	255	255	
255	255	255	
255	255	255	
255	255	255	
255	255	255	
255	255	255	
255	255	255	
255	255	255	
255	255	255	
255	255	255	
255	255	255	
255	255	255	
255	255	255	
255	255	255	
255	255	255	
255	255	255	
255	255	255	
255	255	255	
255	255	255	
255	255	255	
255	255	255	
255	255	255	
255	255	255	
255	255	255	
255	255	255	
255	255	255	
255	255	255	
255	255	255	
255	255	255	
255	255	255	
255	255	255	
255	255	255	
255	255	255	
255	255	255	
255	255	255	
255	255	255	
255	255	255	
255	255	255	
255	255	255	
255	255	255	
255	255	255	
255	255	255	
255	255	255	
255	255	255	
255	255	255	
255	255	255	
255	255	255	
255	255	255	
255	255	255	
255	255	255	
255	255	255	
255	255	255	
255	255	255	
255	255	255	
255	255	255	
255	255	255	
255	255	255	
255	255	255	
255	255	255	
255	255	255	
255	255	255	
255	255	255	
255	255	255	
255	255	255	
255	255	255	
255	255	255	
255	255	255	
255	255	255	
255	255	255	
255	255	255	
255	255	255	
255	255	255	
255	255	255	
255	255	255	
255	255	255	
255	255	255	
255	255	255	
255	255	255	
255	255	255	
255	255	255	
255	255	255	
255	255	255	
255	255	255	
255	255	255	
255	255	255	
255	255	255	
255	255	255	
255	255	255	
255	255	255	
255	255	255	
255	255	255	
255	255	255	
255	255	255	
255	255	255	
255	255	255	
255	255	255	
255	255	255	
255	255	255	
255	255	255	
255	255	255	
255	255	255	
255	255	255	
255	255	255	
255	255	255	
255	255	255	
255	255	255	
255	255	255	
255	255	255	
255	255	255	
255	255	255	
255	255	255	
255	255	255	
255	255	255	
255	255	255	
255	255	255	
255	255	255	
255	255	255	
255	255	255	
255	255	255	
255	255	255	
255	255	255	
255	255	255	
255	255	255	
255	255	255	
255	255	255	
255	255	255	
255	255	255	
255	255	255	
255	255	255	
255	255	255	
255	255	255	
255	255	255	
255	255	255	
255	255	255	
255	255	255	
255	255	255	
255	255	255	
255	255	255	
255	255	255	
255	255	255	
255	255	255	
255	255	255	
255	255	255	
255	255	255	
255	255	255	
255	255	255	
255	255	255	
255	255	255	
255	255	255	
255	255	255	
255	255	255	
255	255	255	
255	255	255	
255	255	255	
255	255	255	
255	255	255	
255	255	255	
255	255	255	
255	255	255	
255	255	255	
255	255	255	
255	255	255	
255	255	255	
255	255	255	
255	255	255	
255	255	255	
255	255	255	
255	255	255	
255	255	255	
255	255	255	
255	255	255	
255	255	255	
255	255	255	
255	255	255	
255	255	255	
255	255	255	
255	255	255	
255	255	255	
255	255	255	
255	255	255	
255	255	255	
255	255	255	
255	255	255	
255	255	255	
255	255	255	
255	255	255	
255	255	255	
255	255	255	
255	255	255	
255	255	255	
255	255	255	
255	255	255	
255	255	255	
255	255	255	
255	255	255	
255	255	255	
255	255	255	
255	255	255	
255	255	255	
255	255	255	
255	255	255	
255	255	255	
255	255	255	
255	255	255	
255	255	255	
255	255	255	
255	255	255	
255	255	255	
255	255	255	
255	255	255	
255	255	255	
255	255	255	
255	255	255	
255	255	255	
255	255	255	
255	255	255	
255	255	255	
255	255	255	
255	255	255	
255	255	255	
255	255	255	
255	255	255	
255	255	255	
255	255	255	
255	255	255	
255	255	255	
255	255	255	
255	255	255	
255	255	255	
255	255	255	
255	255	255	
255	255	255	
255	255	255	
255	255	255	
255	255	255	
255	255	255	
255	255	255	
255	255	255	
255	255	255	
255	255	255	
255	255	255	
255	255	255	
255	255	255	
255	255	255	
255	255	255	
255	255	255	
255	255	255	
255	255	255	
255	255	255	
255	255	255	
255	255	255	
255	255	255	
255	255	255	
255	255	255	
255	255	255	
255	255	255	
255	255	255	
255	255	255	
255	255	255	
255	255	255	
255	255	255	
255	255	255	
255	255	255	
255	255	255	
255	255	255	
255	255	255	
255	255	255	
255	255	255	
255	255	255	
255	255	255	
255	255	255	
255	255	255	
255	255	255	
255	255	255	
255	255	255	
255	255	255	
255	255	255	
255	255	255	
255	255	255	
255	255	255	
255	255	255	
255	255	255	
255	255	255	
255	255	255	
255	255	255	
255	255	255	
255	255	255	
255	255	255	
255	255	255	
255	255	255	
255	255	255	
255	255	255	
255	255	255	
255	255	255	
255	255	255	
255	255	255	
255	255	255	
255	255	255	
255	255	255	
255	255	255	
255	255	255	
255	255	255	
255	255	255	
255	255	255	
255	255	255	
255	255	255	
255	255	255	
255	255	255	
255	255	255	
255	255	255	
255	255	255	
255	255	255	
255	255	255	
255	255	255	
255	255	255	
255	255	255	
255	255	255	
255	255	255	
255	255	255	
255	255	255	
255	255	255	
255	255	255	
255	255	255	
255	255	255	
255	255	255	
255	255	255	
255	255	255	
255	255	255	
255	255	255	
255	255	255	
255	255	255	
255	255	255	
255	255	255	
255	255	255	
255	255	255	
255	255	255	
255	255	255	
255	255	255	
255	255	255	
255	255	255	
255	255	255	
255	255	255	
255	255	255	
255	255	255	
255	255	255	
255	255	255	
255	255	255	
255	255	255	
255	255	255	
255	255	255	
255	255	255	
255	255	255	
255	255	255	
255	255	255	
255	255	255	
255	255	255	
255	255	255	
255	255	255	
255	255	255	
255	255	255	
255	255	255	
255	255	255	
255	255	255	
255	255	255	
255	255	255	
255	255	255	
255	255	255	
255	255	255	
255	255	255	
255	255	255	
255	255	255	
255	255	255	
255	255	255	
255	255	255	
255	255	255	
255	255	255	
255	255	255	
255	255	255	
255	255	255	
255	255	255	
255	255	255	
255	255	255	
255	255	255	
255	255	255	
255	255	255	
255	255	255	
255	255	255	
255	255	255	
255	255	255	
255	255	255	
255	255	255	
255	255	255	
255	255	255	
255	255	255	
255	255	255	
255	255	255	
255	255	255	
255	255	255	
255	255	255	
255	255	255	
255	255	255	
255	255	255	
255	255	255	
255	255	255	
255	255	255	
255	255	255	
255	255	255	
255	255	255	
255	255	255	
255	255	255	
255	255	255	
255	255	255	
255	255	255	
255	255	255	
255	255	255	
255	255	255	
255	255	255	
255	255	255	
255	255	255	
255	255	255	
255	255	255	
255	255	255	
255	255	255	
255	255	255	
255	255	255	
255	255	255	
255	255	255	
255	255	255	
255	255	255	
255	255	255	
255	255	255	
255	255	255	
255	255	255	
255	255	255	
255	255	255	
255	255	255	
255	255	255	
255	255	255	
255	255	255	
255	255	255	
255	255	255	
255	255	255	
255	255	255	
255	255	255	
255	255	255	
255	255	255	
255	255	255	
255	255	255	
255	255	255	
255	255	255	
255	255	255	
255	255	255	
255	255	255	
255	255	255	
255	255	255	
255	255	255	
255	255	255	
255	255	255	
255	255	255	
255	255	255	
255	255	255	
255	255	255	
255	255	255	
255	255	255	
255	255	255	
255	255	255	
255	255	255	
255	255	255	
255	255	255	
255	255	255	
255	255	255	
255	255	255	
255	255	255	
255	255	255	
255	255	255	
255	255	255	
255	255	255	
255	255	255	
255	255	255	
255	255	255	
255	255	255	
255	255	255	
255	255	255	
255	255	255	
255	255	255	
255	255	255	
255	255	255	
255	255	255	
255	255	255	
255	255	255	
255	255	255	
255	255	255	
255	255	255	
255	255	255	
255	255	255	
255	255	255	
255	255	255	
255	255	255	
255	255	255	
255	255	255	
255	255	255	
255	255	255	
255	255	255	
255	255	255	
255	255	255	
255	255	255	
255	255	255	
255	255	255	
255	255	255	
255	255	255	
255	255	255	
255	255	255	
255	255	255	
255	255	255	
255	255	255	
255	255	255	
255	255	255	
255	255	255	
255	255	255	
255	255	255	
255	255	255	
255	255	255	
255	255	255	
255	255	255	
255	255	255	
255	255	255	
255	255	255	
255	255	255	
255	255	255	
255	255	255	
255	255	255	
255	255	255	
255	255	255	
255	255	255	
255	255	255	
255	255	255	
255	255	255	
255	255	255	
255	255	255	
255	255	255	
255	255	255	
255	255	255	
255	255	255	
255	255	255	
255	255	255	
255	255	255	
255	255	255	
255	255	255	
255	255	255	
255	255	255	
255	255	255	
255	255	255	
255	255	255	
255	255	255	
255	255	255	
255	255	255	
255	255	255	
255	255	255	
255	255	255	
255	255	255	
255	255	255	
255	255	255	
255	255	255	
255	255	255	
255	255	255	
255	255	255	
255	255	255	
255	255	255	
255	255	255	
255	255	255	
255	255	255	
255	255	255	
255	255	255	
255	255	255	
255	255	255	
255	255	255	
255	255	255	
255	255	255	
255	255	255	
255	255	255	
255	255	255	
255	255	255	
255	255	255	
255	255	255	
255	255	255	
255	255	255	
255	255	255	
255	255	255	
255	255	255	
255	255	255	
255	255	255	
255	255	255	
255	255	255	
255	255	255	
255	255	255	
255	255	255	
255	255	255	
255	255	255	
255	255	255	
255	255	255	
255	255	255	
255	255	255	
255	255	255	
255	255	255	
255	255	255	
255	255	255	
255	255	255	
255	255	255	
255	255	255	
255	255	255	
255	255	255	
255	255	255	
255	255	255	
255	255	255	
255	255	255	
255	255	255	
255	255	255	
255	255	255	
255	255	255	
255	255	255	
255	255	255	
255	255	255	
255	255	255	
255	255	255	
255	255	255	
255	255	255	
255	255	255	
255	255	255	
255	255	255	
255	255	255	
255	255	255	
255	255	255	
255	255	255	
255	255	255	
255	255	255	
255	255	255	
255	255	255	
255	255	255	
255	255	255	
255	255	255	
255	255	255	
255	255	255	
255	255	255	
255	255	255	
255	255	255	
255	255	255	
255	255	255	
255	255	255	
255	255	255	
255	255	255	
255	255	255	
255	255	255	
255	255	255	
255	255	255	
255	255	255	
255	255	255	
255	255	255	
255	255	255	
255	255	255	
255	255	255	
255	255	255	
255	255	255	
255	255	255	
255	255	255	
255	255	255	
255	255	255	
255	255	255	
255	255	255	
255	255	255	
255	255	255	
255	255	255	
255	255	255	
255	255	255	
255	255	255	
255	255	255	
255	255	255	
255	255	255	
255	255	255	
255	255	255	
255	255	255	
255	255	255	
255	255	255	
255	255	255	
255	255	255	
255	255	255	
255	255	255	
255	255	255	
255	255	255	
255	255	255	
255	255	255	
255	255	255	
255	255	255	
255	255	255	
255	255	255	
255	255	255	
255	255	255	
255	255	255	
255	255	255	
255	255	255	
255	255	255	
255	255	255	
255	255	255	
255	255	255	
255	255	255	
255	255	255	
255	255	255	
255	255	255	
255	255	255	
255	255	255	
255	255	255	
255	255	255	
255	255	255	
255	255	255	
255	255	255	
255	255	255	
255	255	255	
255	255	255	
255	255	255	
255	255	255	
255	255	255	
255	255	255	
255	255	255	
255	255	255	
255	255	255	
255	255	255	
255	255	255	
255	255	255	
255	255	255	
255	255	255	
255	255	255	
255	255	255	
255	255	255	
255	255	255	
255	255	255	
255	255	255	
255	255	255	
255	255	255	
255	255	255	
255	255	255	
255	255	255	
255	255	255	
255	255	255	
255	255	255	
255	255	255	
255	255	255	
255	255	255	
255	255	255	
255	255	255	
255	255	255	
255	255	255	
255	255	255	
255	255	255	
255	255	255	
255	255	255	
255	255	255	
255	255	255	
255	255	255	
255	255	255	
255	255	255	
255	255	255	
255	255	255	
255	255	255	
255	255	255	
255	255	255	
255	255	255	
255	255	255	
255	255	255	
255	255	255	
255	255	255	
255	255	255	
255	255	255	
255	255	255	
255	255	255	
255	255	255	
255	255	255	
255	255	255	
255	255	255	
255	255	255	
255	255	255	
255	255	255	
255	255	255	
255	255	255	
255	255	255	
255	255	255	
255	255	255	
255	255	255	
255	255	255	
255	255	255	
255	255	255	
255	255	255	
255	255	255	
255	255	255	
255	255	255	
255	255	255	
255	255	255	
255	255	255	
255	255	255	
255	255	255	
255	255	255	
255	255	255	
255	255	255	
255	255	255	
255	255	255	
255	255	255	
255	255	255	
255	255	255	
255	255	255	
255	255	255	
255	255	255	
255	255	255	
255	255	255	
255	255	255	
255	255	255	
255	255	255	
255	255	255	
255	255	255	
255	255	255	
255	255	255	
255	255	255	
255	255	255	
255	255	255	
255	255	255	
255	255	255	
255	255	255	
255	255	255	
255	255	255	
255	255	255	
255	255	255	
255	255	255	
255	255	255	
255	255	255	
255	255	255	
255	255	255	
255	255	255	
255	255	255	
255	255	255	
255	255	255	
255	255	255	
255	255	255	
255	255	255	
255	255	255	
255	255	255	
255	255	255	
255	255	255	
255	255	255	
255	255	255	
255	255	255	
255	255	255	
255	255	255	
255	255	255	
255	255	255	
255	255	255	
255	255	255	
255	255	255	
255	255	255	
255	255	255	
255	255	255	
255	255	255	
255	255	255	
255	255	255	
255	255	255	
255	255	255	
255	255	255	
255	255	255	
255	255	255	
255	255	255	
255	255	255	
255	255	255	
255	255	255	
255	255	255	
255	255	255	
255	255	255	
255	255	255	
255	255	255	
255	255	255	
255	255	255	
255	255	255	
255	255	255	
255	255	255	
255	255	255	
255	255	255	
255	255	255	
255	255	255	
255	255	255	
255	255	255	
255	255	255	
255	255	255	
255	255	255	
255	255	255	
255	255	255	
255	255	255	
255	255	255	
255	255	255	
255	255	255	
255	255	255	
255	255	255	
255	255	255	
255	255	255	
255	255	255	
255	255	255	
255	255	255	
255	255	255	
255	255	255	
255	255	255	
255	255	255	
255	255	255	
255	255	255	
255	255	255	
255	255	255	
255	255	255	
255	255	255	
255	255	255	
255	255	255	
255	255	255	
255	255	255	
255	255	255	
255	255	255	
255	255	255	
255	255	255	
255	255	255	
255	255	255	
255	255	255	
255	255	255	
255	255	255	
255	255	255	
255	255	255	
255	255	255	
255	255	255	
255	255	255	
255	255	255	
255	255	255	
255	255	255	
255	255	255	
255	255	255	
255	255	255	
255	255	255	
255	255	255	
255	255	255	
255	255	255	
255	255	255	
255	255	255	
255	255	255	
255	255	255	
255	255	255	
255	255	255	
255	255	255	
255	255	255	
255	255	255	
255	255	255	
255	255	255	
255	255	255	
255	255	255	
255	255	255	
255	255	255	
255	255	255	
255	255	255	
255	255	255	
255	255	255	
255	255	255	
255	255	255	
255	255	255	
255	255	255	
255	255	255	
255	255	255	
255	255	255	
255	255	255	
255	255	255	
255	255	255	
255	255	255	
255	255	255	
255	255	255	
255	255	255	
255	255	255	
255	255	255	
255	255	255	
255	255	255	
255	255	255	
255	255	255	
255	255	255	
255	255	255	
255	255	255	
255	255	255	
255	255	255	
255	255	255	
255	255	255	
255	255	255	
255	255	255	
255	255	255	
255	255	255	
255	255	255	
255	255	255	
255	255	255	
255	255	255	
255	255	255	
255	255	255	
255	255	255	
255	255	255	
255	255	255	
255	255	255	
255	255	255	
255	255	255	
255	255	255	
255	255	255	
255	255	255	
255	255	255	
255	255	255	
255	255	255	
255	255	255	
255	255	255	
255	255	255	
255	255	255	
255	255	255	
255	255	255	
255	255	255	
255	255	255	
255	255	255	
255	255	255	
255	255	255	
255	255	255	
255	255	255	
255	255	255	
255	255	255	
255	255	255	
255	255	255	
255	255	255	
255	255	255	
255	255	255	
255	255	255	
255	255	255	
255	255	255	
255	255	255	
255	255	255	
255	255	255	
255	255	255	
255	255	255	
255	255	255	
255	255	255	
255	255	255	
255	255	255	
255	255	255	
255	255	255	
255	255	255	
255	255	255	
255	255	255	
255	255	255	
255	255	255	
255	255	255	
255	255	255	
255	255	255	
255	255	255	
255	255	255	
255	255	255	
255	255	255	
255	255	255	
255	255	255	
255	255	255	
255	255	255	
255	255	255	
255	255	255	
255	255	255	
255	255	255	
255	255	255	
255	255	255	
255	255	255	
255	255	255	
255	255	255	
255	255	255	
255	255	255	
255	255	255	
255	255	255	
255	255	255	
255	255	255	
255	255	255	
255	255	255	
255	255	255	
255	255	255	
255	255	255	
255	255	255	
255	255	255	
255	255	255	
255	255	255	
255	255	255	
255	255	255	
255	255	255	
255	255	255	
255	255	255	
255	255	255	
255	255	255	
255	255	255	
255	255	255	
255	255	255	
255	255	255	
255	255	255	
255	255	255	
255	255	255	
255	255	255	
255	255	255	
255	255	255	
255	255	255	
255	255	255	
255	255	255	
255	255	255	
255	255	255	
255	255	255	
255	255	255	
255	255	255	
255	255	255	
255	255	255	
255	255	255	
255	255	255	
255	255	255	
255	255	255	
255	255	255	
255	255	255	
255	255	255	
255	255	255	
255	255	255	
255	255	255	
255	255	255	
255	255	255	
255	255	255	
255	255	255	
255	255	255	
255	255	255	
255	255	255	
255	255	255	
255	255	255	
255	255	255	
255	255	255	
255	255	255	
255	255	255	
255	255	255	
255	255	255	
255	255	255	
255	255	255	
255	255	255	
255	255	255	
255	255	255	
255	255	255	
255	255	255	
255	255	255	
255	255	255	
255	255	255	
255	255	255	
255	255	255	
255	255	255	
255	255	255	
255	255	255	
255	255	255	
255	255	255	
255	255	255	
255	255	255	
255	255	255	
255	255	255	
255	255	255	
255	255	255	
255	255	255	
255	255	255	
255	255	255	
255	255	255	
255	255	255	
255	255	255	
255	255	255	
255	255	255	
255	255	255	
255	255	255	
255	255	255	
255	255	255	
255	255	255	
255	255	255	
255	255	255	
255	255	255	
255	255	255	
255	255	255	
255	255	255	
255	255	255	
255	255	255	
255	255	255	
255	255	255	
255	255	255	
255	255	255	
255	255	255	
255	255	255	
255	255	255	
255	255	255	
255	255	255	
255	255	255	
255	255	255	
255	255	255	
255	255	255	
255	255	255	
255	255	255	
255	255	255	
255	255	255	
255	255	255	
255	255	255	
255	255	255	
255	255	255	
255	255	255	
255	255	255	
255	255	255	
255	255	255	
255	255	255	
255	255	255	
255	255	255	
255	255	255	
255	255	255	
255	255	255	
255	255	255	
255	255	255	
255	255	255	
255	255	255	
255	255	255	
255	255	255	
255	255	255	
255	255	255	
255	255	255	
255	255	255	
255	255	255	
255	255	255	
255	255	255	
255	255	255	
255	255	255	
255	255	255	
255	255	255	
255	255	255	
255	255	255	
255	255	255	
255	255	255	
255	255	255	
255	255	255	
255	255	255	
255	255	255	
255	255	255	
255	255	255	
255	255	255	
255	255	255	
255	255	255	
255	255	255	
255	255	255	
255	255	255	
255	255	255	
255	255	255	
255	255	255	
255	255	255	
255	255	255	
255	255	255	
255	255	255	
255	255	255	
255	255	255	
255	255	255	
255	255	255	
255	255	255	
255	255	255	
255	255	255	
255	255	255	
255	255	255	
255	255	255	
255	255	255	
255	255	255	
255	255	255	
255	255	255	
255	255	255	
255	255	255	
255	255	255	
255	255	255	
255	255	255	
255	255	255	
255	255	255	
255	255	255	
255	255	255	
255	255	255	
255	255	255	
255	255	255	
255	255	255	
255	255	255	
255	255	255	
255	255	255	
255	255	255	
255	255	255	
255	255	255	
255	255	255	
255	255	255	
255	255	255	
255	255	255	
255	255	255	
255	255	255	
255	255	255	
255	255	255	
255	255	255	
255	255	255	
255	255	255	
255	255	255	
255	255	255	
255	255	255	
255	255	255	
255	255	255	
255	255	255	
255	255	255	
255	255	255	
255	255	255	
255	255	255	
255	255	255	
255	255	255	
255	255	255	
255	255	255	
255	255	255	
255	255	255	
255	255	255	
255	255	255	
255	255	255	
255	255	255	
255	255	255	
255	255	255	
255	255	255	
255	255	255	
255	255	255	
255	255	255	
255	255	255	
255	255	255	
255	255	255	
255	255	255	
255	255	255	
255	255	255	
255	255	255	
255	255	255	
255	255	255	
255	255	255	
255	255	255	
255	255	255	
255	255	255	
255	255	255	
255	255	255	
255	255	255	
255	255	255	
255	255	255	
255	255	255	
255	255	255	
255	255	255	
255	255	255	
255	255	255	
255	255	255	
255	255	255	
255	255	255	
255	255	255	
255	255	255	
255	255	255	
255	255	255	
255	255	255	
255	255	255	
255	255	255	
255	255	255	
255	255	255	
255	255	255	
255	255	255	
255	255	255	
255	255	255	
255	255	255	
255	255	255	
255	255	255	
255	255	255	
255	255	255	
255	255	255	
255	255	255	
255	255	255	
255	255	255	
255	255	255	
255	255	255	
255	255	255	
255	255	255	
255	255	255	
255	255	255	
255	255	255	
255	255	255	
255	255	255	
255	255	255	
255	255	255	
255	255	255	
255	255	255	
255	255	255	
255	255	255	
255	255	255	
255	255	255	
255	255	255	
255	255	255	
255	255	255	
255	255	255	
255	255	255	
255	255	255	
255	255	255	
255	255	255	
255	255	255	
255	255	255	
255	255	255	
255	255	255	
255	255	255	
255	255	255	
255	255	255	
255	255	255	
255	255	255	
255	255	255	
255	255	255	
255	255	255	
255	255	255	
255	255	255	
255	255	255	
255	255	255	
255	255	255	
255	255	255	
255	255	255	
255	255	255	
255	255	255	
255	255	255	
255	255	255	
255	255	255	
255	255	255	
255	255	255	
255	255	255	
255	255	255	
255	255	255	
255	255	255	
255	255	255	
255	255	255	
255	255	255	
255	255	255	
255	255	255	
255	255	255	
255	255	255	
255	255	255	
255	255	255	
255	255	255	
255	255	255	
255	255	255	
255	255	255	
255	255	255	
255	255	255	
255	255	255	
255	255	255	
255	255	255	
255	255	255	
255	255	255	
255	255	255	
255	255	255	
255	255	255	
255	255	255	
255	255	255	
255	255	255	
255	255	255	
255	255	255	
255	255	255	
255	255	255	
255	255	255	
255	255	255	
255	255	255	
255	255	255	
255	255	255	
255	255	255	
255	255	255	
255	255	255	
255	255	255	
255	255	255	
255	255	255	
255	255	255	
255	255	255	
255	255	255	
255	255	255	
255	255	255	
255	255	255	
255	255	255	
255	255	255	
255	255	255	
255	255	255	
255	255	255	
255	255	255	
255	255	255	
255	255	255	
255	255	255	
255	255	255	
255	255	255	
255	255	255	
255	255	255	
255	255	255	
255	255	255	
255	255	255	
255	255	255	
255	255	255	
255	255	255	
255	255	255	
255	255	255	
255	255	255	
255	255	255	
255	255	255	
255	255	255	
255	255	255	
255	255	255	
255	255	255	
255	255	255	
255	255	255	
255	255	255	
255	255	255	
255	255	255	
255	255	255	
255	255	255	
255	255	255	
255	255	255	
255	255	255	
255	255	255	
255	255	255	
255	255	255	
255	255	255	
255	255	255	
255	255	255	
255	255	255	
255	255	255	
255	255	255	
255	255	255	
255	255	255	
255	255	255	
255	255	255	
255	255	255	
255	255	255	
255	255	255	
255	255	255	
255	255	255	
255	255	255	
255	255	255	
255	255	255	
255	255	255	
255	255	255	
255	255	255	
255	255	255	
255	255	255	
255	255	255	
255	255	255	
255	255	255	
255	255	255	
255	255	255	
255	255	255	
255	255	255	
255	255	255	
255	255	255	
255	255	255	
255	255	255	
255	255	255	
255	255	255	
255	255	255	
255	255	255	
255	255	255	
255	255	255	
255	255	255	
255	255	255	
255	255	255	
255	255	255	
255	255	255	
255	255	255	
255	255	255	
255	255	255	
255	255	255	
255	255	255	
255	255	255	
255	255	255	
255	255	255	
255	255	255	
255	255	255	
255	255	255	
255	255	255	
255	255	255	
255	255	255	
255	255	255	
255	255	255	
255	255	255	
255	255	255	
255	255	255	
255	255	255	
255	255	255	
255	255	255	
255	255	255	
255	255	255	
255	255	255	
255	255	255	
255	255	255	
255	255	255	
255	255	255	
255	255	255	
255	255	255	
255	255	255	
255	255	255	
255	255	255	
255	255	255	
255	255	255	
255	255	255	
255	255	255	
255	255	255	
255	255	255	
255	255	255	
255	255	255	
255	255	255	
255	255	255	
255	255	255	
255	255	255	
255	255	255	
255	255	255	
255	255	255	
255	255	255	
255	255	255	
255	255	255	
255	255	255	
255	255	255	
255	255	255	
255	255	255	
255	255	255	
255	255	255	
255	255	255	
255	255	255	
255	255	255	
255	255	255	
255	255	255	
255	255	255	
255	255	255	
255	255	255	
255	255	255	
255	255	255	
255	255	255	
255	255	255	
255	255	255	
255	255	255	
255	255	255	
255	255	255	
255	255	255	
255	255	255	
255	255	255	
255	255	255	
255	255	255	
255	255	255	
255	255	255	
255	255	255	
255	255	255	
255	255	255	
255	255	255	
255	255	255	
255	255	255	
255	255	255	
255	255	255	
255	255	255	
255	255	255	
255	255	255	
255	255	255	
255	255	255	
255	255	255	
255	255	255	
255	255	255	
255	255	255	
255	255	255	
255	255	255	
255	255	255	
255	255	255	
255	255	255	
255	255	255	
255	255	255	
255	255	255	
255	255	255	
255	255	255	
255	255	255	
255	255	255	
255	255	255	
255	255	255	
255	255	255	
255	255	255	
255	255	255	
255	255	255	
255	255	255	
255	255	255	
255	255	255	
255	255	255	
255	255	255	
255	255	255	
255	255	255	
255	255	255	
255	255	255	
255	255	255	
255	255	255	
255	255	255	
255	255	255	
255	255	255	
255	255	255	
255	255	255	
255	255	255	
255	255	255	
255	255	255	
255	255	255	
255	255	255	
255	255	255	
255	255	255	
255	255	255	
255	255	255	
255	255	255	
255	255	255	
255	255	255	
255	255	255	
255	255	255	
255	255	255	
255	255	255	
255	255	255	
255	255	255	
255	255	255	
255	255	255	
255	255	255	
255	255	255	
255	255	255	
255	255	255	
255	255	255	
255	255	255	
255	255	255	
255	255	255	
255	255	255	
255	255	255	
255	255	255	
255	255	255	
255	255	255	
255	255	255	
255	255	255	
255	255	255	
255	255	255	
255	255	255	
255	255	255	
255	255	255	
255	255	255	
255	255	255	
255	255	255	
255	255	255	
255	255	255	
255	255	255	
255	255	255	
255	255	255	
255	255	255	
255	255	255	
255	255	255	
255	255	255	
255	255	255	
255	255	255	
255	255	255	
255	255	255	
255	255	255	
255	255	255	
255	255	255	
255	255	255	
255	255	255	
255	255	255	
255	255	255	
255	255	255	
255	255	255	
255	255	255	
255	255	255	
255	255	255	
255	255	255	
255	255	255	
255	255	255	
255	255	255	
255	255	255	
255	255	255	
255	255	255	
255	255	255	
255	255	255	
255	255	255	
255	255	255	
255	255	255	
255	255	255	
255	255	255	
255	255	255	
255	255	255	
255	255	255	
255	255	255	
255	255	255	
255	255	255	
255	255	255	
255	255	255	
255	255	255	
255	255	255	
255	255	255	
255	255	255	
255	255	255	
255	255	255	
255	255	255	
255	255	255	
255	255	255	
255	255	255	
255	255	255	
255	255	255	
255	255	255	
255	255	255	
255	255	255	
255	255	255	
255	255	255	
255	255	255	
255	255	255	
255	255	255	
255	255	255	
255	255	255	
255	255	255	
255	255	255	
255	255	255	
255	255	255	
255	255	255	
255	255	255	
255	255	255	
255	255	255	
255	255	255	
255	255	255	
255	255	255	
255	255	255	
255	255	255	
255	255	255	
255	255	255	
255	255	255	
255	255	255	
255	255	255	
255	255	255	
255	255	255	
255	255	255	
255	255	255	
255	255	255	
255	255	255	
255	255	255	
255	255	255	
255	255	255	
255	255	255	
255	255	255	
255	255	255	
255	255	255	
255	255	255	
255	255	255	
255	255	255	
255	255	255	
255	255	255	
255	255	255	
255	255	255	
255	255	255	
255	255	255	
255	255	255	
255	255	255	
255	255	255	
255	255	255	
255	255	255	
255	255	255	
255	255	255	
255	255	255	
255	255	255	
255	255	255	
255	255	255	
255	255	255	
255	255	255	
255	255	255	
255	255	255	
255	255	255	
255	255	255	
255	255	255	
255	255	255	
255	255	255	
255	255	255	
255	255	255	
255	255	255	
255	255	255	
255	255	255	
255	255	255	
255	255	255	
255	255	255	
255	255	255	
255	255	255	
255	255	255	
255	255	255	
255	255	255	
255	255	255	
255	255	255	
255	255	255	
255	255	255	
255	255	255	
255	255	255	
255	255	255	
255	255	255	
255	255	255	
255	255	255	
255	255	255	
255	255	255	
255	255	255	
255	255	255	
255	255	255	
255	255	255	
255	255	255	
255	255	255	
255	255	255	
255	255	255	
255	255	255	
255	255	255	
255	255	255	
255	255	255	
255	255	255	
255	255	255	
255	255	255	
255	255	255	
255	255	255	
255	255	255	
255	255	255	
255	255	255	
255	255	255	
255	255	255	
255	255	255	
255	255	255	
255	255	255	
255	255	255	
255	255	255	
255	255	255	
255	255	255	
255	255	255	
255	255	255	
255	255	255	
255	255	255	
255	255	255	
255	255	255	
255	255	255	
255	255	255	
255	255	255	
255	255	255	
255	255	255	
255	255	255	
255	255	255	
255	255	255	
255	255	255	
255	255	255	
255	255	255	
255	255	255	
255	255	255	
255	255	255	
255	255	255	
255	255	255	
255	255	255	
255	255	255	
255	255	255	
255	255	255	
255	255	255	
255	255	255	
255	255	255	
255	255	255	
255	255	255	
255	255	255	
255	255	255	
255	255	255	
255	255	255	
255	255	255	
255	255	255	
255	255	255	
255	255	255	
255	255	255	
255	255	255	
255	255	255	
255	255	255	
255	255	255	
255	255	255	
255	255	255	
255	255	255	
255	255	255	
255	255	255	
255	255	255	
255	255	255	
255	255	255	
255	255	255	
255	255	255	
255	255	255	
255	255	255	
255	255	255	
255	255	255	
255	255	255	
255	255	255	
255	255	255	
255	255	255	
255	255	255	
255	255	255	
255	255	255	
255	255	255	
255	255	255	
255	255	255	
255	255	255	
255	255	255	
255	255	255	
255	255	255	
255	255	255	
255	255	255	
255	255	255	
255	255	255	
255	255	255	
255	255	255	
255	255	255	
255	255	255	
255	255	255	
255	255	255	
255	255	255	
255	255	255	
255	255	255	
255	255	255	
255	255	255	
255	255	255	
255	255	255	
255	255	255	
255	255	255	
255	255	255	
255	255	255	
255	255	255	
255	255	255	
255	255	255	
255	255	255	
255	255	255	
255	255	255	
255	255	255	
255	255	255	
255	255	255	
255	255	255	
255	255	255	
255	255	255	
255	255	255	
255	255	255	
255	255	255	
255	255	255	
255	255	255	
255	255	255	
255	255	255	
255	255	255	
255	255	255	
255	255	255	
255	255	255	
255	255	255	
255	255	255	
255	255	255	
255	255	255	
255	255	255	
255	255	255	
255	255	255	
255	255	255	
255	255	255	
255	255	255	
255	255	255	
255	255	255	
255	255	255	
255	255	255	
255	255	255	
255	255	255	
255	255	255	
255	255	255	
255	255	255	
255	255	255	
255	255	255	
255	255	255	
255	255	255	
255	255	255	
255	255	255	
255	255	255	
255	255	255	
255	255	255	
255	255	255	
255	255	255	
255	255	255	
255	255	255	
255	255	255	
255	255	255	
255	255	255	
255	255	255	
255	255	255	
255	255	255	
255	255	255	
255	255	255	
255	255	255	
255	255	255	
255	255	255	
255	255	255	
255	255	255	
255	255	255	
255	255	255	
255	255	255	
255	255	255	
255	255	255	
255	255	255	
255	255	255	
255	255	255	
255	255	255	
255	255	255	
255	255	255	
255	255	255	
255	255	255	
255	255	255	
255	255	255	
255	255	255	
255	255	255	
255	255	255	
255	255	255	
255	255	255	
255	255	255	
255	255	255	
255	255	255	
255	255	255	
255	255	255	
255	255	255	
255	255	255	
255	255	255	
255	255	255	
255	255	255	
255	255	255	
255	255	255	
255	255	255	
255	255	255	
255	255	255	
255	255	255	
255	255	255	
255	255	255	
255	255	255	
255	255	255	
255	255	255	
255	255	255	
255	255	255	
255	255	255	
255	255	255	
255	255	255	
255	255	255	
255	255	255	
255	255	255	
255	255	255	
255	255	255	
255	255	255	
255	255	255	
255	255	255	
255	255	255	
255	255	255	
255	255	255	
255	255	255	
255	255	255	
255	255	255	
255	255	255	
255	255	255	
255	255	255	
255	255	255	
255	255	255	
255	255	255	
255	255	255	
255	255	255	
255	255	255	
255	255	255	
255	255	255	
255	255	255	
255	255	255	
255	255	255	
255	255	255	
255	255	255	
255	255	255	
255	255	255	
255	255	255	
255	255	255	
255	255	255	
255	255	255	
255	255	255	
255	255	255	
255	255	255	
255	255	255	
255	255	255	
255	255	255	
255	255	255	
255	255	255	
255	255	255	
255	255	255	
255	255	255	
255	255	255	
255	255	255	
255	255	255	
255	255	255	
255	255	255	
255	255	255	
255	255	255	
255	255	255	
255	255	255	
255	255	255	
255	255	255	
255	255	255	
255	255	255	
255	255	255	
255	255	255	
255	255	255	
255	255	255	
255	255	255	
255	255	255	
255	255	255	
255	255	255	
255	255	255	
255	255	255	
255	255	255	
255	255	255	
255	255	255	
255	255	255	
255	255	255	
255	255	255	
255	255	255	
255	255	255	
255	255	255	
255	255	255	
255	255	255	
255	255	255	
255	255	255	
255	255	255	
255	255	255	
255	255	255	
255	255	255	
255	255	255	
255	255	255	
255	255	255	
255	255	255	
255	255	255	
255	255	255	
255	255	255	
255	255	255	
255	255	255	
255	255	255	
255	255	255	
255	255	255	
255	255	255	
255	255	255	
255	255	255	
255	255	255	
255	255	255	
255	255	255	
255	255	255	
255	255	255	
255	255	255	
255	255	255	
255	255	255	
255	255	255	
255	255	255	
255	255	255	
255	255	255	
255	255	255	
255	255	255	
255	255	255	
255	255	255	
255	255	255	
255	255	255	
255	255	255	
255	255	255	
255	255	255	
255	255	255	
255	255	255	
255	255	255	
255	255	255	
255	255	255	
255	255	255	
255	255	255	
255	255	255	
255	255	255	
255	255	255	
255	255	255	
255	255	255	
255	255	255	
255	255	255	
255	255	255	
255	255	255	
255	255	255	
255	255	255	
255	255	255	
255	255	255	
255	255	255	
255	255	255	
255	255	255	
255	255	255	
255	255	255	
255	255	255	
255	255	255	
255	255	255	
255	255	255	
255	255	255	
255	255	255	
255	255	255	
255	255	255	
255	255	255	
255	255	255	
255	255	255	
255	255	255	
255	255	255	
255	255	255	
255	255	255	
255	255	255	
255	255	255	
255	255	255	
255	255	255	
255	255	255	
255	255	255	
255	255	255	
255	255	255	
255	255	255	
255	255	255	
255	255	255	
255	255	255	
255	255	255	
255	255	255	
255	255	255	
255	255	255	
255	255	255	
255	255	255	
255	255	255	
255	255	255	
255	255	255	
255	255	255	
255	255	255	
255	255	255	
255	255	255	
255	255	255	
255	255	255	
255	255	255	
255	255	255	
255	255	255	
255	255	255	
255	255	255	
255	255	255	
255	255	255	
255	255	255	
255	255	255	
255	255	255	
255	255	255	
255	255	255	
255	255	255	
255	255	255	
255	255	255	
255	255	255	
255	255	255	
255	255	255	
255	255	255	
255	255	255	
255	255	255	
255	255	255	
255	255	255	
255	255	255	
255	255	255	
255	255	255	
255	255	255	
255	255	255	
255	255	255	
255	255	255	
255	255	255	
255	255	255	
255	255	255	
255	255	255	
255	255	255	
255	255	255	
255	255	255	
255	255	255	
255	255	255	
255	255	255	
255	255	255	
255	255	255	
255	255	255	
255	255	255	
255	255	255	
255	255	255	
255	255	255	
255	255	255	
255	255	255	
255	255	255	
255	255	255	
255	255	255	
255	255	255	
255	255	255	
255	255	255	
255	255	255	
255	255	255	
255	255	255	
255	255	255	
255	255	255	
255	255	255	
255	255	255	
255	255	255	
255	255	255	
255	255	255	
255	255	255	
255	255	255	
255	255	255	
255	255	255	
255	255	255	
255	255	255	
255	255	255	
255	255	255	
255	255	255	
255	255	255	
255	255	255	
255	255	255	
255	255	255	
255	255	255	
255	255	255	
255	255	255	
255	255	255	
255	255	255	
255	255	255	
255	255	255	
255	255	255	
255	255	255	
255	255	255	
255	255	255	
255	255	255	
255	255	255	
255	255	255	
255	255	255	
255	255	255	
255	255	255	
255	255	255	
255	255	255	
255	255	255	
255	255	255	
255	255	255	
255	255	255	
255	255	255	
255	255	255	
255	255	255	
255	255	255	
255	255	255	
255	255	255	
255	255	255	
255	255	255	
255	255	255	
255	255	255	
255	255	255	
255	255	255	
255	255	255	
255	255	255	
255	255	255	
255	255	255	
255	255	255	
255	255	255	
255	255	255	
255	255	255	
255	255	255	
255	255	255	
255	255	255	
255	255	255	
255	255	255	
255	255	255	
255	255	255	
255	255	255	
255	255	255	
255	255	255	
255	255	255	
255	255	255	
255	255	255	
255	255	255	
255	255	255	
255	255	255	
255	255	255	
255	255	255	
255	255	255	
255	255	255	
255	255	255	
255	255	255	
255	255	255	
255	255	255	
255	255	255	
255	255	255	
255	255	255	
255	255	255	
255	255	255	
255	255	255	
255	255	255	
255	255	255	
255	255	255	
255	255	255	
255	255	255	
255	255	255	
255	255	255	
255	255	255	
255	255	255	
255	255	255	
255	255	255	
255	255	255	
255	255	255	
255	255	255	
255	255	255	
255	255	255	
255	255	255	
255	255	255	
255	255	255	
255	255	255	
255	255	255	
255	255	255	
255	255	255	
255	255	255	
255	255	255	
255	255	255	
255	255	255	
255	255	255	
255	255	255	
255	255	255	
255	255	255	
255	255	255	
255	255	255	
255	255	255	
255	255	255	
255	255	255	
255	255	255	
255	255	255	
255	255	255	
255	255	255	
255	255	255	
255	255	255	
255	255	255	
255	255	255	
255	255	255	
255	255	255	
255	255	255	
255	255	255	
255	255	255	
255	255	255	
255	255	255	
255	255	255	
255	255	255	
255	255	255	
255	255	255	
255	255	255	
255	255	255	
255	255	255	
255	255	255	
255	255	255	
255	255	255	
255	255	255	
255	255	255	
255	255	255	
255	255	255	
255	255	255	
255	255	255	
255	255	255	
255	255	255	
255	255	255	
255	255	255	
255	255	255	
255	255	255	
255	255	255	
255	255	255	
255	255	255	
255	255	255	
255	255	255	
255	255	255	
255	255	255	
255	255	255	
255	255	255	
255	255	255	
255	255	255	
255	255	255	
255	255	255	
255	255	255	
255	255	255	
255	255	255	
255	255	255	
255	255	255	
255	255	255	
255	255	255	
255	255	255	
255	255	255	
255	255	255	
255	255	255	
255	255	255	
255	255	255	
255	255	255	
255	255	255	
255	255	255	
255	255	255	
255	255	255	
255	255	255	
255	255	255	
255	255	255	
255	255	255	
255	255	255	
255	255	255	
255	255	255	
255	255	255	
255	255	255	
255	255	255	
255	255	255	
255	255	255	
255	255	255	
255	255	255	
255	255	255	
255	255	255	
255	255	255	
255	255	255	
255	255	255	
255	255	255	
255	255	255	
255	255	255	
255	255	255	
255	255	255	
255	255	255	
255	255	255	
255	255	255	
255	255	255	
255	255	255	
255	255	255	
255	255	255	
255	255	255	
255	255	255	
255	255	255	
255	255	255	
255	255	255	
255	255	255	
255	255	255	
255	255	255	
255	255	255	
255	255	255	
255	255	255	
255	255	255	
255	255	255	
255	255	255	
255	255	255	
255	255	255	
255	255	255	
255	255	255	
255	255	255	
255	255	255	
255	255	255	
255	255	255	
255	255	255	
255	255	255	
255	255	255	
255	255	255	
255	255	255	
255	255	255	
255	255	255	
255	255	255	
255	255	255	
255	255	255	
255	255	255	
255	255	255	
255	255	255	
255	255	255	
255	255	255	
255	255	255	
255	255	255	
255	255	255	
255	255	255	
255	255	255	
255	255	255	
255	255	255	
255	255	255	
255	255	255	
255	255	255	
255	255	255	
255	255	255	
255	255	255	
255	255	255	
255	255	255	
255	255	255	
255	255	255	
255	255	255	
255	255	255	
255	255	255	
255	255	255	
255	255	255	
255	255	255	
255	255	255	
255	255	255	
255	255	255	
255	255	255	
255	255	255	
255	255	255	
255	255	255	
255	255	255	
255	255	255	
255	255	255	
255	255	255	
255	255	255	
255	255	255	
255	255	255	
255	255	255	
255	255	255	
255	255	255	
255	255	255	
255	255	255	
255	255	255	
255	255	255	
255	255	255	
255	255	255	
255	255	255	
255	255	255	
255	255	255	
255	255	255	
255	255	255	
255	255	255	
255	255	255	
255	255	255	
255	255	255	
255	255	255	
255	255	255	
255	255	255	
255	255	255	
255	255	255	
255	255	255	
255	255	255	
255	255	255	
255	255	255	
255	255	255	
255	255	255	
255	255	255	
255	255	255	
255	255	255	
255	255	255	
255	255	255	
255	255	255	
255	255	255	
255	255	255	
255	255	255	
255	255	255	
255	255	255	
255	255	255	
255	255	255	
255	255	255	
255	255	255	
255	255	255	
255	255	255	
255	255	255	
255	255	255	
255	255	255	
255	255	255	
255	255	255	
255	255	255	
255	255	255	
255	255	255	
255	255	255	
255	255	255	
255	255	255	
255	255	255	
255	255	255	
255	255	255	
255	255	255	
255	255	255	
255	255	255	
255	255	255	
255	255	255	
255	255	255	
255	255	255	
255	255	255	
255	255	255	
255	255	255	
255	255	255	
255	255	255	
255	255	255	
255	255	255	
255	255	255	
255	255	255	
255	255	255	
255	255	255	
255	255	255	
255	255	255	
255	255	255	
255	255	255	
255	255	255	
255	255	255	
255	255	255	
255	255	255	
255	255	255	
255	255	255	
255	255	255	
255	255	255	
255	255	255	
255	255	255	
255	255	255	
255	255	255	
255	255	255	
255	255	255	
255	255	255	
255	255	255	
255	255	255	
255	255	255	
255	255	255	
255	255	255	
255	255	255	
255	255	255	
255	255	255	
255	255	255	
255	255	255	
255	255	255	
255	255	255	
255	255	255	
255	255	255	
255	255	255	
255	255	255	
255	255	255	
255	255	255	
255	255	255	
255	255	255	
255	255	255	
255	255	255	
255	255	255	
255	255	255	
255	255	255	
255	255	255	
255	255	255	
255	255	255	
255	255	255	
255	255	255	
255	255	255	
255	255	255	
255	255	255	
255	255	255	
255	255	255	
255	255	255	
255	255	255	
255	255	255	
255	255	255	
255	255	255	
255	255	255	
255	255	255	
255	255	255	
255	255	255	
255	255	255	
255	255	255	
255	255	255	
255	255	255	
255	255	255	
255	255	255	
255	255	255	
255	255	255	
255	255	255	
255	255	255	
255	255	255	
255	255	255	
255	255	255	
255	255	255	
255	255	255	
255	255	255	
255	255	255	
255	255	255	
255	255	255	
255	255	255	
255	255	255	
255	255	255	
255	255	255	
255	255	255	
255	255	255	
255	255	255	
255	255	255	
255	255	255	
255	255	255	
255	255	255	
255	255	255	
255	255	255	
255	255	255	
255	255	255	
255	255	255	
255	255	255	
255	255	255	
255	255	255	
255	255	255	
255	255	255	
255	255	255	
255	255	255	
255	255	255	
255	255	255	
255	255	255	
255	255	255	
255	255	255	
255	255	255	
255	255	255	
255	255	255	
255	255	255	
255	255	255	
255	255	255	
255	255	255	
255	255	255	
255	255	255	
255	255	255	
255	255	255	
255	255	255	
255	255	255	
255	255	255	
255	255	255	
255	255	255	
255	255	255	
255	255	255	
255	255	255	
255	255	255	
255	255	255	
255	255	255	
255	255	255	
255	255	255	
255	255	255	
255	255	255	
255	255	255	
255	255	255	
255	255	255	
255	255	255	
255	255	255	
255	255	255	
255	255	255	
255	255	255	
255	255	255	
255	255	255	
255	255	255	
255	255	255	
255	255	255	
255	255	255	
255	255	255	
255	255	255	
255	255	255	
255	255	255	
255	255	255	
255	255	255	
255	255	255	
255	255	255	
255	255	255	
255	255	255	
255	255	255	
255	255	255	
255	255	255	
255	255	255	
255	255	255	
255	255	255	
255	255	255	
255	255	255	
255	255	255	
255	255	255	
255	255	255	
255	255	255	
255	255	255	
255	255	255	
255	255	255	
255	255	255	
255	255	255	
255	255	255	
255	255	255	
255	255	255	
255	255	255	
255	255	255	
255	255	255	
255	255	255	
255	255	255	
255	255	255	
255	255	255	
255	255	255	
255	255	255	
255	255	255	
255	255	255	
255	255	255	
255	255	255	
255	255	255	
255	255	255	
255	255	255	
255	255	255	
255	255	255	
255	255	255	
255	255	255	
255	255	255	
255	255	255	
255	255	255	
255	255	255	
255	255	255	
255	255	255	
255	255	255	
255	255	255	
255	255	255	
255	255	255	
255	255	255	
255	255	255	
255	255	255	
255	255	255	
255	255	255	
255	255	255	
255	255	255	
255	255	255	
255	255	255	
255	255	255	
255	255	255	
255	255	255	
255	255	255	
255	255	255	
255	255	255	
255	255	255	
255	255	255	
255	255	255	
255	255	255	
255	255	255	
255	255	255	
255	255	255	
255	255	255	
255	255	255	
255	255	255	
255	255	255	
255	255	255	
255	255	255	
255	255	255	
255	255	255	
255	255	255	
255	255	255	
255	255	255	
255	255	255	
255	255	255	
255	255	255	
255	255	255	
255	255	255	
255	255	255	
255	255	255	
255	255	255	
255	255	255	
255	255	255	
255	255	255	
255	255	255	
255	255	255	
255	255	255	
255	255	255	
255	255	255	
255	255	255	
255	255	255	
255	255	255	
255	255	255	
255	255	255	
255	255	255	
255	255	255	
255	255	255	
255	255	255	
255	255	255	
255	255	255	
255	255	255	
255	255	255	
255	255	255	
255	255	255	
255	255	255	
255	255	255	
255	255	255	
255	255	255	
255	255	255	
255	255	255	
255	255	255	
255	255	255	
255	255	255	
255	255	255	
255	255	255	
255	255	255	
255	255	255	
255	255	255	
255	255	255	
255	255	255	
255	255	255	
255	255	255	
255	255	255	
255	255	255	
255	255	255	
255	255	255	
255	255	255	
255	255	255	
255	255	255	
255	255	255	
255	255	255	
255	255	255	
255	255	255	
255	255	255	
255	255	255	
255	255	255	
255	255	255	
255	255	255	
255	255	255	
255	255	255	
255	255	255	
255	255	255	
255	255	255	
255	255	255	
255	255	255	
255	255	255	
255	255	255	
255	255	255	
255	255	255	
255	255	255	
255	255	255	
255	255	255	
255	255	255	
255	255	255	
255	255	255	
255	255	255	
255	255	255	
255	255	255	
255	255	255	
255	255	255	
255	255	255	
255	255	255	
255	255	255	
255	255	255	
255	255	255	
255	255	255	
255	255	255	
255	255	255	
255	255	255	
255	255	255	
255	255	255	
255	255	255	
255	255	255	
255	255	255	
255	255	255	
255	255	255	
255	255	255	
255	255	255	
255	255	255	
255	255	255	
255	255	255	
255	255	255	
255	255	255	
255	255	255	
255	255	255	
255	255	255	
255	255	255	
255	255	255	
255	255	255	
255	255	255	
255	255	255	
255	255	255	
255	255	255	
255	255	255	
255	255	255	
255	255	255	
255	255	255	
255	255	255	
255	255	255	
255	255	255	
255	255	255	
255	255	255	
255	255	255	
255	255	255	
255	255	255	
255	255	255	
255	255	255	
255	255	255	
255	255	255	
255	255	255	
255	255	255	
255	255	255	
255	255	255	
255	255	255	
255	255	255	
255	255	255	
255	255	255	
255	255	255	
255	255	255	
255	255	255	
255	255	255	
255	255	255	
255	255	255	
255	255	255	
255	255	255	
255	255	255	
255	255	255	
255	255	255	
255	255	255	
255	255	255	
255	255	255	
255	255	255	
255	255	255	
255	255	255	
255	255	255	
255	255	255	
255	255	255	
255	255	255	
255	255	255	
255	255	255	
255	255	255	
255	255	255	
255	255	255	
255	255	255	
255	255	255	
255	255	255	
255	255	255	
255	255	255	
255	255	255	
255	255	255	
255	255	255	
255	255	255	
255	255	255	
255	255	255	
255	255	255	
255	255	255	
255	255	255	
255	255	255	
255	255	255	
255	255	255	
255	255	255	
255	255	255	
255	255	255	
255	255	255	
255	255	255	
255	255	255	
255	255	255	
255	255	255	
255	255	255	
255	255	255	
255	255	255	
255	255	255	
255	255	255	
255	255	255	
255	255	255	
255	255	255	
255	255	255	
255	255	255	
255	255	255	
255	255	255	
255	255	255	
255	255	255	
255	255	255	
255	255	255	
255	255	255	
255	255	255	
255	255	255	
255	255	255	
255	255	255	
255	255	255	
255	255	255	
255	255	255	
255	255	255	
255	255	255	
255	255	255	
255	255	255	
255	255	255	
255	255	255	
255	255	255	
255	255	255	
255	255	255	
255	255	255	
255	255	255	
255	255	255	
255	255	255	
255	255	255	
255	255	255	
255	255	255	
255	255	255	
255	255	255	
255	255	255	
255	255	255	
255	255	255	
255	255	255	
255	255	255	
255	255	255	
255	255	255	
255	255	255	
255	255	255	
255	255	255	
255	255	255	
255	255	255	
255	255	255	
255	255	255	
255	255	255	
255	255	255	
255	255	255	
255	255	255	
255	255	255	
255	255	255	
255	255	255	
255	255	255	
255	255	255	
255	255	255	
255	255	255	
255	255	255	
255	255	255	
255	255	255	
255	255	255	
255	255	255	
255	255	255	
255	255	255	
255	255	255	
255	255	255	
255	255	255	
255	255	255	
255	255	255	
255	255	255	
255	255	255	
255	255	255	
255	255	255	
255	255	255	
255	255	255	
255	255	255	
255	255	255	
255	255	255	
255	255	255	
255	255	255	
255	255	255	
255	255	255	
255	255	255	
255	255	255	
255	255	255	
255	255	255	
255	255	255	
255	255	255	
255	255	255	
255	255	255	
255	255	255	
255	255	255	
255	255	255	
255	255	255	
255	255	255	
255	255	255	
255	255	255	
255	255	255	
255	255	255	
255	255	255	
255	255	255	
255	255	255	
255	255	255	
255	255	255	
255	255	255	
255	255	255	
255	255	255	
255	255	255	
255	255	255	
255	255	255	
255	255	255	
255	255	255	
255	255	255	
255	255	255	
255	255	255	
255	255	255	
255	255	255	
255	255	255	
255	255	255	
255	255	255	
255	255	255	
255	255	255	
255	255	255	
255	255	255	
255	255	255	
255	255	255	
255	255	255	
255	255	255	
255	255	255	
255	255	255	
255	255	255	
255	255	255	
255	255	255	
255	255	255	
255	255	255	
255	255	255	
255	255	255	
255	255	255	
255	255	255	
255	255	255	
255	255	255	
255	255	255	
255	255	255	
255	255	255	
255	255	255	
255	255	255	
255	255	255	
255	255	255	
255	255	255	
255	255	255	
255	255	255	
255	255	255	
255	255	255	
255	255	255	
255	255	255	
255	255	255	
255	255	255	
255	255	255	
255	255	255	
255	255	255	
255	255	255	
255	255	255	
255	255	255	
255	255	255	
255	255	255	
255	255	255	
255	255	255	
255	255	255	
255	255	255	
255	255	255	
255	255	255	
255	255	255	
255	255	255	
255	255	255	
255	255	255	
255	255	255	
255	255	255	
255	255	255	
255	255	255	
255	255	255	
255	255	255	
255	255	255	
255	255	255	
255	255	255	
255	255	255	
255	255	255	
255	255	255	
255	255	255	
255	255	255	
255	255	255	
255	255	255	
255	255	255	
255	255	255	
255	255	255	
255	255	255	
255	255	255	
255	255	255	
255	255	255	
255	255	255	
255	255	255	
255	255	255	
255	255	255	
255	255	255	
255	255	255	
255	255	255	
255	255	255	
255	255	255	
255	255	255	
255	255	255	
255	255	255	
255	255	255	
255	255	255	
255	255	255	
255	255	255	
255	255	255	
255	255	255	
255	255	255	
255	255	255	
255	255	255	
255	255	255	
255	255	255	
255	255	255	
255	255	255	
255	255	255	
255	255	255	
255	255	255	
255	255	255	
255	255	255	
255	255	255	
255	255	255	
255	255	255	
255	255	255	
255	255	255	
255	255	255	
255	255	255	
255	255	255	
255	255	255	
255	255	255	
255	255	255	
255	255	255	
255	255	255	
255	255	255	
255	255	255	
255	255	255	
255	255	255	
255	255	255	
255	255	255	
255	255	255	
255	255	255	
255	255	255	
255	255	255	
255	255	255	
255	255	255	
255	255	255	
255	255	255	
255	255	255	
255	255	255	
255	255	255	
255	255	255	
255	255	255	
255	255	255	
255	255	255	
255	255	255	
255	255	255	
255	255	255	
255	255	255	
255	255	255	
255	255	255	
255	255	255	
255	255	255	
255	255	255	
255	255	255	
255	255	255	
255	255	255	
255	255	255	
255	255	255	
255	255	255	
255	255	255	
255	255	255	
255	255	255	
255	255	255	
255	255	255	
255	255	255	
255	255	255	
255	255	255	
255	255	255	
255	255	255	
255	255	255	
255	255	255	
255	255	255	
255	255	255	
255	255	255	
255	255	255	
255	255	255	
255	255	255	
255	255	255	
255	255	255	
255	255	255	
255	255	255	
255	255	255	
255	255	255	
255	255	255	
255	255	255	
255	255	255	
255	255	255	
255	255	255	
255	255	255	
255	255	255	
255	255	255	
255	255	255	
255	255	255	
255	255	255	
255	255	255	
255	255	255	
255	255	255	
255	255	255	
255	255	255	
255	255	255	
255	255	255	
255	255	255	
255	255	255	
255	255	255	
255	255	255	
255	255	255	
255	255	255	
255	255	255	
255	255	255	
255	255	255	
255	255	255	
255	255	255	
255	255	255	
255	255	255	
255	255	255	
255	255	255	
255	255	255	
255	255	255	
255	255	255	
255	255	255	
255	255	255	
255	255	255	
255	255	255	
255	255	255	
255	255	255	
255	255	255	
255	255	255	
255	255	255	
255	255	255	
255	255	255	
255	255	255	
255	255	255	
255	255	255	
255	255	255	
255	255	255	
255	255	255	
255	255	255	
255	255	255	
255	255	255	
255	255	255	
255	255	255	
255	255	255	
255	255	255	
255	255	255	
255	255	255	
255	255	255	
255	255	255	
255	255	255	
255	255	255	
255	255	255	
255	255	255	
255	255	255	
255	255	255	
255	255	255	
255	255	255	
255	255	255	
255	255	255	
255	255	255	
255	255	255	
255	255	255	
255	255	255	
255	255	255	
255	255	255	
255	255	255	
255	255	255	
255	255	255	
255	255	255	
255	255	255	
255	255	255	
255	255	255	
255	255	255	
255	255	255	
255	255	255	
255	255	255	
255	255	255	
255	255	255	
255	255	255	
255	255	255	
255	255	255	
255	255	255	
255	255	255	
255	255	255	
255	255	255	
255	255	255	
255	255	255	
255	255	255	
255	255	255	
255	255	255	
255	255	255	
255	255	255	
255	255	255	
255	255	255	
255	255	255	
255	255	255	
255	255	255	
255	255	255	
255	255	255	
255	255	255	
255	255	255	
255	255	255	
255	255	255	
255	255	255	
255	255	255	
255	255	255	
255	255	255	
255	255	255	
255	255	255	
255	255	255	
255	255	255	
255	255	255	
255	255	255	
255	255	255	
255	255	255	
255	255	255	
255	255	255	
255	255	255	
255	255	255	
255	255	255	
255	255	255	
255	255	255	
255	255	255	
255	255	255	
255	255	255	
255	255	255	
255	255	255	
255	255	255	
255	255	255	
255	255	255	
255	255	255	
255	255	255	
255	255	255	
255	255	255	
255	255	255	
255	255	255	
255	255	255	
255	255	255	
255	255	255	
255	255	255	
255	255	255	
255	255	255	
255	255	255	
255	255	255	
255	255	255	
255	255	255	
255	255	255	
255	255	255	
255	255	255	
255	255	255	
255	255	255	
255	255	255	
255	255	255	
255	255	255	
255	255	255	
255	255	255	
255	255	255	
255	255	255	
255	255	255	
255	255	255	
255	255	255	
255	255	255	
255	255	255	
255	255	255	
255	255	255	
255	255	255	
255	255	255	
255	255	255	
255	255	255	
255	255	255	
255	255	255	
255	255	255	
255	255	255	
255	255	255	
255	255	255	
255	255	255	
255	255	255	
255	255	255	
255	255	255	
255	255	255	
255	255	255	
255	255	255	
255	255	255	
255	255	255	
255	255	255	
255	255	255	
255	255	255	
255	255	255	
255	255	255	
255	255	255	
255	255	255	
255	255	255	
255	255	255	
255	255	255	
255	255	255	
255	255	255	
255	255	255	
255	255	255	
255	255	255	
255	255	255	
255	255	255	
255	255	255	
255	255	255	
255	255	255	
255	255	255	
255	255	255	
255	255	255	
255	255	255	
255	255	255	
255	255	255	
255	255	255	
255	255	255	
255	255	255	
255	255	255	
255	255	255	
255	255	255	
255	255	255	
255	255	255	
255	255	255	
255	255	255	
255	255	255	
255	255	255	
255	255	255	
255	255	255	
255	255	255	
255	255	255	
255	255	255	
255	255	255	
255	255	255	
255	255	255	
255	255	255	
255	255	255	
255	255	255	
255	255	255	
255	255	255	
255	255	255	
255	255	255	
255	255	255	
255	255	255	
255	255	255	
255	255	255	
255	255	255	
255	255	255	
255	255	255	
255	255	255	
255	255	255	
255	255	255	
255	255	255	
255	255	255	
255	255	255	
255	255	255	
255	255	255	
255	255	255	
255	255	255	
255	255	255	
255	255	255	
255	255	255	
255	255	255	
255	255	255	
255	255	255	
255	255	255	
255	255	255	
255	255	255	
255	255	255	
255	255	255	
255	255	255	
255	255	255	
255	255	255	
255	255	255	
255	255	255	
255	255	255	
255	255	255	
255	255	255	
255	255	255	
255	255	255	
255	255	255	
255	255	255	
255	255	255	
255	255	255	
255	255	255	
255	255	255	
255	255	255	
255	255	255	
255	255	255	
255	255	255	
255	255	255	
255	255	255	
255	255	255	
255	255	255	
255	255	255	
255	255	255	
255	255	255	
255	255	255	
255	255	255	
255	255	255	
255	255	255	
255	255	255	
255	255	255	
255	255	255	
255	255	255	
255	255	255	
255	255	255	
255	255	255	
255	255	255	
255	255	255	
255	255	255	
255	255	255	
255	255	255	
255	255	255	
255	255	255	
255	255	255	
255	255	255	
255	255	255	
255	255	255	
255	255	255	
255	255	255	
255	255	255	
255	255	255	
255	255	255	
255	255	255	
255	255	255	
255	255	255	
255	255	255	
255	255	255	
255	255	255	
255	255	255	
255	255	255	
255	255	255	
255	255	255	
255	255	255	
255	255	255	
255	255	255	
255	255	255	
255	255	255	
255	255	255	
255	255	255	
255	255	255	
255	255	255	
255	255	255	
255	255	255	
255	255	255	
255	255	255	
255	255	255	
255	255	255	
255	255	255	
255	255	255	
255	255	255	
255	255	255	
255	255	255	
255	255	255	
255	255	255	
255	255	255	
255	255	255	
255	255	255	
255	255	255	
255	255	255	
255	255	255	
255	255	255	
255	255	255	
255	255	255	
255	255	255	
255	255	255	
255	255	255	
255	255	255	
255	255	255	
255	255	255	
255	255	255	
255	255	255	
255	255	255	
255	255	255	
255	255	255	
255	255	255	
255	255	255	
255	255	255	
255	255	255	
255	255	255	
255	255	255	
255	255	255	
255	255	255	
255	255	255	
255	255	255	
255	255	255	
255	255	255	
255	255	255	
255	255	255	
255	255	255	
255	255	255	
255	255	255	
255	255	255	
255	255	255	
255	255	255	
255	255	255	
255	255	255	
255	255	255	
255	255	255	
255	255	255	
255	255	255	
255	255	255	
255	255	255	
255	255	255	
255	255	255	
255	255	255	
255	255	255	
255	255	255	
255	255	255	
255	255	255	
255	255	255	
255	255	255	
255	255	255	
255	255	255	
255	255	255	
255	255	255	
255	255	255	
255	255	255	
255	255	255	
255	255	255	
255	255	255	
255	255	255	
255	255	255	
255	255	255	
255	255	255	
255	255	255	
255	255	255	
255	255	255	
255	255	255	
255	255	255	
255	255	255	
255	255	255	
255	255	255	
255	255	255	
255	255	255	
255	255	255	
255	255	255	
255	255	255	
255	255	255	
255	255	255	
255	255	255	
255	255	255	
255	255	255	
255	255	255	
255	255	255	
255	255	255	
255	255	255	
255	255	255	
255	255	255	
255	255	255	
255	255	255	
255	255	255	
255	255	255	
255	255	255	
255	255	255	
255	255	255	
255	255	255	
255	255	255	
255	255	255	
255	255	255	
255	255	255	
255	255	255	
255	255	255	
255	255	255	
255	255	255	
255	255	255	
255	255	255	
255	255	255	
255	255	255	
255	255	255	
255	255	255	
255	255	255	
255	255	255	
255	255	255	
255	255	255	
255	255	255	
255	255	255	
255	255	255	
255	255	255	
255	255	255	
255	255	255	
255	255	255	
255	255	255	
255	255	255	
255	255	255	
255	255	255	
255	255	255	
255	255	255	
255	255	255	
255	255	255	
255	255	255	
255	255	255	
255	255	255	
255	255	255	
255	255	255	
255	255	255	
255	255	255	
255	255	255	
255	255	255	
255	255	255	
255	255	255	
255	255	255	
255	255	255	
255	255	255	
255	255	255	
255	255	255	
255	255	255	
255	255	255	
255	255	255	
255	255	255	
255	255	255	
255	255	255	
255	255	255	
255	255	255	
255	255	255	
255	255	255	
255	255	255	
255	255	255	
255	255	255	
255	255	255	
255	255	255	
255	255	255	
255	255	255	
255	255	255	
255	255	255	
255	255	255	
255	255	255	
255	255	255	
255	255	255	
255	255	255	
255	255	255	
255	255	255	
255	255	255	
255	255	255	
255	255	255	
255	255	255	
255	255	255	
255	255	255	
255	255	255	
255	255	255	
255	255	255	
255	255	255	
255	255	255	
255	255	255	
255	255	255	
255	255	255	
255	255	255	
255	255	255	
255	255	255	
255	255	255	
255	255	255	
255	255	255	
255	255	255	
255	255	255	
255	255	255	
255	255	255	
255	255	255	
255	255	255	
255	255	255	
255	255	255	
255	255	255	
255	255	255	
255	255	255	
255	255	255	
255	255	255	
255	255	255	
255	255	255	
255	255	255	
255	255	255	
255	255	255	
255	255	255	
255	255	255	
255	255	255	
255	255	255	
255	255	255	
255	255	255	
255	255	255	
255	255	255	
255	255	255	
255	255	255	
255	255	255	
255	255	255	
255	255	255	
255	255	255	
255	255	255	
255	255	255	
255	255	255	
255	255	255	
255	255	255	
255	255	255	
255	255	255	
255	255	255	
255	255	255	
255	255	255	
255	255	255	
255	255	255	
255	255	255	
255	255	255	
255	255	255	
255	255	255	
255	255	255	
255	255	255	
255	255	255	
255	255	255	
255	255	255	
255	255	255	
255	255	255	
255	255	255	
255	255	255	
255	255	255	
255	255	255	
255	255	255	
255	255	255	
255	255	255	
255	255	255	
255	255	255	
255	255	255	
255	255	255	
255	255	255	
255	255	255	
255	255	255	
255	255	255	
255	255	255	
255	255	255	
255	255	255	
255	255	255	
255	255	255	
255	255	255	
255	255	255	
255	255	255	
255	255	255	
255	255	255	
255	255	255	
255	255	255	
255	255	255	
255	255	255	
255	255	255	
255	255	255	
255	255	255	
255	255	255	
255	255	255	
255	255	255	
255	255	255	
255	255	255	
255	255	255	
255	255	255	
255	255	255	
255	255	255	
255	255	255	
255	255	255	
255	255	255	
255	255	255	
255	255	255	
255	255	255	
255	255	255	
255	255	255	
255	255	255	
255	255	255	
255	255	255	
255	255	255	
255	255	255	
255	255	255	
255	255	255	
255	255	255	
255	255	255	
255	255	255	
255	255	255	
255	255	255	
255	255	255	
255	255	255	
255	255	255	
255	255	255	
255	255	255	
255	255	255	
255	255	255	
255	255	255	
255	255	255	
255	255	255	
255	255	255	
255	255	255	
255	255	255	
255	255	255	
255	255	255	
255	255	255	
255	255	255	
255	255	255	
255	255	255	
255	255	255	
255	255	255	
255	255	255	
255	255	255	
255	255	255	
255	255	255	
255	255	255	
255	255	255	
255	255	255	
255	255	255	
255	255	255	
255	255	255	
255	255	255	
255	255	255	
255	255	255	
255	255	255	
255	255	255	
255	255	255	
255	255	255	
255	255	255	
255	255	255	
255	255	255	
255	255	255	
255	255	255	
255	255	255	
255	255	255	
255	255	255	
255	255	255	
255	255	255	
255	255	255	
255	255	255	
255	255	255	
255	255	255	
255	255	255	
255	255	255	
255	255	255	
255	255	255	
255	255	255	
255	255	255	
255	255	255	
255	255	255	
255	255	255	
255	255	255	
255	255	255	
255	255	255	
255	255	255	
255	255	255	
255	255	255	
255	255	255	
255	255	255	
255	255	255	
255	255	255	
255	255	255	
255	255	255	
255	255	255	
255	255	255	
255	255	255	
255	255	255	
255	255	255	
255	255	255	
255	255	255	
255	255	255	
255	255	255	
255	255	255	
255	255	255	
255	255	255	
255	255	255	
255	255	255	
255	255	255	
255	255	255	
255	255	255	
255	255	255	
255	255	255	
255	255	255	
255	255	255	
255	255	255	
255	255	255	
255	255	255	
255	255	255	
255	255	255	
255	255	255	
255	255	255	
255	255	255	
255	255	255	
255	255	255	
255	255	255	
255	255	255	
255	255	255	
255	255	255	
255	255	255	
255	255	255	
255	255	255	
255	255	255	
255	255	255	
255	255	255	
255	255	255	
255	255	255	
255	255	255	
255	255	255	
255	255	255	
255	255	255	
255	255	255	
255	255	255	
255	255	255	
255	255	255	
255	255	255	
255	255	255	
255	255	255	
255	255	255	
255	255	255	
255	255	255	
255	255	255	
255	255	255	
255	255	255	
255	255	255	
255	255	255	
255	255	255	
255	255	255	
255	255	255	
255	255	255	
255	255	255	
255	255	255	
255	255	255	
255	255	255	
255	255	255	
255	255	255	
255	255	255	
255	255	255	
255	255	255	
255	255	255	
255	255	255	
255	255	255	
255	255	255	
255	255	255	
255	255	255	
255	255	255	
255	255	255	
255	255	255	
255	255	255	
255	255	255	
255	255	255	
255	255	255	
255	255	255	
255	255	255	
255	255	255	
255	255	255	
255	255	255	
255	255	255	
255	255	255	
255	255	255	
255	255	255	
255	255	255	
255	255	255	
255	255	255	
255	255	255	
255	255	255	
255	255	255	
255	255	255	
255	255	255	
255	255	255	
255	255	255	
255	255	255	
255	255	255	
255	255	255	
255	255	255	
255	255	255	
255	255	255	
255	255	255	
255	255	255	
255	255	255	
255	255	255	
255	255	255	
255	255	255	
255	255	255	
255	255	255	
255	255	255	
255	255	255	
255	255	255	
255	255	255	
255	255	255	
255	255	255	
255	255	255	
255	255	255	
255	255	255	
255	255	255	
255	255	255	
255	255	255	
255	255	255	
255	255	255	
255	255	255	
255	255	255	
255	255	255	
255	255	255	
255	255	255	
255	255	255	
255	255	255	
255	255	255	
255	255	255	
255	255	255	
255	255	255	
255	255	255	
255	255	255	
255	255	255	
255	255	255	
255	255	255	
255	255	255	
255	255	255	
255	255	255	
255	255	255	
255	255	255	
255	255	255	
255	255	255	
255	255	255	
255	255	255	
255	255	255	
255	255	255	
255	255	255	
255	255	255	
255	255	255	
255	255	255	
255	255	255	
255	255	255	
255	255	255	
255	255	255	
255	255	255	
255	255	255	
255	255	255	
255	255	255	
255	255	255	
255	255	255	
255	255	255	
255	255	255	
255	255	255	
255	255	255	
255	255	255	
255	255	255	
255	255	255	
255	255	255	
255	255	255	
255	255	255	
255	255	255	
255	255	255	
255	255	255	
255	255	255	
255	255	255	
255	255	255	
255	255	255	
255	255	255	
255	255	255	
255	255	255	
255	255	255	
255	255	255	
255	255	255	
255	255	255	
255	255	255	
255	255	255	
255	255	255	
255	255	255	
255	255	255	
255	255	255	
255	255	255	
255	255	255	
255	255	255	
255	255	255	
255	255	255	
255	255	255	
255	255	255	
255	255	255	
255	255	255	
255	255	255	
255	255	255	
255	255	255	
255	255	255	
255	255	255	
255	255	255	
255	255	255	
255	255	255	
255	255	255	
255	255	255	
255	255	255	
255	255	255	
255	255	255	
255	255	255	
255	255	255	
255	255	255	
255	255	255	
255	255	255	
255	255	255	
255	255	255	
255	255	255	
255	255	255	
255	255	255	
255	255	255	
255	255	255	
255	255	255	
255	255	255	
255	255	255	
255	255	255	
255	255	255	
255	255	255	
255	255	255	
255	255	255	
255	255	255	
255	255	255	
255	255	255	
255	255	255	
255	255	255	
255	255	255	
255	255	255	
255	255	255	
255	255	255	
255	255	255	
255	255	255	
255	255	255	
255	255	255	
255	255	255	
255	255	255	
255	255	255	
255	255	255	
255	255	255	
255	255	255	
255	255	255	
255	255	255	
255	255	255	
255	255	255	
255	255	255	
255	255	255	
255	255	255	
255	255	255	
255	255	255	
255	255	255	
255	255	255	
255	255	255	
255	255	255	
255	255	255	
255	255	255	
255	255	255	
255	255	255	
255	255	255	
255	255	255	
255	255	255	
255	255	255	
255	255	255	
255	255	255	
255	255	255	
255	255	255	
255	255	255	
255	255	255	
255	255	255	
255	255	255	
255	255	255	
255	255	255	
255	255	255	
255	255	255	
255	255	255	
255	255	255	
255	255	255	
255	255	255	
255	255	255	
255	255	255	
255	255	255	
255	255	255	
255	255	255	
255	255	255	
255	255	255	
255	255	255	
255	255	255	
255	255	255	
255	255	255	
255	255	255	
255	255	255	
255	255	255	
255	255	255	
255	255	255	
255	255	255	
255	255	255	
255	255	255	
255	255	255	
255	255	255	
255	255	255	
255	255	255	
255	255	255	
255	255	255	
255	255	255	
255	255	255	
255	255	255	
255	255	255	
255	255	255	
255	255	255	
255	255	255	
255	255	255	
255	255	255	
255	255	255	
255	255	255	
255	255	255	
255	255	255	
255	255	255	
255	255	255	
255	255	255	
255	255	255	
255	255	255	
255	255	255	
255	255	255	
255	255	255	
255	255	255	
255	255	255	
255	255	255	
255	255	255	
255	255	255	
255	255	255	
255	255	255	
255	255	255	
255	255	255	
255	255	255	
255	255	255	
255	255	255	
255	255	255	
255	255	255	
255	255	255	
255	255	255	
255	255	255	
255	255	255	
255	255	255	
255	255	255	
255	255	255	
255	255	255	
255	255	255	
255	255	255	
255	255	255	
255	255	255	
255	255	255	
255	255	255	
255	255	255	
255	255	255	
255	255	255	
255	255	255	
255	255	255	
255	255	255	
255	255	255	
255	255	255	
255	255	255	
255	255	255	
255	255	255	
255	255	255	
255	255	255	
255	255	255	
255	255	255	
255	255	255	
255	255	255	
255	255	255	
255	255	255	
255	255	255	
255	255	255	
255	255	255	
255	255	255	
255	255	255	
255	255	255	
255	255	255	
255	255	255	
255	255	255	
255	255	255	
255	255	255	
255	255	255	
255	255	255	
255	255	255	
255	255	255	
255	255	255	
255	255	255	
255	255	255	
255	255	255	
255	255	255	
255	255	255	
255	255	255	
255	255	255	
255	255	255	
255	255	255	
255	255	255	
255	255	255	
255	255	255	
255	255	255	
255	255	255	
255	255	255	
255	255	255	
255	255	255	
255	255	255	
255	255	255	
255	255	255	
255	255	255	
255	255	255	
255	255	255	
255	255	255	
255	255	255	
255	255	255	
255	255	255	
255	255	255	
255	255	255	
255	255	255	
255	255	255	
255	255	255	
255	255	255	
255	255	255	
255	255	255	
255	255	255	
255	255	255	
255	255	255	
255	255	255	
255	255	255	
255	255	255	
255	255	255	
255	255	255	
255	255	255	
255	255	255	
255	255	255	
255	255	255	
255	255	255	
255	255	255	
255	255	255	
255	255	255	
255	255	255	
255	255	255	
255	255	255	
255	255	255	
255	255	255	
255	255	255	
255	255	255	
255	255	255	
255	255	255	
255	255	255	
255	255	255	
255	255	255	
255	255	255	
255	255	255	
255	255	255	
255	255	255	
255	255	255	
255	255	255	
255	255	255	
255	255	255	
255	255	255	
255	255	255	
255	255	255	
255	255	255	
255	255	255	
255	255	255	
255	255	255	
255	255	255	
255	255	255	
255	255	255	
255	255	255	
255	255	255	
255	255	255	
255	255	255	
255	255	255	
255	255	255	
255	255	255	
255	255	255	
255	255	255	
255	255	255	
255	255	255	
255	255	255	
255	255	255	
255	255	255	
255	255	255	
255	255	255	
255	255	255	
255	255	255	
255	255	255	
255	255	255	
255	255	255	
255	255	255	
255	255	255	
255	255	255	
255	255	255	
255	255	255	
255	255	255	
255	255	255	
255	255	255	
255	255	255	
255	255	255	
255	255	255	
255	255	255	
255	255	255	
255	255	255	
255	255	255	
255	255	255	
255	255	255	
255	255	255	
255	255	255	
255	255	255	
255	255	255	
255	255	255	
255	255	255	
255	255	255	
255	255	255	
255	255	255	
255	255	255	
255	255	255	
255	255	255	
255	255	255	
255	255	255	
255	255	255	
255	255	255	
255	255	255	
255	255	255	
255	255	255	
255	255	255	
255	255	255	
255	255	255	
255	255	255	
255	255	255	
255	255	255	
255	255	255	
255	255	255	
255	255	255	
255	255	255	
255	255	255	
255	255	255	
255	255	255	
255	255	255	
255	255	255	
255	255	255	
255	255	255	
255	255	255	
255	255	255	
255	255	255	
255	255	255	
255	255	255	
255	255	255	
255	255	255	
255	255	255	
255	255	255	
255	255	255	
255	255	255	
255	255	255	
255	255	255	
255	255	255	
255	255	255	
255	255	255	
255	255	255	
255	255	255	
255	255	255	
255	255	255	
255	255	255	
255	255	255	
255	255	255	
255	255	255	
255	255	255	
255	255	255	
255	255	255	
255	255	255	
255	255	255	
255	255	255	
255	255	255	
255	255	255	
255	255	255	
255	255	255	
255	255	255	
255	255	255	
255	255	255	
255	255	255	
255	255	255	
255	255	255	
255	255	255	
255	255	255	
255	255	255	
255	255	255	
255	255	255	
255	255	255	
255	255	255	
255	255	255	
255	255	255	
255	255	255	
255	255	255	
255	255	255	
255	255	255	
255	255	255	
255	255	255	
255	255	255	
255	255	255	
255	255	255	
255	255	255	
255	255	255	
255	255	255	
255	255	255	
255	255	255	
255	255	255	
255	255	255	
255	255	255	
255	255	255	
255	255	255	
255	255	255	
255	255	255	
255	255	255	
255	255	255	
255	255	255	
255	255	255	
255	255	255	
255	255	255	
255	255	255	
255	255	255	
255	255	255	
255	255	255	
255	255	255	
255	255	255	
255	255	255	
255	255	255	
255	255	255	
255	255	255	
255	255	255	
255	255	255	
255	255	255	
255	255	255	
255	255	255	
255	255	255	
255	255	255	
255	255	255	
255	255	255	
255	255	255	
255	255	255	
255	255	255	
255	255	255	
255	255	255	
255	255	255	
255	255	255	
255	255	255	
255	255	255	
255	255	255	
255	255	255	
255	255	255	
255	255	255	
255	255	255	
255	255	255	
255	255	255	
255	255	255	
255	255	255	
255	255	255	
255	255	255	
255	255	255	
255	255	255	
255	255	255	
255	255	255	
255	255	255	
255	255	255	
255	255	255	
255	255	255	
255	255	255	
255	255	255	
255	255	255	
255	255	255	
255	255	255	
255	255	255	
255	255	255	
255	255	255	
255	255	255	
255	255	255	
255	255	255	
255	255	255	
255	255	255	
255	255	255	
255	255	255	
255	255	255	
255	255	255	
255	255	255	
255	255	255	
255	255	255	
255	255	255	
255	255	255	
255	255	255	
255	255	255	
255	255	255	
255	255	255	
255	255	255	
255	255	255	
255	255	255	
255	255	255	
255	255	255	
255	255	255	
255	255	255	
255	255	255	
255	255	255	
255	255	255	
255	255	255	
255	255	255	
255	255	255	
255	255	255	
255	255	255	
255	255	255	
255	255	255	
255	255	255	
255	255	255	
255	255	255	
255	255	255	
255	255	255	
255	255	255	
255	255	255	
255	255	255	
255	255	255	
255	255	255	
255	255	255	
255	255	255	
255	255	255	
255	255	255	
255	255	255	
255	255	255	
255	255	255	
255	255	255	
255	255	255	
255	255	255	
255	255	255	
255	255	255	
255	255	255	
255	255	255	
255	255	255	
255	255	255	
255	255	255	
255	255	255	
255	255	255	
255	255	255	
255	255	255	
255	255	255	
255	255	255	
255	255	255	
255	255	255	
255	255	255	
255	255	255	
255	255	255	
255	255	255	
255	255	255	
255	255	255	
255	255	255	
255	255	255	
255	255	255	
255	255	255	
255	255	255	
255	255	255	
255	255	255	
255	255	255	
255	255	255	
255	255	255	
255	255	255	
255	255	255	
255	255	255	
255	255	255	
255	255	255	
255	255	255	
255	255	255	
255	255	255	
255	255	255	
255	255	255	
255	255	255	
255	255	255	
255	255	255	
255	255	255	
255	255	255	
255	255	255	
255	255	255	
255	255	255	
255	255	255	
255	255	255	
255	255	255	
255	255	255	
255	255	255	
255	255	255	
255	255	255	
255	255	255	
255	255	255	
255	255	255	
255	255	255	
255	255	255	
255	255	255	
255	255	255	
255	255	255	
255	255	255	
255	255	255	
255	255	255	
255	255	255	
255	255	255	
255	255	255	
255	255	255	
255	255	255	
255	255	255	
255	255	255	
255	255	255	
255	255	255	
255	255	255	
255	255	255	
255	255	255	
255	255	255	
255	255	255	
255	255	255	
255	255	255	
255	255	255	
255	255	255	
255	255	255	
255	255	255	
255	255	255	
255	255	255	
255	255	255	
255	255	255	
255	255	255	
255	255	255	
255	255	255	
255	255	255	
255	255	255	
255	255	255	
255	255	255	
255	255	255	
255	255	255	
255	255	255	
255	255	255	
255	255	255	
255	255	255	
255	255	255	
255	255	255	
255	255	255	
255	255	255	
255	255	255	
255	255	255	
255	255	255	
255	255	255	
255	255	255	
255	255	255	
255	255	255	
255	255	255	
255	255	255	
255	255	255	
255	255	255	
255	255	255	
255	255	255	
255	255	255	
255	255	255	
255	255	255	
255	255	255	
255	255	255	
255	255	255	
255	255	255	
255	255	255	
255	255	255	
255	255	255	
255	255	255	
255	255	255	
255	255	255	
255	255	255	
255	255	255	
255	255	255	
255	255	255	
255	255	255	
255	255	255	
255	255	255	
255	255	255	
255	255	255	
255	255	255	
255	255	255	
255	255	255	
255	255	255	
255	255	255	
255	255	255	
255	255	255	
255	255	255	
255	255	255	
255	255	255	
255	255	255	
255	255	255	
255	255	255	
255	255	255	
255	255	255	
255	255	255	
255	255	255	
255	255	255	
255	255	255	
255	255	255	
255	255	255	
255	255	255	
255	255	255	
255	255	255	
255	255	255	
255	255	255	
255	255	255	
255	255	255	
255	255	255	
255	255	255	
255	255	255	
255	255	255	
255	255	255	
255	255	255	
255	255	255	
255	255	255	
255	255	255	
255	255	255	
255	255	255	
255	255	255	
255	255	255	
255	255	255	
255	255	255	
255	255	255	
255	255	255	
255	255	255	
255	255	255	
255	255	255	
255	255	255	
255	255	255	
255	255	255	
255	255	255	
255	255	255	
255	255	255	
255	255	255	
255	255	255	
255	255	255	
255	255	255	
255	255	255	
255	255	255	
255	255	255	
255	255	255	
255	255	255	
255	255	255	
255	255	255	
255	255	255	
255	255	255	
255	255	255	
255	255	255	
255	255	255	
255	255	255	
255	255	255	
255	255	255	
255	255	255	
255	255	255	
255	255	255	
255	255	255	
255	255	255	
255	255	255	
255	255	255	
255	255	255	
255	255	255	
255	255	255	
255	255	255	
255	255	255	
255	255	255	
255	255	255	
255	255	255	
255	255	255	
255	255	255	
255	255	255	
255	255	255	
255	255	255	
255	255	255	
255	255	255	
255	255	255	
255	255	255	
255	255	255	
255	255	255	
255	255	255	
255	255	255	
255	255	255	
255	255	255	
255	255	255	
255	255	255	
255	255	255	
255	255	255	
255	255	255	
255	255	255	
255	255	255	
255	255	255	
255	255	255	
255	255	255	
255	255	255	
255	255	255	
255	255	255	
255	255	255	
255	255	255	
255	255	255	
255	255	255	
255	255	255	
255	255	255	
255	255	255	
255	255	255	
255	255	255	
255	255	255	
255	255	255	
255	255	255	
255	255	255	
255	255	255	
255	255	255	
255	255	255	
255	255	255	
255	255	255	
255	255	255	
255	255	255	
255	255	255	
255	255	255	
255	255	255	
255	255	255	
255	255	255	
255	255	255	
255	255	255	
255	255	255	
255	255	255	
255	255	255	
255	255	255	
255	255	255	
255	255	255	
255	255	255	
255	255	255	
255	255	255	
255	255	255	
255	255	255	
255	255	255	
255	255	255	
255	255	255	
255	255	255	
255	255	255	
255	255	255	
255	255	255	
255	255	255	
255	255	255	
255	255	255	
255	255	255	
255	255	255	
255	255	255	
255	255	255	
255	255	255	
255	255	255	
255	255	255	
255	255	255	
255	255	255	
255	255	255	
255	255	255	
255	255	255	
255	255	255	
255	255	255	
255	255	255	
255	255	255	
255	255	255	
255	255	255	
255	255	255	
255	255	255	
255	255	255	
255	255	255	
255	255	255	
255	255	255	
255	255	255	
255	255	255	
255	255	255	
255	255	255	
255	255	255	
255	255	255	
255	255	255	
255	255	255	
255	255	255	
255	255	255	
255	255	255	
255	255	255	
255	255	255	
255	255	255	
255	255	255	
255	255	255	
255	255	255	
255	255	255	
255	255	255	
255	255	255	
255	255	255	
255	255	255	
255	255	255	
255	255	255	
255	255	255	
255	255	255	
255	255	255	
255	255	255	
255	255	255	
255	255	255	
255	255	255	
255	255	255	
255	255	255	
255	255	255	
255	255	255	
255	255	255	
255	255	255	
255	255	255	
255	255	255	
255	255	255	
255	255	255	
255	255	255	
255	255	255	
255	255	255	
255	255	255	
255	255	255	
255	255	255	
255	255	255	
255	255	255	
255	255	255	
255	255	255	
255	255	255	
255	255	255	
255	255	255	
255	255	255	
255	255	255	
255	255	255	
255	255	255	
255	255	255	
255	255	255	
255	255	255	
255	255	255	
255	255	255	
255	255	255	
255	255	255	
255	255	255	
255	255	255	
255	255	255	
255	255	255	
255	255	255	
255	255	255	
255	255	255	
255	255	255	
255	255	255	
255	255	255	
255	255	255	
255	255	255	
255	255	255	
255	255	255	
255	255	255	
255	255	255	
255	255	255	
255	255	255	
255	255	255	
255	255	255	
255	255	255	
255	255	255	
255	255	255	
255	255	255	
255	255	255	
255	255	255	
255	255	255	
255	255	255	
255	255	255	
255	255	255	
255	255	255	
255	255	255	
255	255	255	
255	255	255	
255	255	255	
255	255	255	
255	255	255	
255	255	255	
255	255	255	
255	255	255	
255	255	255	
255	255	255	
255	255	255	
255	255	255	
255	255	255	
255	255	255	
255	255	255	
255	255	255	
255	255	255	
255	255	255	
255	255	255	
255	255	255	
255	255	255	
255	255	255	
255	255	255	
255	255	255	
255	255	255	
255	255	255	
255	255	255	
255	255	255	
255	255	255	
255	255	255	
255	255	255	
255	255	255	
255	255	255	
255	255	255	
255	255	255	
255	255	255	
255	255	255	
255	255	255	
255	255	255	
255	255	255	
255	255	255	
255	255	255	
255	255	255	
255	255	255	
255	255	255	
255	255	255	
255	255	255	
255	255	255	
255	255	255	
255	255	255	
255	255	255	
255	255	255	
255	255	255	
255	255	255	
255	255	255	
255	255	255	
255	255	255	
255	255	255	
255	255	255	
255	255	255	
255	255	255	
255	255	255	
255	255	255	
255	255	255	
255	255	255	
255	255	255	
255	255	255	
255	255	255	
255	255	255	
255	255	255	
255	255	255	
255	255	255	
255	255	255	
255	255	255	
255	255	255	
255	255	255	
255	255	255	
255	255	255	
255	255	255	
255	255	255	
255	255	255	
255	255	255	
255	255	255	
255	255	255	
255	255	255	
255	255	255	
255	255	255	
255	255	255	
255	255	255	
255	255	255	
255	255	255	
255	255	255	
255	255	255	
255	255	255	
255	255	255	
255	255	255	
255	255	255	
255	255	255	
255	255	255	
255	255	255	
255	255	255	
255	255	255	
255	255	255	
255	255	255	
255	255	255	
255	255	255	
255	255	255	
255	255	255	
255	255	255	
255	255	255	
255	255	255	
255	255	255	
255	255	255	
255	255	255	
255	255	255	
255	255	255	
255	255	255	
255	255	255	
255	255	255	
255	255	255	
255	255	255	
255	255	255	
255	255	255	
255	255	255	
255	255	255	
255	255	255	
255	255	255	
255	255	255	
255	255	255	
255	255	255	
255	255	255	
255	255	255	
255	255	255	
255	255	255	
255	255	255	
255	255	255	
255	255	255	
255	255	255	
255	255	255	
255	255	255	
255	255	255	
255	255	255	
255	255	255	
255	255	255	
255	255	255	
255	255	255	
255	255	255	
255	255	255	
255	255	255	
255	255	255	
255	255	255	
255	255	255	
255	255	255	
255	255	255	
255	255	255	
255	255	255	
255	255	255	
255	255	255	
255	255	255	
255	255	255	
255	255	255	
255	255	255	
255	255	255	
255	255	255	
255	255	255	
255	255	255	
255	255	255	
255	255	255	
255	255	255	
255	255	255	
255	255	255	
255	255	255	
255	255	255	
255	255	255	
255	255	255	
255	255	255	
255	255	255	
255	255	255	
255	255	255	
255	255	255	
255	255	255	
255	255	255	
255	255	255	
255	255	255	
255	255	255	
255	255	255	
255	255	255	
255	255	255	
255	255	255	
255	255	255	
255	255	255	
255	255	255	
255	255	255	
255	255	255	
255	255	255	
255	255	255	
255	255	255	
255	255	255	
255	255	255	
255	255	255	
255	255	255	
255	255	255	
255	255	255	
255	255	255	
255	255	255	
255	255	255	
255	255	255	
255	255	255	
255	255	255	
255	255	255	
255	255	255	
255	255	255	
255	255	255	
255	255	255	
255	255	255	
255	255	255	
255	255	255	
255	255	255	
255	255	255	
255	255	255	
255	255	255	
255	255	255	
255	255	255	
255	255	255	
255	255	255	
255	255	255	
255	255	255	
255	255	255	
255	255	255	
255	255	255	
255	255	255	
255	255	255	
255	255	255	
255	255	255	
255	255	255	
255	255	255	
255	255	255	
255	255	255	
255	255	255	
255	255	255	
255	255	255	
255	255	255	
255	255	255	
255	255	255	
255	255	255	
255	255	255	
255	255	255	
255	255	255	
255	255	255	
255	255	255	
255	255	255	
255	255	255	
255	255	255	
255	255	255	
255	255	255	
255	255	255	
255	255	255	
255	255	255	
255	255	255	
255	255	255	
255	255	255	
255	255	255	
255	255	255	
255	255	255	
255	255	255	
255	255	255	
255	255	255	
255	255	255	
255	255	255	
255	255	255	
255	255	255	
255	255	255	
255	255	255	
255	255	255	
255	255	255	
255	255	255	
255	255	255	
255	255	255	
255	255	255	
255	255	255	
255	255	255	
255	255	255	
255	255	255	
255	255	255	
255	255	255	
255	255	255	
255	255	255	
255	255	255	
255	255	255	
255	255	255	
255	255	255	
255	255	255	
255	255	255	
255	255	255	
255	255	255	
255	255	255	
255	255	255	
255	255	255	
255	255	255	
255	255	255	
255	255	255	
255	255	255	
255	255	255	
255	255	255	
255	255	255	
255	255	255	
255	255	255	
255	255	255	
255	255	255	
255	255	255	
255	255	255	
255	255	255	
255	255	255	
255	255	255	
255	255	255	
255	255	255	
255	255	255	
255	255	255	
255	255	255	
255	255	255	
255	255	255	
255	255	255	
255	255	255	
255	255	255	
255	255	255	
255	255	255	
255	255	255	
255	255	255	
255	255	255	
255	255	255	
255	255	255	
255	255	255	
255	255	255	
255	255	255	
255	255	255	
255	255	255	
255	255	255	
255	255	255	
255	255	255	
255	255	255	
255	255	255	
255	255	255	
255	255	255	
255	255	255	
255	255	255	
255	255	255	
255	255	255	
255	255	255	
255	255	255	
255	255	255	
255	255	255	
255	255	255	
255	255	255	
255	255	255	
255	255	255	
255	255	255	
255	255	255	
255	255	255	
255	255	255	
255	255	255	
255	255	255	
255	255	255	
255	255	255	
255	255	255	
255	255	255	
255	255	255	
255	255	255	
255	255	255	
255	255	255	
255	255	255	
255	255	255	
255	255	255	
255	255	255	
255	255	255	
255	255	255	
255	255	255	
255	255	255	
255	255	255	
255	255	255	
255	255	255	
255	255	255	
255	255	255	
255	255	255	
255	255	255	
255	255	255	
255	255	255	
255	255	255	
255	255	255	
255	255	255	
255	255	255	
255	255	255	
255	255	255	
255	255	255	
255	255	255	
255	255	255	
255	255	255	
255	255	255	
255	255	255	
255	255	255	
255	255	255	
255	255	255	
255	255	255	
255	255	255	
255	255	255	
255	255	255	
255	255	255	
255	255	255	
255	255	255	
255	255	255	
255	255	255	
255	255	255	
255	255	255	
255	255	255	
255	255	255	
255	255	255	
255	255	255	
255	255	255	
255	255	255	
255	255	255	
255	255	255	
255	255	255	
255	255	255	
255	255	255	
255	255	255	
255	255	255	
255	255	255	
255	255	255	
255	255	255	
255	255	255	
255	255	255	
255	255	255	
255	255	255	
255	255	255	
255	255	255	
255	255	255	
255	255	255	
255	255	255	
255	255	255	
255	255	255	
255	255	255	
255	255	255	
255	255	255	
255	255	255	
255	255	255	
255	255	255	
255	255	255	
255	255	255	
255	255	255	
255	255	255	
255	255	255	
255	255	255	
255	255	255	
255	255	255	
255	255	255	
255	255	255	
255	255	255	
255	255	255	
255	255	255	
255	255	255	
255	255	255	
255	255	255	
255	255	255	
255	255	255	
255	255	255	
255	255	255	
255	255	255	
255	255	255	
255	255	255	
255	255	255	
255	255	255	
255	255	255	
255	255	255	
255	255	255	
255	255	255	
255	255	255	
255	255	255	
255	255	255	
255	255	255	
255	255	255	
255	255	255	
255	255	255	
255	255	255	
255	255	255	
255	255	255	
255	255	255	
255	255	255	
255	255	255	
255	255	255	
255	255	255	
255	255	255	
255	255	255	
255	255	255	
255	255	255	
255	255	255	
255	255	255	
255	255	255	
255	255	255	
255	255	255	
255	255	255	
255	255	255	
255	255	255	
255	255	255	
255	255	255	
255	255	255	
255	255	255	
255	255	255	
255	255	255	
255	255	255	
255	255	255	
255	255	255	
255	255	255	
255	255	255	
255	255	255	
255	255	255	
255	255	255	
255	255	255	
255	255	255	
255	255	255	
255	255	255	
255	255	255	
255	255	255	
255	255	255	
255	255	255	
255	255	255	
255	255	255	
255	255	255	
255	255	255	
255	255	255	
255	255	255	
255	255	255	
255	255	255	
255	255	255	
255	255	255	
255	255	255	
255	255	255	
255	255	255	
255	255	255	
255	255	255	
255	255	255	
255	255	255	
255	255	255	
255	255	255	
255	255	255	
255	255	255	
255	255	255	
255	255	255	
255	255	255	
255	255	255	
255	255	255	
255	255	255	
255	255	255	
255	255	255	
255	255	255	
255	255	255	
255	255	255	
255	255	255	
255	255	255	
255	255	255	
255	255	255	
255	255	255	
255	255	255	
255	255	255	
255	255	255	
255	255	255	
255	255	255	
255	255	255	
255	255	255	
255	255	255	
255	255	255	
255	255	255	
255	255	255	
255	255	255	
255	255	255	
255	255	255	
255	255	255	
255	255	255	
255	255	255	
255	255	255	
255	255	255	
255	255	255	
255	255	255	
255	255	255	
255	255	255	
255	255	255	
255	255	255	
255	255	255	
255	255	255	
255	255	255	
255	255	255	
255	255	255	
255	255	255	
255	255	255	
255	255	255	
255	255	255	
255	255	255	
255	255	255	
255	255	255	
255	255	255	
255	255	255	
255	255	255	
255	255	255	
255	255	255	
255	255	255	
255	255	255	
255	255	255	
255	255	255	
255	255	255	
255	255	255	
255	255	255	
255	255	255	
255	255	255	
255	255	255	
255	255	255	
255	255	255	
255	255	255	
255	255	255	
255	255	255	
255	255	255	
255	255	255	
255	255	255	
255	255	255	
255	255	255	
255	255	255	
255	255	255	
255	255	255	
255	255	255	
255	255	255	
255	255	255	
255	255	255	
255	255	255	
255	255	255	
255	255	255	
255	255	255	
255	255	255	
255	255	255	
255	255	255	
255	255	255	
255	255	255	
255	255	255	
255	255	255	
255	255	255	
255	255	255	
255	255	255	
255	255	255	
255	255	255	
255	255	255	
255	255	255	
255	255	255	
255	255	255	
255	255	255	
255	255	255	
255	255	255	
255	255	255	
255	255	255	
255	255	255	
255	255	255	
255	255	255	
255	255	255	
255	255	255	
255	255	255	
255	255	255	
255	255	255	
255	255	255	
255	255	255	
255	255	255	
255	255	255	
255	255	255	
255	255	255	
255	255	255	
255	255	255	
255	255	255	
255	255	255	
255	255	255	
255	255	255	
255	255	255	
255	255	255	
255	255	255	
255	255	255	
255	255	255	
255	255	255	
255	255	255	
255	255	255	
255	255	255	
255	255	255	
255	255	255	
255	255	255	
255	255	255	
255	255	255	
255	255	255	
255	255	255	
255	255	255	
255	255	255	
255	255	255	
255	255	255	
255	255	255	
255	255	255	
255	255	255	
255	255	255	
255	255	255	
255	255	255	
255	255	255	
255	255	255	
255	255	255	
255	255	255	
255	255	255	
255	255	255	
255	255	255	
255	255	255	
255	255	255	
255	255	255	
255	255	255	
255	255	255	
255	255	255	
255	255	255	
255	255	255	
255	255	255	
255	255	255	
255	255	255	
255	255	255	
255	255	255	
255	255	255	
255	255	255	
255	255	255	
255	255	255	
255	255	255	
255	255	255	
255	255	255	
255	255	255	
255	255	255	
255	255	255	
255	255	255	
255	255	255	
255	255	255	
255	255	255	
255	255	255	
255	255	255	
255	255	255	
255	255	255	
255	255	255	
255	255	255	
255	255	255	
255	255	255	
255	255	255	
255	255	255	
255	255	255	
255	255	255	
255	255	255	
255	255	255	
255	255	255	
255	255	255	
255	255	255	
255	255	255	
255	255	255	
255	255	255	
255	255	255	
255	255	255	
255	255	255	
255	255	255	
255	255	255	
255	255	255	
255	255	255	
255	255	255	
255	255	255	
255	255	255	
255	255	255	
255	255	255	
255	255	255	
255	255	255	
255	255	255	
255	255	255	
255	255	255	
255	255	255	
255	255	255	
255	255	255	
255	255	255	
255	255	255	
255	255	255	
255	255	255	
255	255	255	
255	255	255	
255	255	255	
255	255	255	
255	255	255	
255	255	255	
255	255	255	
255	255	255	
255	255	255	
255	255	255	
255	255	255	
255	255	255	
255	255	255	
255	255	255	
255	255	255	
255	255	255	
255	255	255	
255	255	255	
255	255	255	
255	255	255	
255	255	255	
255	255	255	
255	255	255	
255	255	255	
255	255	255	
255	255	255	
255	255	255	
255	255	255	
255	255	255	
255	255	255	
255	255	255	
255	255	255	
255	255	255	
255	255	255	
255	255	255	
255	255	255	
255	255	255	
255	255	255	
255	255	255	
255	255	255	
255	255	255	
255	255	255	
255	255	255	
255	255	255	
255	255	255	
255	255	255	
255	255	255	
255	255	255	
255	255	255	
255	255	255	
255	255	255	
255	255	255	
255	255	255	
255	255	255	
255	255	255	
255	255	255	
255	255	255	
255	255	255	
255	255	255	
255	255	255	
255	255	255	
255	255	255	
255	255	255	
255	255	255	
255	255	255	
255	255	255	
255	255	255	
255	255	255	
255	255	255	
255	255	255	
255	255	255	
255	255	255	
255	255	255	
255	255	255	
255	255	255	
255	255	255	
255	255	255	
255	255	255	
255	255	255	
255	255	255	
255	255	255	
255	255	255	
255	255	255	
255	255	255	
255	255	255	
255	255	255	
255	255	255	
255	255	255	
255	255	255	
255	255	255	
255	255	255	
255	255	255	
255	255	255	
255	255	255	
255	255	255	
255	255	255	
255	255	255	
255	255	255	
255	255	255	
255	255	255	
255	255	255	
255	255	255	
255	255	255	
255	255	255	
255	255	255	
255	255	255	
255	255	255	
255	255	255	
255	255	255	
255	255	255	
255	255	255	
255	255	255	
255	255	255	
255	255	255	
255	255	255	
255	255	255	
255	255	255	
255	255	255	
255	255	255	
255	255	255	
255	255	255	
255	255	255	
255	255	255	
255	255	255	
255	255	255	
255	255	255	
255	255	255	
255	255	255	
255	255	255	
255	255	255	
255	255	255	
255	255	255	
255	255	255	
255	255	255	
255	255	255	
255	255	255	
255	255	255	
255	255	255	
255	255	255	
255	255	255	
255	255	255	
255	255	255	
255	255	255	
255	255	255	
255	255	255	
255	255	255	
255	255	255	
255	255	255	
255	255	255	
255	255	255	
255	255	255	
255	255	255	
255	255	255	
255	255	255	
255	255	255	
255	255	255	
255	255	255	
255	255	255	
255	255	255	
255	255	255	
255	255	255	
255	255	255	
255	255	255	
255	255	255	
255	255	255	
255	255	255	
255	255	255	
255	255	255	
255	255	255	
255	255	255	
255	255	255	
255	255	255	
255	255	255	
255	255	255	
255	255	255	
255	255	255	
255	255	255	
255	255	255	
255	255	255	
255	255	255	
255	255	255	
255	255	255	
255	255	255	
255	255	255	
255	255	255	
255	255	255	
255	255	255	
255	255	255	
255	255	255	
255	255	255	
255	255	255	
255	255	255	
255	255	255	
255	255	255	
255	255	255	
255	255	255	
255	255	255	
255	255	255	
255	255	255	
255	255	255	
255	255	255	
255	255	255	
255	255	255	
255	255	255	
255	255	255	
255	255	255	
255	255	255	
255	255	255	
255	255	255	
255	255	255	
255	255	255	
255	255	255	
255	255	255	
255	255	255	
255	255	255	
255	255	255	
255	255	255	
255	255	255	
255	255	255	
255	255	255	
255	255	255	
255	255	255	
255	255	255	
255	255	255	
255	255	255	
255	255	255	
255	255	255	
255	255	255	
255	255	255	
255	255	255	
255	255	255	
255	255	255	
255	255	255	
255	255	255	
255	255	255	
255	255	255	
255	255	255	
255	255	255	
255	255	255	
255	255	255	
255	255	255	
255	255	255	
255	255	255	
255	255	255	
255	255	255	
255	255	255	
255	255	255	
255	255	255	
255	255	255	
255	255	255	
255	255	255	
255	255	255	
255	255	255	
255	255	255	
255	255	255	
255	255	255	
255	255	255	
255	255	255	
255	255	255	
255	255	255	
255	255	255	
255	255	255	
255	255	255	
255	255	255	
255	255	255	
255	255	255	
255	255	255	
255	255	255	
255	255	255	
255	255	255	
255	255	255	
255	255	255	
255	255	255	
255	255	255	
255	255	255	
255	255	255	
255	255	255	
255	255	255	
255	255	255	
255	255	255	
255	255	255	
255	255	255	
255	255	255	
255	255	255	
255	255	255	
255	255	255	
255	255	255	
255	255	255	
255	255	255	
255	255	255	
255	255	255	
255	255	255	
255	255	255	
255	255	255	
255	255	255	
255	255	255	
255	255	255	
255	255	255	
255	255	255	
255	255	255	
255	255	255	
255	255	255	
255	255	255	
255	255	255	
255	255	255	
255	255	255	
255	255	255	
255	255	255	
255	255	255	
255	255	255	
255	255	255	
255	255	255	
255	255	255	
255	255	255	
255	255	255	
255	255	255	
255	255	255	
255	255	255	
255	255	255	
255	255	255	
255	255	255	
255	255	255	
255	255	255	
255	255	255	
255	255	255	
255	255	255	
255	255	255	
255	255	255	
255	255	255	
255	255	255	
255	255	255	
255	255	255	
255	255	255	
255	255	255	
255	255	255	
255	255	255	
255	255	255	
255	255	255	
255	255	255	
255	255	255	
255	255	255	
255	255	255	
255	255	255	
255	255	255	
255	255	255	
255	255	255	
255	255	255	
255	255	255	
255	255	255	
255	255	255	
255	255	255	
255	255	255	
255	255	255	
255	255	255	
255	255	255	
255	255	255	
255	255	255	
255	255	255	
255	255	255	
255	255	255	
255	255	255	
255	255	255	
255	255	255	
255	255	255	
255	255	255	
255	255	255	
255	255	255	
255	255	255	
255	255	255	
255	255	255	
255	255	255	
255	255	255	
255	255	255	
255	255	255	
255	255	255	
255	255	255	
255	255	255	
255	255	255	
255	255	255	
255	255	255	
255	255	255	
255	255	255	
255	255	255	
255	255	255	
255	255	255	
255	255	255	
255	255	255	
255	255	255	
255	255	255	
255	255	255	
255	255	255	
255	255	255	
255	255	255	
255	255	255	
255	255	255	
255	255	255	
255	255	255	
255	255	255	
255	255	255	
255	255	255	
255	255	255	
255	255	255	
255	255	255	
255	255	255	
255	255	255	
255	255	255	
255	255	255	
255	255	255	
255	255	255	
255	255	255	
255	255	255	
255	255	255	
255	255	255	
255	255	255	
255	255	255	
255	255	255	
255	255	255	
255	255	255	
255	255	255	
255	255	255	
255	255	255	
255	255	255	
255	255	255	
255	255	255	
255	255	255	
255	255	255	
255	255	255	
255	255	255	
255	255	255	
255	255	255	
255	255	255	
255	255	255	
255	255	255	
255	255	255	
255	255	255	
255	255	255	
255	255	255	
255	255	255	
255	255	255	
255	255	255	
255	255	255	
255	255	255	
255	255	255	
255	255	255	
255	255	255	
255	255	255	
255	255	255	
255	255	255	
255	255	255	
255	255	255	
255	255	255	
255	255	255	
255	255	255	
255	255	255	
255	255	255	
255	255	255	
255	255	255	
255	255	255	
255	255	255	
255	255	255	
255	255	255	
255	255	255	
255	255	255	
255	255	255	
255	255	255	
255	255	255	
255	255	255	
255	255	255	
255	255	255	
255	255	255	
255	255	255	
255	255	255	
255	255	255	
255	255	255	
255	255	255	
255	255	255	
255	255	255	
255	255	255	
255	255	255	
255	255	255	
255	255	255	
255	255	255	
255	255	255	
255	255	255	
255	255	255	
255	255	255	
255	255	255	
255	255	255	
255	255	255	
255	255	255	
255	255	255	
255	255	255	
255	255	255	
255	255	255	
255	255	255	
255	255	255	
255	255	255	
255	255	255	
255	255	255	
255	255	255	
255	255	255	
255	255	255	
255	255	255	
255	255	255	
255	255	255	
255	255	255	
255	255	255	
255	255	255	
255	255	255	
255	255	255	
255	255	255	
255	255	255	
255	255	255	
255	255	255	
255	255	255	
255	255	255	
255	255	255	
255	255	255	
255	255	255	
255	255	255	
255	255	255	
255	255	255	
255	255	255	
255	255	255	
255	255	255	
255	255	255	
255	255	255	
255	255	255	
255	255	255	
255	255	255	
255	255	255	
255	255	255	
255	255	255	
255	255	255	
255	255	255	
255	255	255	
255	255	255	
255	255	255	
255	255	255	
255	255	255	
255	255	255	
255	255	255	
255	255	255	
255	255	255	
255	255	255	
255	255	255	
255	255	255	
255	255	255	
255	255	255	
255	255	255	
255	255	255	
255	255	255	
255	255	255	
255	255	255	
255	255	255	
255	255	255	
255	255	255	
255	255	255	
255	255	255	
255	255	255	
255	255	255	
255	255	255	
255	255	255	
255	255	255	
255	255	255	
255	255	255	
255	255	255	
255	255	255	
255	255	255	
255	255	255	
255	255	255	
255	255	255	
255	255	255	
255	255	255	
255	255	255	
255	255	255	
255	255	255	
255	255	255	
255	255	255	
255	255	255	
255	255	255	
255	255	255	
255	255	255	
255	255	255	
255	255	255	
255	255	255	
255	255	255	
255	255	255	
255	255	255	
255	255	255	
255	255	255	
255	255	255	
255	255	255	
255	255	255	
255	255	255	
255	255	255	
255	255	255	
255	255	255	
255	255	255	
255	255	255	
255	255	255	
255	255	255	
255	255	255	
255	255	255	
255	255	255	
255	255	255	
255	255	255	
255	255	255	
255	255	255	
255	255	255	
255	255	255	
255	255	255	
255	255	255	
255	255	255	
255	255	255	
255	255	255	
255	255	255	
255	255	255	
255	255	255	
255	255	255	
255	255	255	
255	255	255	
255	255	255	
255	255	255	
255	255	255	
255	255	255	
255	255	255	
255	255	255	
255	255	255	
255	255	255	
255	255	255	
255	255	255	
255	255	255	
255	255	255	
255	255	255	
255	255	255	
255	255	255	
255	255	255	
255	255	255	
255	255	255	
255	255	255	
255	255	255	
255	255	255	
255	255	255	
255	255	255	
255	255	255	
255	255	255	
255	255	255	
255	255	255	
255	255	255	
255	255	255	
255	255	255	
255	255	255	
255	255	255	
255	255	255	
255	255	255	
255	255	255	
255	255	255	
255	255	255	
255	255	255	
255	255	255	
255	255	255	
255	255	255	
255	255	255	
255	255	255	
255	255	255	
255	255	255	
255	255	255	
255	255	255	
255	255	255	
255	255	255	
255	255	255	
255	255	255	
255	255	255	
255	255	255	
255	255	255	
255	255	255	
255	255	255	
255	255	255	
255	255	255	
255	255	255	
255	255	255	
255	255	255	
255	255	255	
255	255	255	
255	255	255	
255	255	255	
255	255	255	
255	255	255	
255	255	255	
255	255	255	
255	255	255	
255	255	255	
255	255	255	
255	255	255	
255	255	255	
255	255	255	
255	255	255	
255	255	255	
255	255	255	
255	255	255	
255	255	255	
255	255	255	
255	255	255	
255	255	255	
255	255	255	
255	255	255	
255	255	255	
255	255	255	
255	255	255	
255	255	255	
255	255	255	
255	255	255	
255	255	255	
255	255	255	
255	255	255	
255	255	255	
255	255	255	
255	255	255	
255	255	255	
255	255	255	
255	255	255	
255	255	255	
255	255	255	
255	255	255	
255	255	255	
255	255	255	
255	255	255	
255	255	255	
255	255	255	
255	255	255	
255	255	255	
255	255	255	
255	255	255	
255	255	255	
255	255	255	
255	255	255	
255	255	255	
255	255	255	
255	255	255	
255	255	255	
255	255	255	
255	255	255	
255	255	255	
255	255	255	
255	255	255	
255	255	255	
255	255	255	
255	255	255	
255	255	255	
255	255	255	
255	255	255	
255	255	255	
255	255	255	
255	255	255	
255	255	255	
255	255	255	
255	255	255	
255	255	255	
255	255	255	
255	255	255	
255	255	255	
255	255	255	
255	255	255	
255	255	255	
255	255	255	
255	255	255	
255	255	255	
255	255	255	
255	255	255	
255	255	255	
255	255	255	
255	255	255	
255	255	255	
255	255	255	
255	255	255	
255	255	255	
255	255	255	
255	255	255	
255	255	255	
255	255	255	
255	255	255	
255	255	255	
255	255	255	
255	255	255	
255	255	255	
255	255	255	
255	255	255	
255	255	255	
255	255	255	
255	255	255	
255	255	255	
255	255	255	
255	255	255	
255	255	255	
255	255	255	
255	255	255	
255	255	255	
255	255	255	
255	255	255	
255	255	255	
255	255	255	
255	255	255	
255	255	255	
255	255	255	
255	255	255	
255	255	255	
255	255	255	
255	255	255	
255	255	255	
255	255	255	
255	255	255	
255	255	255	
255	255	255	
255	255	255	
255	255	255	
255	255	255	
255	255	255	
255	255	255	
255	255	255	
255	255	255	
255	255	255	
255	255	255	
255	255	255	
255	255	255	
255	255	255	
255	255	255	
255	255	255	
255	255	255	
255	255	255	
255	255	255	
255	255	255	
255	255	255	
255	255	255	
255	255	255	
255	255	255	
255	255	255	
255	255	255	
255	255	255	
255	255	255	
255	255	255	
255	255	255	
255	255	255	
255	255	255	
255	255	255	
255	255	255	
255	255	255	
255	255	255	
255	255	255	
255	255	255	
255	255	255	
255	255	255	
255	255	255	
255	255	255	
255	255	255	
255	255	255	
255	255	255	
255	255	255	
255	255	255	
255	255	255	
255	255	255	
255	255	255	
255	255	255	
255	255	255	
255	255	255	
255	255	255	
255	255	255	
255	255	255	
255	255	255	
255	255	255	
255	255	255	
255	255	255	
255	255	255	
255	255	255	
255	255	255	
255	255	255	
255	255	255	
255	255	255	
255	255	255	
255	255	255	
255	255	255	
255	255	255	
255	255	255	
255	255	255	
255	255	255	
255	255	255	
255	255	255	
255	255	255	
255	255	255	
255	255	255	
255	255	255	
255	255	255	
255	255	255	
255	255	255	
255	255	255	
255	255	255	
255	255	255	
255	255	255	
255	255	255	
255	255	255	
255	255	255	
255	255	255	
255	255	255	
255	255	255	
255	255	255	
255	255	255	
255	255	255	
255	255	255	
255	255	255	
255	255	255	
255	255	255	
255	255	255	
255	255	255	
255	255	255	
255	255	255	
255	255	255	
255	255	255	
255	255	255	
255	255	255	
255	255	255	
255	255	255	
255	255	255	
255	255	255	
255	255	255	
255	255	255	
255	255	255	
255	255	255	
255	255	255	
255	255	255	
255	255	255	
255	255	255	
255	255	255	
255	255	255	
255	255	255	
255	255	255	
255	255	255	
255	255	255	
255	255	255	
255	255	255	
255	255	255	
255	255	255	
255	255	255	
255	255	255	
255	255	255	
255	255	255	
255	255	255	
255	255	255	
255	255	255	
255	255	255	
255	255	255	
255	255	255	
255	255	255	
255	255	255	
255	255	255	
255	255	255	
255	255	255	
255	255	255	
255	255	255	
255	255	255	
255	255	255	
255	255	255	
255	255	255	
255	255	255	
255	255	255	
255	255	255	
255	255	255	
255	255	255	
255	255	255	
255	255	255	
255	255	255	
255	255	255	
255	255	255	
255	255	255	
255	255	255	
255	255	255	
255	255	255	
255	255	255	
255	255	255	
255	255	255	
255	255	255	
255	255	255	
255	255	255	
255	255	255	
255	255	255	
255	255	255	
255	255	255	
255	255	255	
255	255	255	
255	255	255	
255	255	255	
255	255	255	
255	255	255	
255	255	255	
255	255	255	
255	255	255	
255	255	255	
255	255	255	
255	255	255	
255	255	255	
255	255	255	
255	255	255	
255	255	255	
255	255	255	
255	255	255	
255	255	255	
255	255	255	
255	255	255	
255	255	255	
255	255	255	
255	255	255	
255	255	255	
255	255	255	
255	255	255	
255	255	255	
255	255	255	
255	255	255	
255	255	255	
255	255	255	
255	255	255	
255	255	255	
255	255	255	
255	255	255	
255	255	255	
255	255	255	
255	255	255	
255	255	255	
255	255	255	
255	255	255	
255	255	255	
255	255	255	
255	255	255	
255	255	255	
255	255	255	
255	255	255	
255	255	255	
255	255	255	
255	255	255	
255	255	255	
255	255	255	
255	255	255	
255	255	255	
255	255	255	
255	255	255	
255	255	255	
255	255	255	
255	255	255	
255	255	255	
255	255	255	
255	255	255	
255	255	255	
255	255	255	
255	255	255	
255	255	255	
255	255	255	
255	255	255	
255	255	255	
255	255	255	
255	255	255	
255	255	255	
255	255	255	
255	255	255	
255	255	255	
255	255	255	
255	255	255	
255	255	255	
255	255	255	
255	255	255	
255	255	255	
255	255	255	
255	255	255	
255	255	255	
255	255	255	
255	255	255	
255	255	255	
255	255	255	
255	255	255	
255	255	255	
255	255	255	
255	255	255	
255	255	255	
255	255	255	
255	255	255	
255	255	255	
255	255	255	
255	255	255	
255	255	255	
255	255	255	
255	255	255	
255	255	255	
255	255	255	
255	255	255	
255	255	255	
255	255	255	
255	255	255	
255	255	255	
255	255	255	
255	255	255	
255	255	255	
255	255	255	
255	255	255	
255	255	255	
255	255	255	
255	255	255	
255	255	255	
255	255	255	
255	255	255	
255	255	255	
255	255	255	
255	255	255	
255	255	255	
255	255	255	
255	255	255	
255	255	255	
255	255	255	
255	255	255	
255	255	255	
255	255	255	
255	255	255	
255	255	255	
255	255	255	
255	255	255	
255	255	255	
255	255	255	
255	255	255	
255	255	255	
255	255	255	
255	255	255	
255	255	255	
255	255	255	
255	255	255	
255	255	255	
255	255	255	
255	255	255	
255	255	255	
255	255	255	
255	255	255	
255	255	255	
255	255	255	
255	255	255	
255	255	255	
255	255	255	
255	255	255	
255	255	255	
255	255	255	
255	255	255	
255	255	255	
255	255	255	
255	255	255	
255	255	255	
255	255	255	
255	255	255	
255	255	255	
255	255	255	
255	255	255	
255	255	255	
255	255	255	
255	255	255	
255	255	255	
255	255	255	
255	255	255	
255	255	255	
255	255	255	
255	255	255	
255	255	255	
255	255	255	
255	255	255	
255	255	255	
255	255	255	
255	255	255	
255	255	255	
255	255	255	
255	255	255	
255	255	255	
255	255	255	
255	255	255	
255	255	255	
255	255	255	
255	255	255	
255	255	255	
255	255	255	
255	255	255	
255	255	255	
255	255	255	
255	255	255	
255	255	255	
255	255	255	
255	255	255	
255	255	255	
255	255	255	
255	255	255	
255	255	255	
255	255	255	
255	255	255	
255	255	255	
255	255	255	
255	255	255	
255	255	255	
255	255	255	
255	255	255	
255	255	255	
255	255	255	
255	255	255	
255	255	255	
255	255	255	
255	255	255	
255	255	255	
255	255	255	
255	255	255	
255	255	255	
255	255	255	
255	255	255	
255	255	255	
255	255	255	
255	255	255	
255	255	255	
255	255	255	
255	255	255	
255	255	255	
255	255	255	
255	255	255	
255	255	255	
255	255	255	
255	255	255	
255	255	255	
255	255	255	
255	255	255	
255	255	255	
255	255	255	
255	255	255	
255	255	255	
255	255	255	
255	255	255	
255	255	255	
255	255	255	
255	255	255	
255	255	255	
255	255	255	
255	255	255	
255	255	255	
255	255	255	
255	255	255	
255	255	255	
255	255	255	
255	255	255	
255	255	255	
255	255	255	
255	255	255	
255	255	255	
255	255	255	
255	255	255	
255	255	255	
255	255	255	
255	255	255	
255	255	255	
255	255	255	
255	255	255	
255	255	255	
255	255	255	
255	255	255	
255	255	255	
255	255	255	
255	255	255	
255	255	255	
255	255	255	
255	255	255	
255	255	255	
255	255	255	
255	255	255	
255	255	255	
255	255	255	
255	255	255	
255	255	255	
255	255	255	
255	255	255	
255	255	255	
255	255	255	
255	255	255	
255	255	255	
255	255	255	
255	255	255	
255	255	255	
255	255	255	
255	255	255	
255	255	255	
255	255	255	
255	255	255	
255	255	255	
255	255	255	
255	255	255	
255	255	255	
255	255	255	
255	255	255	
255	255	255	
255	255	255	
255	255	255	
255	255	255	
255	255	255	
255	255	255	
255	255	255	
255	255	255	
255	255	255	
255	255	255	
255	255	255	
255	255	255	
255	255	255	
255	255	255	
255	255	255	
255	255	255	
255	255	255	
255	255	255	
255	255	255	
255	255	255	
255	255	255	
255	255	255	
255	255	255	
255	255	255	
255	255	255	
255	255	255	
255	255	255	
255	255	255	
255	255	255	
255	255	255	
255	255	255	
255	255	255	
255	255	255	
255	255	255	
255	255	255	
255	255	255	
255	255	255	
255	255	255	
255	255	255	
255	255	255	
255	255	255	
255	255	255	
255	255	255	
255	255	255	
255	255	255	
255	255	255	
255	255	255	
255	255	255	
255	255	255	
255	255	255	
255	255	255	
255	255	255	
255	255	255	
255	255	255	
255	255	255	
255	255	255	
255	255	255	
255	255	255	
255	255	255	
255	255	255	
255	255	255	
255	255	255	
255	255	255	
255	255	255	
255	255	255	
255	255	255	
255	255	255	
255	255	255	
255	255	255	
255	255	255	
255	255	255	
255	255	255	
255	255	255	
255	255	255	
255	255	255	
255	255	255	
255	255	255	
255	255	255	
255	255	255	
255	255	255	
255	255	255	
255	255	255	
255	255	255	
255	255	255	
255	255	255	
255	255	255	
255	255	255	
255	255	255	
255	255	255	
255	255	255	
255	255	255	
255	255	255	
255	255	255	
255	255	255	
255	255	255	
255	255	255	
255	255	255	
255	255	255	
255	255	255	
255	255	255	
255	255	255	
255	255	255	
255	255	255	
255	255	255	
255	255	255	
255	255	255	
255	255	255	
255	255	255	
255	255	255	
255	255	255	
255	255	255	
255	255	255	
255	255	255	
255	255	255	
255	255	255	
255	255	255	
255	255	255	
255	255	255	
255	255	255	
255	255	255	
255	255	255	
255	255	255	
255	255	255	
255	255	255	
255	255	255	
255	255	255	
255	255	255	
255	255	255	
255	255	255	
255	255	255	
255	255	255	
255	255	255	
255	255	255	
255	255	255	
255	255	255	
255	255	255	
255	255	255	
255	255	255	
255	255	255	
255	255	255	
255	255	255	
255	255	255	
255	255	255	
255	255	255	
255	255	255	
255	255	255	
255	255	255	
255	255	255	
255	255	255	
255	255	255	
255	255	255	
255	255	255	
255	255	255	
255	255	255	
255	255	255	
255	255	255	
255	255	255	
255	255	255	
255	255	255	
255	255	255	
255	255	255	
255	255	255	
255	255	255	
255	255	255	
255	255	255	
255	255	255	
255	255	255	
255	255	255	
255	255	255	
255	255	255	
255	255	255	
255	255	255	
255	255	255	
255	255	255	
255	255	255	
255	255	255	
255	255	255	
255	255	255	
255	255	255	
255	255	255	
255	255	255	
255	255	255	
255	255	255	
255	255	255	
255	255	255	
255	255	255	
255	255	255	
255	255	255	
255	255	255	
255	255	255	
255	255	255	
255	255	255	
255	255	255	
255	255	255	
255	255	255	
255	255	255	
255	255	255	
255	255	255	
255	255	255	
255	255	255	
255	255	255	
255	255	255	
255	255	255	
255	255	255	
255	255	255	
255	255	255	
255	255	255	
255	255	255	
255	255	255	
255	255	255	
255	255	255	
255	255	255	
255	255	255	
255	255	255	
255	255	255	
255	255	255	
255	255	255	
255	255	255	
255	255	255	
255	255	255	
255	255	255	
255	255	255	
255	255	255	
255	255	255	
255	255	255	
255	255	255	
255	255	255	
255	255	255	
255	255	255	
255	255	255	
255	255	255	
255	255	255	
255	255	255	
255	255	255	
255	255	255	
255	255	255	
255	255	255	
255	255	255	
255	255	255	
255	255	255	
255	255	255	
255	255	255	
255	255	255	
255	255	255	
255	255	255	
255	255	255	
255	255	255	
255	255	255	
255	255	255	
255	255	255	
255	255	255	
255	255	255	
255	255	255	
255	255	255	
255	255	255	
255	255	255	
255	255	255	
255	255	255	
255	255	255	
255	255	255	
255	255	255	
255	255	255	
255	255	255	
255	255	255	
255	255	255	
255	255	255	
255	255	255	
255	255	255	
255	255	255	
255	255	255	
255	255	255	
255	255	255	
255	255	255	
255	255	255	
255	255	255	
255	255	255	
255	255	255	
255	255	255	
255	255	255	
255	255	255	
255	255	255	
255	255	255	
255	255	255	
255	255	255	
255	255	255	
255	255	255	
255	255	255	
255	255	255	
255	255	255	
255	255	255	
255	255	255	
255	255	255	
255	255	255	
255	255	255	
255	255	255	
255	255	255	
255	255	255	
255	255	255	
255	255	255	
255	255	255	
255	255	255	
255	255	255	
255	255	255	
255	255	255	
255	255	255	
255	255	255	
255	255	255	
255	255	255	
255	255	255	
255	255	255	
255	255	255	
255	255	255	
255	255	255	
255	255	255	
255	255	255	
255	255	255	
255	255	255	
255	255	255	
255	255	255	
255	255	255	
255	255	255	
255	255	255	
255	255	255	
255	255	255	
255	255	255	
255	255	255	
255	255	255	
255	255	255	
255	255	255	
255	255	255	
255	255	255	
255	255	255	
255	255	255	
255	255	255	
255	255	255	
255	255	255	
255	255	255	
255	255	255	
255	255	255	
255	255	255	
255	255	255	
255	255	255	
255	255	255	
255	255	255	
255	255	255	
255	255	255	
255	255	255	
255	255	255	
255	255	255	
255	255	255	
255	255	255	
255	255	255	
255	255	255	
255	255	255	
255	255	255	
255	255	255	
255	255	255	
255	255	255	
255	255	255	
255	255	255	
255	255	255	
255	255	255	
255	255	255	
255	255	255	
255	255	255	
255	255	255	
255	255	255	
255	255	255	
255	255	255	
255	255	255	
255	255	255	
255	255	255	
255	255	255	
255	255	255	
255	255	255	
255	255	255	
255	255	255	
255	255	255	
255	255	255	
255	255	255	
255	255	255	
255	255	255	
255	255	255	
255	255	255	
255	255	255	
255	255	255	
255	255	255	
255	255	255	
255	255	255	
255	255	255	
255	255	255	
255	255	255	
255	255	255	
255	255	255	
255	255	255	
255	255	255	
255	255	255	
255	255	255	
255	255	255	
255	255	255	
255	255	255	
255	255	255	
255	255	255	
255	255	255	
255	255	255	
255	255	255	
255	255	255	
255	255	255	
255	255	255	
255	255	255	
255	255	255	
255	255	255	
255	255	255	
255	255	255	
255	255	255	
255	255	255	
255	255	255	
255	255	255	
255	255	255	
255	255	255	
255	255	255	
255	255	255	
255	255	255	
255	255	255	
255	255	255	
255	255	255	
255	255	255	
255	255	255	
255	255	255	
255	255	255	
255	255	255	
255	255	255	
255	255	255	
255	255	255	
255	255	255	
255	255	255	
255	255	255	
255	255	255	
255	255	255	
255	255	255	
255	255	255	
255	255	255	
255	255	255	
255	255	255	
255	255	255	
255	255	255	
255	255	255	
255	255	255	
255	255	255	
255	255	255	
255	255	255	
255	255	255	
255	255	255	
255	255	255	
255	255	255	
255	255	255	
255	255	255	
255	255	255	
255	255	255	
255	255	255	
255	255	255	
255	255	255	
255	255	255	
255	255	255	
255	255	255	
255	255	255	
255	255	255	
255	255	255	
255	255	255	
255	255	255	
255	255	255	
255	255	255	
255	255	255	
255	255	255	
255	255	255	
255	255	255	
255	255	255	
255	255	255	
255	255	255	
255	255	255	
255	255	255	
255	255	255	
255	255	255	
255	255	255	
255	255	255	
255	255	255	
255	255	255	
255	255	255	
255	255	255	
255	255	255	
255	255	255	
255	255	255	
255	255	255	
255	255	255	
255	255	255	
255	255	255	
255	255	255	
255	255	255	
255	255	255	
255	255	255	
255	255	255	
255	255	255	
255	255	255	
255	255	255	
255	255	255	
255	255	255	
255	255	255	
255	255	255	
255	255	255	
255	255	255	
255	255	255	
255	255	255	
255	255	255	
255	255	255	
255	255	255	
255	255	255	
255	255	255	
255	255	255	
255	255	255	
255	255	255	
255	255	255	
255	255	255	
255	255	255	
255	255	255	
255	255	255	
255	255	255	
255	255	255	
255	255	255	
255	255	255	
255	255	255	
255	255	255	
255	255	255	
255	255	255	
255	255	255	
255	255	255	
255	255	255	
255	255	255	
255	255	255	
255	255	255	
255	255	255	
255	255	255	
255	255	255	
255	255	255	
255	255	255	
255	255	255	
255	255	255	
255	255	255	
255	255	255	
255	255	255	
255	255	255	
255	255	255	
255	255	255	
255	255	255	
255	255	255	
255	255	255	
255	255	255	
255	255	255	
255	255	255	
255	255	255	
255	255	255	
255	255	255	
255	255	255	
255	255	255	
255	255	255	
255	255	255	
255	255	255	
255	255	255	
255	255	255	
255	255	255	
255	255	255	
255	255	255	
255	255	255	
255	255	255	
255	255	255	
255	255	255	
255	255	255	
255	255	255	
255	255	255	
255	255	255	
255	255	255	
255	255	255	
255	255	255	
255	255	255	
255	255	255	
255	255	255	
255	255	255	
255	255	255	
255	255	255	
255	255	255	
255	255	255	
255	255	255	
255	255	255	
255	255	255	
255	255	255	
255	255	255	
255	255	255	
255	255	255	
255	255	255	
255	255	255	
255	255	255	
255	255	255	
255	255	255	
255	255	255	
255	255	255	
255	255	255	
255	255	255	
255	255	255	
255	255	255	
255	255	255	
255	255	255	
255	255	255	
255	255	255	
255	255	255	
255	255	255	
255	255	255	
255	255	255	
255	255	255	
255	255	255	
255	255	255	
255	255	255	
255	255	255	
255	255	255	
255	255	255	
255	255	255	
255	255	255	
255	255	255	
255	255	255	
255	255	255	
255	255	255	
255	255	255	
255	255	255	
255	255	255	
255	255	255	
255	255	255	
255	255	255	
255	255	255	
255	255	255	
255	255	255	
255	255	255	
255	255	255	
255	255	255	
255	255	255	
255	255	255	
255	255	255	
255	255	255	
255	255	255	
255	255	255	
255	255	255	
255	255	255	
255	255	255	
255	255	255	
255	255	255	
255	255	255	
255	255	255	
255	255	255	
255	255	255	
255	255	255	
255	255	255	
255	255	255	
255	255	255	
255	255	255	
255	255	255	
255	255	255	
255	255	255	
255	255	255	
255	255	255	
255	255	255	
255	255	255	
255	255	255	
255	255	255	
255	255	255	
255	255	255	
255	255	255	
255	255	255	
255	255	255	
255	255	255	
255	255	255	
255	255	255	
255	255	255	
255	255	255	
255	255	255	
255	255	255	
255	255	255	
255	255	255	
255	255	255	
255	255	255	
255	255	255	
255	255	255	
255	255	255	
255	255	255	
255	255	255	
255	255	255	
255	255	255	
255	255	255	
255	255	255	
255	255	255	
255	255	255	
255	255	255	
255	255	255	
255	255	255	
255	255	255	
255	255	255	
255	255	255	
255	255	255	
255	255	255	
255	255	255	
255	255	255	
255	255	255	
255	255	255	
255	255	255	
255	255	255	
255	255	255	
255	255	255	
255	255	255	
255	255	255	
255	255	255	
255	255	255	
255	255	255	
255	255	255	
255	255	255	
255	255	255	
255	255	255	
255	255	255	
255	255	255	
255	255	255	
255	255	255	
255	255	255	
255	255	255	
255	255	255	
255	255	255	
255	255	255	
255	255	255	
255	255	255	
255	255	255	
255	255	255	
255	255	255	
255	255	255	
255	255	255	
255	255	255	
255	255	255	
255	255	255	
255	255	255	
255	255	255	
255	255	255	
255	255	255	
255	255	255	
255	255	255	
255	255	255	
255	255	255	
255	255	255	
255	255	255	
255	255	255	
255	255	255	
255	255	255	
255	255	255	
255	255	255	
255	255	255	
255	255	255	
255	255	255	
255	255	255	
255	255	255	
255	255	255	
255	255	255	
255	255	255	
255	255	255	
255	255	255	
255	255	255	
255	255	255	
255	255	255	
255	255	255	
255	255	255	
255	255	255	
255	255	255	
255	255	255	
255	255	255	
255	255	255	
255	255	255	
255	255	255	
255	255	255	
255	255	255	
255	255	255	
255	255	255	
255	255	255	
255	255	255	
255	255	255	
255	255	255	
255	255	255	
255	255	255	
255	255	255	
255	255	255	
255	255	255	
255	255	255	
255	255	255	
255	255	255	
255	255	255	
255	255	255	
255	255	255	
255	255	255	
255	255	255	
255	255	255	
255	255	255	
255	255	255	
255	255	255	
255	255	255	
255	255	255	
255	255	255	
255	255	255	
255	255	255	
255	255	255	
255	255	255	
255	255	255	
255	255	255	
255	255	255	
255	255	255	
255	255	255	
255	255	255	
255	255	255	
255	255	255	
255	255	255	
255	255	255	
255	255	255	
255	255	255	
255	255	255	
255	255	255	
255	255	255	
255	255	255	
255	255	255	
255	255	255	
255	255	255	
255	255	255	
255	255	255	
255	255	255	
255	255	255	
255	255	255	
255	255	255	
255	255	255	
255	255	255	
255	255	255	
255	255	255	
255	255	255	
255	255	255	
255	255	255	
255	255	255	
255	255	255	
255	255	255	
255	255	255	
255	255	255	
255	255	255	
255	255	255	
255	255	255	
255	255	255	
255	255	255	
255	255	255	
255	255	255	
255	255	255	
255	255	255	
255	255	255	
255	255	255	
255	255	255	
255	255	255	
255	255	255	
255	255	255	
255	255	255	
255	255	255	
255	255	255	
255	255	255	
255	255	255	
255	255	255	
255	255	255	
255	255	255	
255	255	255	
255	255	255	
255	255	255	
255	255	255	
255	255	255	
255	255	255	
255	255	255	
255	255	255	
255	255	255	
255	255	255	
255	255	255	
255	255	255	
255	255	255	
255	255	255	
255	255	255	
255	255	255	
255	255	255	
255	255	255	
255	255	255	
255	255	255	
255	255	255	
255	255	255	
255	255	255	
255	255	255	
255	255	255	
255	255	255	
255	255	255	
255	255	255	
255	255	255	
255	255	255	
255	255	255	
255	255	255	
255	255	255	
255	255	255	
255	255	255	
255	255	255	
255	255	255	
255	255	255	
255	255	255	
255	255	255	
255	255	255	
255	255	255	
255	255	255	
255	255	255	
255	255	255	
255	255	255	
255	255	255	
255	255	255	
255	255	255	
255	255	255	
255	255	255	
255	255	255	
255	255	255	
255	255	255	
255	255	255	
255	255	255	
255	255	255	
255	255	255	
255	255	255	
255	255	255	
255	255	255	
255	255	255	
255	255	255	
255	255	255	
255	255	255	
255	255	255	
255	255	255	
255	255	255	
255	255	255	
255	255	255	
255	255	255	
255	255	255	
255	255	255	
255	255	255	
255	255	255	
255	255	255	
255	255	255	
255	255	255	
255	255	255	
255	255	255	
255	255	255	
255	255	255	
255	255	255	
255	255	255	
255	255	255	
255	255	255	
255	255	255	
255	255	255	
255	255	255	
255	255	255	
255	255	255	
255	255	255	
255	255	255	
255	255	255	
255	255	255	
255	255	255	
255	255	255	
255	255	255	
255	255	255	
255	255	255	
255	255	255	
255	255	255	
255	255	255	
255	255	255	
255	255	255	
255	255	255	
255	255	255	
255	255	255	
255	255	255	
255	255	255	
255	255	255	
255	255	255	
255	255	255	
255	255	255	
255	255	255	
255	255	255	
255	255	255	
255	255	255	
255	255	255	
255	255	255	
255	255	255	
255	255	255	
255	255	255	
255	255	255	
255	255	255	
255	255	255	
255	255	255	
255	255	255	
255	255	255	
255	255	255	
255	255	255	
255	255	255	
255	255	255	
255	255	255	
255	255	255	
255	255	255	
255	255	255	
255	255	255	
255	255	255	
255	255	255	
255	255	255	
255	255	255	
255	255	255	
255	255	255	
255	255	255	
255	255	255	
255	255	255	
255	255	255	
255	255	255	
255	255	255	
255	255	255	
255	255	255	
255	255	255	
255	255	255	
255	255	255	
255	255	255	
255	255	255	
255	255	255	
255	255	255	
255	255	255	
255	255	255	
255	255	255	
255	255	255	
255	255	255	
255	255	255	
255	255	255	
255	255	255	
255	255	255	
255	255	255	
255	255	255	
255	255	255	
255	255	255	
255	255	255	
255	255	255	
255	255	255	
255	255	255	
255	255	255	
255	255	255	
255	255	255	
255	255	255	
255	255	255	
255	255	255	
255	255	255	
255	255	255	
255	255	255	
255	255	255	
255	255	255	
255	255	255	
255	255	255	
255	255	255	
255	255	255	
255	255	255	
255	255	255	
255	255	255	
255	255	255	
255	255	255	
255	255	255	
255	255	255	
255	255	255	
255	255	255	
255	255	255	
255	255	255	
255	255	255	
255	255	255	
255	255	255	
255	255	255	
255	255	255	
255	255	255	
255	255	255	
255	255	255	
255	255	255	
255	255	255	
255	255	255	
255	255	255	
255	255	255	
255	255	255	
255	255	255	
255	255	255	
255	255	255	
255	255	255	
255	255	255	
255	255	255	
255	255	255	
255	255	255	
255	255	255	
255	255	255	
255	255	255	
255	255	255	
255	255	255	
255	255	255	
255	255	255	
255	255	255	
255	255	255	
255	255	255	
255	255	255	
255	255	255	
255	255	255	
255	255	255	
255	255	255	
255	255	255	
255	255	255	
255	255	255	
255	255	255	
255	255	255	
255	255	255	
255	255	255	
255	255	255	
255	255	255	
255	255	255	
255	255	255	
255	255	255	
255	255	255	
255	255	255	
255	255	255	
255	255	255	
255	255	255	
255	255	255	
255	255	255	
255	255	255	
255	255	255	
255	255	255	
255	255	255	
255	255	255	
255	255	255	
255	255	255	
255	255	255	
255	255	255	
255	255	255	
255	255	255	
255	255	255	
255	255	255	
255	255	255	
255	255	255	
255	255	255	
255	255	255	
255	255	255	
255	255	255	
255	255	255	
255	255	255	
255	255	255	
255	255	255	
255	255	255	
255	255	255	
255	255	255	
255	255	255	
255	255	255	
255	255	255	
255	255	255	
255	255	255	
255	255	255	
255	255	255	
255	255	255	
255	255	255	
255	255	255	
255	255	255	
255	255	255	
255	255	255	
255	255	255	
255	255	255	
255	255	255	
255	255	255	
255	255	255	
255	255	255	
255	255	255	
255	255	255	
255	255	255	
255	255	255	
255	255	255	
255	255	255	
255	255	255	
255	255	255	
255	255	255	
255	255	255	
255	255	255	
255	255	255	
255	255	255	
255	255	255	
255	255	255	
255	255	255	
255	255	255	
255	255	255	
255	255	255	
255	255	255	
255	255	255	
255	255	255	
255	255	255	
255	255	255	
255	255	255	
255	255	255	
255	255	255	
255	255	255	
255	255	255	
255	255	255	
255	255	255	
255	255	255	
255	255	255	
255	255	255	
255	255	255	
255	255	255	
255	255	255	
255	255	255	
255	255	255	
255	255	255	
255	255	255	
255	255	255	
255	255	255	
255	255	255	
255	255	255	
255	255	255	
255	255	255	
255	255	255	
255	255	255	
255	255	255	
255	255	255	
255	255	255	
255	255	255	
255	255	255	
255	255	255	
255	255	255	
255	255	255	
255	255	255	
255	255	255	
255	255	255	
255	255	255	
255	255	255	
255	255	255	
255	255	255	
255	255	255	
255	255	255	
255	255	255	
255	255	255	
255	255	255	
255	255	255	
255	255	255	
255	255	255	
255	255	255	
255	255	255	
255	255	255	
255	255	255	
255	255	255	
255	255	255	
255	255	255	
255	255	255	
255	255	255	
255	255	255	
255	255	255	
255	255	255	
255	255	255	
255	255	255	
255	255	255	
255	255	255	
255	255	255	
255	255	255	
255	255	255	
255	255	255	
255	255	255	
255	255	255	
255	255	255	
255	255	255	
255	255	255	
255	255	255	
255	255	255	
255	255	255	
255	255	255	
255	255	255	
255	255	255	
255	255	255	
255	255	255	
255	255	255	
255	255	255	
255	255	255	
255	255	255	
255	255	255	
255	255	255	
255	255	255	
255	255	255	
255	255	255	
255	255	255	
255	255	255	
255	255	255	
255	255	255	
255	255	255	
255	255	255	
255	255	255	
255	255	255	
255	255	255	
255	255	255	
255	255	255	
255	255	255	
255	255	255	
255	255	255	
255	255	255	
255	255	255	
255	255	255	
255	255	255	
255	255	255	
255	255	255	
255	255	255	
255	255	255	
255	255	255	
255	255	255	
255	255	255	
255	255	255	
255	255	255	
255	255	255	
255	255	255	
255	255	255	
255	255	255	
255	255	255	
255	255	255	
255	255	255	
255	255	255	
255	255	255	
255	255	255	
255	255	255	
255	255	255	
255	255	255	
255	255	255	
255	255	255	
255	255	255	
255	255	255	
255	255	255	
255	255	255	
255	255	255	
255	255	255	
255	255	255	
255	255	255	
255	255	255	
255	255	255	
255	255	255	
255	255	255	
255	255	255	
255	255	255	
255	255	255	
255	255	255	
255	255	255	
255	255	255	
255	255	255	
255	255	255	
255	255	255	
255	255	255	
255	255	255	
255	255	255	
255	255	255	
255	255	255	
255	255	255	
255	255	255	
255	255	255	
255	255	255	
255	255	255	
255	255	255	
255	255	255	
255	255	255	
255	255	255	
255	255	255	
255	255	255	
255	255	255	
255	255	255	
255	255	255	
255	255	255	
255	255	255	
255	255	255	
255	255	255	
255	255	255	
255	255	255	
255	255	255	
255	255	255	
255	255	255	
255	255	255	
255	255	255	
255	255	255	
255	255	255	
255	255	255	
255	255	255	
255	255	255	
255	255	255	
255	255	255	
255	255	255	
255	255	255	
255	255	255	
255	255	255	
255	255	255	
255	255	255	
255	255	255	
255	255	255	
255	255	255	
255	255	255	
255	255	255	
255	255	255	
255	255	255	
255	255	255	
255	255	255	
255	255	255	
255	255	255	
255	255	255	
255	255	255	
255	255	255	
255	255	255	
255	255	255	
255	255	255	
255	255	255	
255	255	255	
255	255	255	
255	255	255	
255	255	255	
255	255	255	
255	255	255	
255	255	255	
255	255	255	
255	255	255	
255	255	255	
255	255	255	
255	255	255	
255	255	255	
255	255	255	
255	255	255	
255	255	255	
255	255	255	
255	255	255	
255	255	255	
255	255	255	
255	255	255	
255	255	255	
255	255	255	
255	255	255	
255	255	255	
255	255	255	
255	255	255	
255	255	255	
255	255	255	
255	255	255	
255	255	255	
255	255	255	
255	255	255	
255	255	255	
255	255	255	
255	255	255	
255	255	255	
255	255	255	
255	255	255	
255	255	255	
255	255	255	
255	255	255	
255	255	255	
255	255	255	
255	255	255	
255	255	255	
255	255	255	
255	255	255	
255	255	255	
255	255	255	
255	255	255	
255	255	255	
255	255	255	
255	255	255	
255	255	255	
255	255	255	
255	255	255	
255	255	255	
255	255	255	
255	255	255	
255	255	255	
255	255	255	
255	255	255	
255	255	255	
255	255	255	
255	255	255	
255	255	255	
255	255	255	
255	255	255	
255	255	255	
255	255	255	
255	255	255	
255	255	255	
255	255	255	
255	255	255	
255	255	255	
255	255	255	
255	255	255	
255	255	255	
255	255	255	
255	255	255	
255	255	255	
255	255	255	
255	255	255	
255	255	255	
255	255	255	
255	255	255	
255	255	255	
255	255	255	
255	255	255	
255	255	255	
255	255	255	
255	255	255	
255	255	255	
255	255	255	
255	255	255	
255	255	255	
255	255	255	
255	255	255	
255	255	255	
255	255	255	
255	255	255	
255	255	255	
255	255	255	
255	255	255	
255	255	255	
255	255	255	
255	255	255	
255	255	255	
255	255	255	
255	255	255	
255	255	255	
255	255	255	
255	255	255	
255	255	255	
255	255	255	
255	255	255	
255	255	255	
255	255	255	
255	255	255	
255	255	255	
255	255	255	
255	255	255	
255	255	255	
255	255	255	
255	255	255	
255	255	255	
255	255	255	
255	255	255	
255	255	255	
255	255	255	
255	255	255	
255	255	255	
255	255	255	
255	255	255	
255	255	255	
255	255	255	
255	255	255	
255	255	255	
255	255	255	
255	255	255	
255	255	255	
255	255	255	
255	255	255	
255	255	255	
255	255	255	
255	255	255	
255	255	255	
255	255	255	
255	255	255	
255	255	255	
255	255	255	
255	255	255	
255	255	255	
255	255	255	
255	255	255	
255	255	255	
255	255	255	
255	255	255	
255	255	255	
255	255	255	
255	255	255	
255	255	255	
255	255	255	
255	255	255	
255	255	255	
255	255	255	
255	255	255	
255	255	255	
255	255	255	
255	255	255	
255	255	255	
255	255	255	
255	255	255	
255	255	255	
255	255	255	
255	255	255	
255	255	255	
255	255	255	
255	255	255	
255	255	255	
255	255	255	
255	255	255	
255	255	255	
255	255	255	
255	255	255	
255	255	255	
255	255	255	
255	255	255	
255	255	255	
255	255	255	
255	255	255	
255	255	255	
255	255	255	
255	255	255	
255	255	255	
255	255	255	
255	255	255	
255	255	255	
255	255	255	
255	255	255	
255	255	255	
255	255	255	
255	255	255	
255	255	255	
255	255	255	
255	255	255	
255	255	255	
255	255	255	
255	255	255	
255	255	255	
255	255	255	
255	255	255	
255	255	255	
255	255	255	
255	255	255	
255	255	255	
255	255	255	
255	255	255	
255	255	255	
255	255	255	
255	255	255	
255	255	255	
255	255	255	
255	255	255	
255	255	255	
255	255	255	
255	255	255	
255	255	255	
255	255	255	
255	255	255	
255	255	255	
255	255	255	
255	255	255	
255	255	255	
255	255	255	
255	255	255	
255	255	255	
255	255	255	
255	255	255	
255	255	255	
255	255	255	
255	255	255	
255	255	255	
255	255	255	
255	255	255	
255	255	255	
255	255	255	
255	255	255	
255	255	255	
255	255	255	
255	255	255	
255	255	255	
255	255	255	
255	255	255	
255	255	255	
255	255	255	
255	255	255	
255	255	255	
255	255	255	
255	255	255	
255	255	255	
255	255	255	
255	255	255	
255	255	255	
255	255	255	
255	255	255	
255	255	255	
255	255	255	
255	255	255	
255	255	255	
255	255	255	
255	255	255	
255	255	255	
255	255	255	
255	255	255	
255	255	255	
255	255	255	
255	255	255	
255	255	255	
255	255	255	
255	255	255	
255	255	255	
255	255	255	
255	255	255	
255	255	255	
255	255	255	
255	255	255	
255	255	255	
255	255	255	
255	255	255	
255	255	255	
255	255	255	
255	255	255	
255	255	255	
255	255	255	
255	255	255	
255	255	255	
255	255	255	
255	255	255	
255	255	255	
255	255	255	
255	255	255	
255	255	255	
255	255	255	
255	255	255	
255	255	255	
255	255	255	
255	255	255	
255	255	255	
255	255	255	
255	255	255	
255	255	255	
255	255	255	
255	255	255	
255	255	255	
255	255	255	
255	255	255	
255	255	255	
255	255	255	
255	255	255	
255	255	255	
255	255	255	
255	255	255	
255	255	255	
255	255	255	
255	255	255	
255	255	255	
255	255	255	
255	255	255	
255	255	255	
255	255	255	
255	255	255	
255	255	255	
255	255	255	
255	255	255	
255	255	255	
255	255	255	
255	255	255	
255	255	255	
255	255	255	
255	255	255	
255	255	255	
255	255	255	
255	255	255	
255	255	255	
255	255	255	
255	255	255	
255	255	255	
255	255	255	
255	255	255	
255	255	255	
255	255	255	
255	255	255	
255	255	255	
255	255	255	
255	255	255	
255	255	255	
255	255	255	
255	255	255	
255	255	255	
255	255	255	
255	255	255	
255	255	255	
255	255	255	
255	255	255	
255	255	255	
255	255	255	
255	255	255	
255	255	255	
255	255	255	
255	255	255	
255	255	255	
255	255	255	
255	255	255	
255	255	255	
255	255	255	
255	255	255	
255	255	255	
255	255	255	
255	255	255	
255	255	255	
255	255	255	
255	255	255	
255	255	255	
255	255	255	
255	255	255	
255	255	255	
255	255	255	
255	255	255	
255	255	255	
255	255	255	
255	255	255	
255	255	255	
255	255	255	
255	255	255	
255	255	255	
255	255	255	
255	255	255	
255	255	255	
255	255	255	
255	255	255	
255	255	255	
255	255	255	
255	255	255	
255	255	255	
255	255	255	
255	255	255	
255	255	255	
255	255	255	
255	255	255	
255	255	255	
255	255	255	
255	255	255	
255	255	255	
255	255	255	
255	255	255	
255	255	255	
255	255	255	
255	255	255	
255	255	255	
255	255	255	
255	255	255	
255	255	255	
255	255	255	
255	255	255	
255	255	255	
255	255	255	
255	255	255	
255	255	255	
255	255	255	
255	255	255	
255	255	255	
255	255	255	
255	255	255	
255	255	255	
255	255	255	
255	255	255	
255	255	255	
255	255	255	
255	255	255	
255	255	255	
255	255	255	
255	255	255	
255	255	255	
255	255	255	
255	255	255	
255	255	255	
255	255	255	
255	255	255	
255	255	255	
255	255	255	
255	255	255	
255	255	255	
255	255	255	
255	255	255	
255	255	255	
255	255	255	
255	255	255	
255	255	255	
255	255	255	
255	255	255	
255	255	255	
255	255	255	
255	255	255	
255	255	255	
255	255	255	
255	255	255	
255	255	255	
255	255	255	
255	255	255	
255	255	255	
255	255	255	
255	255	255	
255	255	255	
255	255	255	
255	255	255	
255	255	255	
255	255	255	
255	255	255	
255	255	255	
255	255	255	
255	255	255	
255	255	255	
255	255	255	
255	255	255	
255	255	255	
255	255	255	
255	255	255	
255	255	255	
255	255	255	
255	255	255	
255	255	255	
255	255	255	
255	255	255	
255	255	255	
255	255	255	
255	255	255	
255	255	255	
255	255	255	
255	255	255	
255	255	255	
255	255	255	
255	255	255	
255	255	255	
255	255	255	
255	255	255	
255	255	255	
255	255	255	
255	255	255	
255	255	255	
255	255	255	
255	255	255	
255	255	255	
255	255	255	
255	255	255	
255	255	255	
255	255	255	
255	255	255	
255	255	255	
255	255	255	
255	255	255	
255	255	255	
255	255	255	
255	255	255	
255	255	255	
255	255	255	
255	255	255	
255	255	255	
255	255	255	
255	255	255	
255	255	255	
255	255	255	
255	255	255	
255	255	255	
255	255	255	
255	255	255	
255	255	255	
255	255	255	
255	255	255	
255	255	255	
255	255	255	
255	255	255	
255	255	255	
255	255	255	
255	255	255	
255	255	255	
255	255	255	
255	255	255	
255	255	255	
255	255	255	
255	255	255	
255	255	255	
255	255	255	
255	255	255	
255	255	255	
255	255	255	
255	255	255	
255	255	255	
255	255	255	
255	255	255	
255	255	255	
255	255	255	
255	255	255	
255	255	255	
255	255	255	
255	255	255	
255	255	255	
255	255	255	
255	255	255	
255	255	255	
255	255	255	
255	255	255	
255	255	255	
255	255	255	
255	255	255	
255	255	255	
255	255	255	
255	255	255	
255	255	255	
255	255	255	
255	255	255	
255	255	255	
255	255	255	
255	255	255	
255	255	255	
255	255	255	
255	255	255	
255	255	255	
255	255	255	
255	255	255	
255	255	255	
255	255	255	
255	255	255	
255	255	255	
255	255	255	
255	255	255	
255	255	255	
255	255	255	
255	255	255	
255	255	255	
255	255	255	
255	255	255	
255	255	255	
255	255	255	
255	255	255	
255	255	255	
255	255	255	
255	255	255	
255	255	255	
255	255	255	
255	255	255	
255	255	255	
255	255	255	
255	255	255	
255	255	255	
255	255	255	
255	255	255	
255	255	255	
255	255	255	
255	255	255	
255	255	255	
255	255	255	
255	255	255	
255	255	255	
255	255	255	
255	255	255	
255	255	255	
255	255	255	
255	255	255	
255	255	255	
255	255	255	
255	255	255	
255	255	255	
255	255	255	
255	255	255	
255	255	255	
255	255	255	
255	255	255	
255	255	255	
255	255	255	
255	255	255	
255	255	255	
255	255	255	
255	255	255	
255	255	255	
255	255	255	
255	255	255	
255	255	255	
255	255	255	
255	255	255	
255	255	255	
255	255	255	
255	255	255	
255	255	255	
255	255	255	
255	255	255	
255	255	255	
255	255	255	
255	255	255	
255	255	255	
255	255	255	
255	255	255	
255	255	255	
255	255	255	
255	255	255	
255	255	255	
255	255	255	
255	255	255	
255	255	255	
255	255	255	
255	255	255	
255	255	255	
255	255	255	
255	255	255	
255	255	255	
255	255	255	
255	255	255	
255	255	255	
255	255	255	
255	255	255	
255	255	255	
255	255	255	
255	255	255	
255	255	255	
255	255	255	
255	255	255	
255	255	255	
255	255	255	
255	255	255	
255	255	255	
255	255	255	
255	255	255	
255	255	255	
255	255	255	
255	255	255	
255	255	255	
255	255	255	
255	255	255	
255	255	255	
255	255	255	
255	255	255	
255	255	255	
255	255	255	
255	255	255	
255	255	255	
255	255	255	
255	255	255	
255	255	255	
255	255	255	
255	255	255	
255	255	255	
255	255	255	
255	255	255	
255	255	255	
255	255	255	
255	255	255	
255	255	255	
255	255	255	
255	255	255	
255	255	255	
255	255	255	
255	255	255	
255	255	255	
255	255	255	
255	255	255	
255	255	255	
255	255	255	
255	255	255	
255	255	255	
255	255	255	
255	255	255	
255	255	255	
255	255	255	
255	255	255	
255	255	255	
255	255	255	
255	255	255	
255	255	255	
255	255	255	
255	255	255	
255	255	255	
255	255	255	
255	255	255	
255	255	255	
255	255	255	
255	255	255	
255	255	255	
255	255	255	
255	255	255	
255	255	255	
255	255	255	
255	255	255	
255	255	255	
255	255	255	
255	255	255	
255	255	255	
255	255	255	
255	255	255	
255	255	255	
255	255	255	
255	255	255	
255	255	255	
255	255	255	
255	255	255	
255	255	255	
255	255	255	
255	255	255	
255	255	255	
255	255	255	
255	255	255	
255	255	255	
255	255	255	
255	255	255	
255	255	255	
255	255	255	
255	255	255	
255	255	255	
255	255	255	
255	255	255	
255	255	255	
255	255	255	
255	255	255	
255	255	255	
255	255	255	
255	255	255	
255	255	255	
255	255	255	
255	255	255	
255	255	255	
255	255	255	
255	255	255	
255	255	255	
255	255	255	
255	255	255	
255	255	255	
255	255	255	
255	255	255	
255	255	255	
255	255	255	
255	255	255	
255	255	255	
255	255	255	
255	255	255	
255	255	255	
255	255	255	
255	255	255	
255	255	255	
255	255	255	
255	255	255	
255	255	255	
255	255	255	
255	255	255	
255	255	255	
255	255	255	
255	255	255	
255	255	255	
255	255	255	
255	255	255	
255	255	255	
255	255	255	
255	255	255	
255	255	255	
255	255	255	
255	255	255	
255	255	255	
255	255	255	
255	255	255	
255	255	255	
255	255	255	
255	255	255	
255	255	255	
255	255	255	
255	255	255	
255	255	255	
255	255	255	
255	255	255	
255	255	255	
255	255	255	
255	255	255	
255	255	255	
255	255	255	
255	255	255	
255	255	255	
255	255	255	
255	255	255	
255	255	255	
255	255	255	
255	255	255	
255	255	255	
255	255	255	
255	255	255	
255	255	255	
255	255	255	
255	255	255	
255	255	255	
255	255	255	
255	255	255	
255	255	255	
255	255	255	
255	255	255	
255	255	255	
255	255	255	
255	255	255	
255	255	255	
255	255	255	
255	255	255	
255	255	255	
255	255	255	
255	255	255	
255	255	255	
255	255	255	
255	255	255	
255	255	255	
255	255	255	
255	255	255	
255	255	255	
255	255	255	
255	255	255	
255	255	255	
255	255	255	
255	255	255	
255	255	255	
255	255	255	
255	255	255	
255	255	255	
255	255	255	
255	255	255	
255	255	255	
255	255	255	
255	255	255	
255	255	255	
255	255	255	
255	255	255	
255	255	255	
255	255	255	
255	255	255	
255	255	255	
255	255	255	
255	255	255	
255	255	255	
255	255	255	
255	255	255	
255	255	255	
255	255	255	
255	255	255	
255	255	255	
255	255	255	
255	255	255	
255	255	255	
255	255	255	
255	255	255	
255	255	255	
255	255	255	
255	255	255	
255	255	255	
255	255	255	
255	255	255	
255	255	255	
255	255	255	
255	255	255	
255	255	255	
255	255	255	
255	255	255	
255	255	255	
255	255	255	
255	255	255	
255	255	255	
255	255	255	
255	255	255	
255	255	255	
255	255	255	
255	255	255	
255	255	255	
255	255	255	
255	255	255	
255	255	255	
255	255	255	
255	255	255	
255	255	255	
255	255	255	
255	255	255	
255	255	255	
255	255	255	
255	255	255	
255	255	255	
255	255	255	
255	255	255	
255	255	255	
255	255	255	
255	255	255	
255	255	255	
255	255	255	
255	255	255	
255	255	255	
255	255	255	
255	255	255	
255	255	255	
255	255	255	
255	255	255	
255	255	255	
255	255	255	
255	255	255	
255	255	255	
255	255	255	
255	255	255	
255	255	255	
255	255	255	
255	255	255	
255	255	255	
255	255	255	
255	255	255	
255	255	255	
255	255	255	
255	255	255	
255	255	255	
255	255	255	
255	255	255	
255	255	255	
255	255	255	
255	255	255	
255	255	255	
255	255	255	
255	255	255	
255	255	255	
255	255	255	
255	255	255	
255	255	255	
255	255	255	
255	255	255	
255	255	255	
255	255	255	
255	255	255	
255	255	255	
255	255	255	
255	255	255	
255	255	255	
255	255	255	
255	255	255	
255	255	255	
255	255	255	
255	255	255	
255	255	255	
255	255	255	
255	255	255	
255	255	255	
255	255	255	
255	255	255	
255	255	255	
255	255	255	
255	255	255	
255	255	255	
255	255	255	
255	255	255	
255	255	255	
255	255	255	
255	255	255	
255	255	255	
255	255	255	
255	255	255	
255	255	255	
255	255	255	
255	255	255	
255	255	255	
255	255	255	
255	255	255	
255	255	255	
255	255	255	
255	255	255	
255	255	255	
255	255	255	
255	255	255	
255	255	255	
255	255	255	
255	255	255	
255	255	255	
255	255	255	
255	255	255	
255	255	255	
255	255	255	
255	255	255	
255	255	255	
255	255	255	
255	255	255	
255	255	255	
255	255	255	
255	255	255	
255	255	255	
255	255	255	
255	255	255	
255	255	255	
255	255	255	
255	255	255	
255	255	255	
255	255	255	
255	255	255	
255	255	255	
255	255	255	
255	255	255	
255	255	255	
255	255	255	
255	255	255	
255	255	255	
255	255	255	
255	255	255	
255	255	255	
255	255	255	
255	255	255	
255	255	255	
255	255	255	
255	255	255	
255	255	255	
255	255	255	
255	255	255	
255	255	255	
255	255	255	
255	255	255	
255	255	255	
255	255	255	
255	255	255	
255	255	255	
255	255	255	
255	255	255	
255	255	255	
255	255	255	
255	255	255	
255	255	255	
255	255	255	
255	255	255	
255	255	255	
255	255	255	
255	255	255	
255	255	255	
255	255	255	
255	255	255	
255	255	255	
255	255	255	
255	255	255	
255	255	255	
255	255	255	
255	255	255	
255	255	255	
255	255	255	
255	255	255	
255	255	255	
255	255	255	
255	255	255	
255	255	255	
255	255	255	
255	255	255	
255	255	255	
255	255	255	
255	255	255	
255	255	255	
255	255	255	
255	255	255	
255	255	255	
255	255	255	
255	255	255	
255	255	255	
255	255	255	
255	255	255	
255	255	255	
255	255	255	
255	255	255	
255	255	255	
255	255	255	
255	255	255	
255	255	255	
255	255	255	
255	255	255	
255	255	255	
255	255	255	
255	255	255	
255	255	255	
255	255	255	
255	255	255	
255	255	255	
255	255	255	
255	255	255	
255	255	255	
255	255	255	
255	255	255	
255	255	255	
255	255	255	
255	255	255	
255	255	255	
255	255	255	
255	255	255	
255	255	255	
255	255	255	
255	255	255	
255	255	255	
255	255	255	
255	255	255	
255	255	255	
255	255	255	
255	255	255	
255	255	255	
255	255	255	
255	255	255	
255	255	255	
255	255	255	
255	255	255	
255	255	255	
255	255	255	
255	255	255	
255	255	255	
255	255	255	
255	255	255	
255	255	255	
255	255	255	
255	255	255	
255	255	255	
255	255	255	
255	255	255	
255	255	255	
255	255	255	
255	255	255	
255	255	255	
255	255	255	
255	255	255	
255	255	255	
255	255	255	
255	255	255	
255	255	255	
255	255	255	
255	255	255	
255	255	255	
255	255	255	
255	255	255	
255	255	255	
255	255	255	
255	255	255	
255	255	255	
255	255	255	
255	255	255	
255	255	255	
255	255	255	
255	255	255	
255	255	255	
255	255	255	
255	255	255	
255	255	255	
255	255	255	
255	255	255	
255	255	255	
255	255	255	
255	255	255	
255	255	255	
255	255	255	
255	255	255	
255	255	255	
255	255	255	
255	255	255	
255	255	255	
255	255	255	
255	255	255	
255	255	255	
255	255	255	
255	255	255	
255	255	255	
255	255	255	
255	255	255	
255	255	255	
255	255	255	
255	255	255	
255	255	255	
255	255	255	
255	255	255	
255	255	255	
255	255	255	
255	255	255	
255	255	255	
255	255	255	
255	255	255	
255	255	255	
255	255	255	
255	255	255	
255	255	255	
255	255	255	
255	255	255	
255	255	255	
255	255	255	
255	255	255	
255	255	255	
255	255	255	
255	255	255	
255	255	255	
255	255	255	
255	255	255	
255	255	255	
255	255	255	
255	255	255	
255	255	255	
255	255	255	
255	255	255	
255	255	255	
255	255	255	
255	255	255	
255	255	255	
255	255	255	
255	255	255	
255	255	255	
255	255	255	
255	255	255	
255	255	255	
255	255	255	
255	255	255	
255	255	255	
255	255	255	
255	255	255	
255	255	255	
255	255	255	
255	255	255	
255	255	255	
255	255	255	
255	255	255	
255	255	255	
255	255	255	
255	255	255	
255	255	255	
255	255	255	
255	255	255	
255	255	255	
255	255	255	
255	255	255	
255	255	255	
255	255	255	
255	255	255	
255	255	255	
255	255	255	
255	255	255	
255	255	255	
255	255	255	
255	255	255	
255	255	255	
255	255	255	
255	255	255	
255	255	255	
255	255	255	
255	255	255	
255	255	255	
255	255	255	
255	255	255	
255	255	255	
255	255	255	
255	255	255	
255	255	255	
255	255	255	
255	255	255	
255	255	255	
255	255	255	
255	255	255	
255	255	255	
255	255	255	
255	255	255	
255	255	255	
255	255	255	
255	255	255	
255	255	255	
255	255	255	
255	255	255	
255	255	255	
255	255	255	
255	255	255	
255	255	255	
255	255	255	
255	255	255	
255	255	255	
255	255	255	
255	255	255	
255	255	255	
255	255	255	
255	255	255	
255	255	255	
255	255	255	
255	255	255	
255	255	255	
255	255	255	
255	255	255	
255	255	255	
255	255	255	
255	255	255	
255	255	255	
255	255	255	
255	255	255	
255	255	255	
255	255	255	
255	255	255	
255	255	255	
255	255	255	
255	255	255	
255	255	255	
255	255	255	
255	255	255	
255	255	255	
255	255	255	
255	255	255	
255	255	255	
255	255	255	
255	255	255	
255	255	255	
255	255	255	
255	255	255	
255	255	255	
255	255	255	
255	255	255	
255	255	255	
255	255	255	
255	255	255	
255	255	255	
255	255	255	
255	255	255	
255	255	255	
255	255	255	
255	255	255	
255	255	255	
255	255	255	
255	255	255	
255	255	255	
255	255	255	
255	255	255	
255	255	255	
255	255	255	
255	255	255	
255	255	255	
255	255	255	
255	255	255	
255	255	255	
255	255	255	
255	255	255	
255	255	255	
255	255	255	
255	255	255	
255	255	255	
255	255	255	
255	255	255	
255	255	255	
255	255	255	
255	255	255	
255	255	255	
255	255	255	
255	255	255	
255	255	255	
255	255	255	
255	255	255	
255	255	255	
255	255	255	
255	255	255	
255	255	255	
255	255	255	
255	255	255	
255	255	255	
255	255	255	
255	255	255	
255	255	255	
255	255	255	
255	255	255	
255	255	255	
255	255	255	
255	255	255	
255	255	255	
255	255	255	
255	255	255	
255	255	255	
255	255	255	
255	255	255	
255	255	255	
255	255	255	
255	255	255	
255	255	255	
255	255	255	
255	255	255	
255	255	255	
255	255	255	
255	255	255	
255	255	255	
255	255	255	
255	255	255	
255	255	255	
255	255	255	
255	255	255	
255	255	255	
255	255	255	
255	255	255	
255	255	255	
255	255	255	
255	255	255	
255	255	255	
255	255	255	
255	255	255	
255	255	255	
255	255	255	
255	255	255	
255	255	255	
255	255	255	
255	255	255	
255	255	255	
255	255	255	
255	255	255	
255	255	255	
255	255	255	
255	255	255	
255	255	255	
255	255	255	
255	255	255	
255	255	255	
255	255	255	
255	255	255	
255	255	255	
255	255	255	
255	255	255	
255	255	255	
255	255	255	
255	255	255	
255	255	255	
255	255	255	
255	255	255	
255	255	255	
255	255	255	
255	255	255	
255	255	255	
255	255	255	
255	255	255	
255	255	255	
255	255	255	
255	255	255	
255	255	255	
255	255	255	
255	255	255	
255	255	255	
255	255	255	
255	255	255	
255	255	255	
255	255	255	
255	255	255	
255	255	255	
255	255	255	
255	255	255	
255	255	255	
255	255	255	
255	255	255	
255	255	255	
255	255	255	
255	255	255	
255	255	255	
255	255	255	
255	255	255	
255	255	255	
255	255	255	
255	255	255	
255	255	255	
255	255	255	
255	255	255	
255	255	255	
255	255	255	
255	255	255	
255	255	255	
255	255	255	
255	255	255	
255	255	255	
255	255	255	
255	255	255	
255	255	255	
255	255	255	
255	255	255	
255	255	255	
255	255	255	
255	255	255	
255	255	255	
255	255	255	
255	255	255	
255	255	255	
255	255	255	
255	255	255	
255	255	255	
255	255	255	
255	255	255	
255	255	255	
255	255	255	
255	255	255	
255	255	255	
255	255	255	
255	255	255	
255	255	255	
255	255	255	
255	255	255	
255	255	255	
255	255	255	
255	255	255	
255	255	255	
255	255	255	
255	255	255	
255	255	255	
255	255	255	
255	255	255	
255	255	255	
255	255	255	
255	255	255	
255	255	255	
255	255	255	
255	255	255	
255	255	255	
255	255	255	
255	255	255	
255	255	255	
255	255	255	
255	255	255	
255	255	255	
255	255	255	
255	255	255	
255	255	255	
255	255	255	
255	255	255	
255	255	255	
255	255	255	
255	255	255	
255	255	255	
255	255	255	
255	255	255	
255	255	255	
255	255	255	
255	255	255	
255	255	255	
255	255	255	
255	255	255	
255	255	255	
255	255	255	
255	255	255	
255	255	255	
255	255	255	
255	255	255	
255	255	255	
255	255	255	
255	255	255	
255	255	255	
255	255	255	
255	255	255	
255	255	255	
255	255	255	
255	255	255	
255	255	255	
255	255	255	
255	255	255	
255	255	255	
255	255	255	
255	255	255	
255	255	255	
255	255	255	
255	255	255	
255	255	255	
255	255	255	
255	255	255	
255	255	255	
255	255	255	
255	255	255	
255	255	255	
255	255	255	
255	255	255	
255	255	255	
255	255	255	
255	255	255	
255	255	255	
255	255	255	
255	255	255	
255	255	255	
255	255	255	
255	255	255	
255	255	255	
255	255	255	
255	255	255	
255	255	255	
255	255	255	
255	255	255	
255	255	255	
255	255	255	
255	255	255	
255	255	255	
255	255	255	
255	255	255	
255	255	255	
255	255	255	
255	255	255	
255	255	255	
255	255	255	
255	255	255	
255	255	255	
255	255	255	
255	255	255	
255	255	255	
255	255	255	
255	255	255	
255	255	255	
255	255	255	
255	255	255	
255	255	255	
255	255	255	
255	255	255	
255	255	255	
255	255	255	
255	255	255	
255	255	255	
255	255	255	
255	255	255	
255	255	255	
255	255	255	
255	255	255	
255	255	255	
255	255	255	
255	255	255	
255	255	255	
255	255	255	
255	255	255	
255	255	255	
255	255	255	
255	255	255	
255	255	255	
255	255	255	
255	255	255	
255	255	255	
255	255	255	
255	255	255	
255	255	255	
255	255	255	
255	255	255	
255	255	255	
255	255	255	
255	255	255	
255	255	255	
255	255	255	
255	255	255	
255	255	255	
255	255	255	
255	255	255	
255	255	255	
255	255	255	
255	255	255	
255	255	255	
255	255	255	
255	255	255	
255	255	255	
255	255	255	
255	255	255	
255	255	255	
255	255	255	
255	255	255	
255	255	255	
255	255	255	
255	255	255	
255	255	255	
255	255	255	
255	255	255	
255	255	255	
255	255	255	
255	255	255	
255	255	255	
255	255	255	
255	255	255	
255	255	255	
255	255	255	
255	255	255	
255	255	255	
255	255	255	
255	255	255	
255	255	255	
255	255	255	
255	255	255	
255	255	255	
255	255	255	
255	255	255	
255	255	255	
255	255	255	
255	255	255	
255	255	255	
255	255	255	
255	255	255	
255	255	255	
255	255	255	
255	255	255	
255	255	255	
255	255	255	
255	255	255	
255	255	255	
255	255	255	
255	255	255	
255	255	255	
255	255	255	
255	255	255	
255	255	255	
255	255	255	
255	255	255	
255	255	255	
255	255	255	
255	255	255	
255	255	255	
255	255	255	
255	255	255	
255	255	255	
255	255	255	
255	255	255	
255	255	255	
255	255	255	
255	255	255	
255	255	255	
255	255	255	
255	255	255	
255	255	255	
255	255	255	
255	255	255	
255	255	255	
255	255	255	
255	255	255	
255	255	255	
255	255	255	
255	255	255	
255	255	255	
255	255	255	
255	255	255	
255	255	255	
255	255	255	
255	255	255	
255	255	255	
255	255	255	
255	255	255	
255	255	255	
255	255	255	
255	255	255	
255	255	255	
255	255	255	
255	255	255	
255	255	255	
255	255	255	
255	255	255	
255	255	255	
255	255	255	
255	255	255	
255	255	255	
255	255	255	
255	255	255	
255	255	255	
255	255	255	
255	255	255	
255	255	255	
255	255	255	
255	255	255	
255	255	255	
255	255	255	
255	255	255	
255	255	255	
255	255	255	
255	255	255	
255	255	255	
255	255	255	
255	255	255	
255	255	255	
255	255	255	
255	255	255	
255	255	255	
255	255	255	
255	255	255	
255	255	255	
255	255	255	
255	255	255	
255	255	255	
255	255	255	
255	255	255	
255	255	255	
255	255	255	
255	255	255	
255	255	255	
255	255	255	
255	255	255	
255	255	255	
255	255	255	
255	255	255	
255	255	255	
255	255	255	
255	255	255	
255	255	255	
255	255	255	
255	255	255	
255	255	255	
255	255	255	
255	255	255	
255	255	255	
255	255	255	
255	255	255	
255	255	255	
255	255	255	
255	255	255	
255	255	255	
255	255	255	
255	255	255	
255	255	255	
255	255	255	
255	255	255	
255	255	255	
255	255	255	
255	255	255	
255	255	255	
255	255	255	
255	255	255	
255	255	255	
255	255	255	
255	255	255	
255	255	255	
255	255	255	
255	255	255	
255	255	255	
255	255	255	
255	255	255	
255	255	255	
255	255	255	
255	255	255	
255	255	255	
255	255	255	
255	255	255	
255	255	255	
255	255	255	
255	255	255	
255	255	255	
255	255	255	
255	255	255	
255	255	255	
255	255	255	
255	255	255	
255	255	255	
255	255	255	
255	255	255	
255	255	255	
255	255	255	
255	255	255	
255	255	255	
255	255	255	
255	255	255	
255	255	255	
255	255	255	
255	255	255	
255	255	255	
255	255	255	
255	255	255	
255	255	255	
255	255	255	
255	255	255	
255	255	255	
255	255	255	
255	255	255	
255	255	255	
255	255	255	
255	255	255	
255	255	255	
255	255	255	
255	255	255	
255	255	255	
255	255	255	
255	255	255	
255	255	255	
255	255	255	
255	255	255	
255	255	255	
255	255	255	
255	255	255	
255	255	255	
255	255	255	
255	255	255	
255	255	255	
255	255	255	
255	255	255	
255	255	255	
255	255	255	
255	255	255	
255	255	255	
255	255	255	
255	255	255	
255	255	255	
255	255	255	
255	255	255	
255	255	255	
255	255	255	
255	255	255	
255	255	255	
255	255	255	
255	255	255	
255	255	255	
255	255	255	
255	255	255	
255	255	255	
255	255	255	
255	255	255	
255	255	255	
255	255	255	
255	255	255	
255	255	255	
255	255	255	
255	255	255	
255	255	255	
255	255	255	
255	255	255	
255	255	255	
255	255	255	
255	255	255	
255	255	255	
255	255	255	
255	255	255	
255	255	255	
255	255	255	
255	255	255	
255	255	255	
255	255	255	
255	255	255	
255	255	255	
255	255	255	
255	255	255	
255	255	255	
255	255	255	
255	255	255	
255	255	255	
255	255	255	
255	255	255	
255	255	255	
255	255	255	
255	255	255	
255	255	255	
255	255	255	
255	255	255	
255	255	255	
255	255	255	
255	255	255	
255	255	255	
255	255	255	
255	255	255	
255	255	255	
255	255	255	
255	255	255	
255	255	255	
255	255	255	
255	255	255	
255	255	255	
255	255	255	
255	255	255	
255	255	255	
255	255	255	
255	255	255	
255	255	255	
255	255	255	
255	255	255	
255	255	255	
255	255	255	
255	255	255	
255	255	255	
255	255	255	
255	255	255	
255	255	255	
255	255	255	
255	255	255	
255	255	255	
255	255	255	
255	255	255	
255	255	255	
255	255	255	
255	255	255	
255	255	255	
255	255	255	
255	255	255	
255	255	255	
255	255	255	
255	255	255	
255	255	255	
255	255	255	
255	255	255	
255	255	255	
255	255	255	
255	255	255	
255	255	255	
255	255	255	
255	255	255	
255	255	255	
255	255	255	
255	255	255	
255	255	255	
255	255	255	
255	255	255	
255	255	255	
255	255	255	
255	255	255	
255	255	255	
255	255	255	
255	255	255	
255	255	255	
255	255	255	
255	255	255	
255	255	255	
255	255	255	
255	255	255	
255	255	255	
255	255	255	
255	255	255	
255	255	255	
255	255	255	
255	255	255	
255	255	255	
255	255	255	
255	255	255	
255	255	255	
255	255	255	
255	255	255	
255	255	255	
255	255	255	
255	255	255	
255	255	255	
255	255	255	
255	255	255	
255	255	255	
255	255	255	
255	255	255	
255	255	255	
255	255	255	
255	255	255	
255	255	255	
255	255	255	
255	255	255	
255	255	255	
255	255	255	
255	255	255	
255	255	255	
255	255	255	
255	255	255	
255	255	255	
255	255	255	
255	255	255	
255	255	255	
255	255	255	
255	255	255	
255	255	255	
255	255	255	
255	255	255	
255	255	255	
255	255	255	
255	255	255	
255	255	255	
255	255	255	
255	255	255	
255	255	255	
255	255	255	
255	255	255	
255	255	255	
255	255	255	
255	255	255	
255	255	255	
255	255	255	
255	255	255	
255	255	255	
255	255	255	
255	255	255	
255	255	255	
255	255	255	
255	255	255	
255	255	255	
255	255	255	
255	255	255	
255	255	255	
255	255	255	
255	255	255	
255	255	255	
255	255	255	
255	255	255	
255	255	255	
255	255	255	
255	255	255	
255	255	255	
255	255	255	
255	255	255	
255	255	255	
255	255	255	
255	255	255	
255	255	255	
255	255	255	
255	255	255	
255	255	255	
255	255	255	
255	255	255	
255	255	255	
255	255	255	
255	255	255	
255	255	255	
255	255	255	
255	255	255	
255	255	255	
255	255	255	
255	255	255	
255	255	255	
255	255	255	
255	255	255	
255	255	255	
255	255	255	
255	255	255	
255	255	255	
255	255	255	
255	255	255	
255	255	255	
255	255	255	
255	255	255	
255	255	255	
255	255	255	
255	255	255	
255	255	255	
255	255	255	
255	255	255	
255	255	255	
255	255	255	
255	255	255	
255	255	255	
255	255	255	
255	255	255	
255	255	255	
255	255	255	
255	255	255	
255	255	255	
255	255	255	
255	255	255	
255	255	255	
255	255	255	
255	255	255	
255	255	255	
255	255	255	
255	255	255	
255	255	255	
255	255	255	
255	255	255	
255	255	255	
255	255	255	
255	255	255	
255	255	255	
255	255	255	
255	255	255	
255	255	255	
255	255	255	
255	255	255	
255	255	255	
255	255	255	
255	255	255	
255	255	255	
255	255	255	
255	255	255	
255	255	255	
255	255	255	
255	255	255	
255	255	255	
255	255	255	
255	255	255	
255	255	255	
255	255	255	
255	255	255	
255	255	255	
255	255	255	
255	255	255	
255	255	255	
255	255	255	
255	255	255	
255	255	255	
255	255	255	
255	255	255	
255	255	255	
255	255	255	
255	255	255	
255	255	255	
255	255	255	
255	255	255	
255	255	255	
255	255	255	
255	255	255	
255	255	255	
255	255	255	
255	255	255	
255	255	255	
255	255	255	
255	255	255	
255	255	255	
255	255	255	
255	255	255	
255	255	255	
255	255	255	
255	255	255	
255	255	255	
255	255	255	
255	255	255	
255	255	255	
255	255	255	
255	255	255	
255	255	255	
255	255	255	
255	255	255	
255	255	255	
255	255	255	
255	255	255	
255	255	255	
255	255	255	
255	255	255	
255	255	255	
255	255	255	
255	255	255	
255	255	255	
255	255	255	
255	255	255	
255	255	255	
255	255	255	
255	255	255	
255	255	255	
255	255	255	
255	255	255	
255	255	255	
255	255	255	
255	255	255	
255	255	255	
255	255	255	
255	255	255	
255	255	255	
255	255	255	
255	255	255	
255	255	255	
255	255	255	
255	255	255	
255	255	255	
255	255	255	
255	255	255	
255	255	255	
255	255	255	
255	255	255	
255	255	255	
255	255	255	
255	255	255	
255	255	255	
255	255	255	
255	255	255	
255	255	255	
255	255	255	
255	255	255	
255	255	255	
255	255	255	
255	255	255	
255	255	255	
255	255	255	
255	255	255	
255	255	255	
255	255	255	
255	255	255	
255	255	255	
255	255	255	
255	255	255	
255	255	255	
255	255	255	
255	255	255	
255	255	255	
255	255	255	
255	255	255	
255	255	255	
255	255	255	
255	255	255	
255	255	255	
255	255	255	
255	255	255	
255	255	255	
255	255	255	
255	255	255	
255	255	255	
255	255	255	
255	255	255	
255	255	255	
255	255	255	
255	255	255	
255	255	255	
255	255	255	
255	255	255	
255	255	255	
255	255	255	
255	255	255	
255	255	255	
255	255	255	
255	255	255	
255	255	255	
255	255	255	
255	255	255	
255	255	255	
255	255	255	
255	255	255	
255	255	255	
255	255	255	
255	255	255	
255	255	255	
255	255	255	
255	255	255	
255	255	255	
255	255	255	
255	255	255	
255	255	255	
255	255	255	
255	255	255	
255	255	255	
255	255	255	
255	255	255	
255	255	255	
255	255	255	
255	255	255	
255	255	255	
255	255	255	
255	255	255	
255	255	255	
255	255	255	
255	255	255	
255	255	255	
255	255	255	
255	255	255	
255	255	255	
255	255	255	
255	255	255	
255	255	255	
255	255	255	
255	255	255	
255	255	255	
255	255	255	
255	255	255	
255	255	255	
255	255	255	
255	255	255	
255	255	255	
255	255	255	
255	255	255	
255	255	255	
255	255	255	
255	255	255	
255	255	255	
255	255	255	
255	255	255	
255	255	255	
255	255	255	
255	255	255	
255	255	255	
255	255	255	
255	255	255	
255	255	255	
255	255	255	
255	255	255	
255	255	255	
255	255	255	
255	255	255	
255	255	255	
255	255	255	
255	255	255	
255	255	255	
255	255	255	
255	255	255	
255	255	255	
255	255	255	
255	255	255	
255	255	255	
255	255	255	
255	255	255	
255	255	255	
255	255	255	
255	255	255	
255	255	255	
255	255	255	
255	255	255	
255	255	255	
255	255	255	
255	255	255	
255	255	255	
255	255	255	
255	255	255	
255	255	255	
255	255	255	
255	255	255	
255	255	255	
255	255	255	
255	255	255	
255	255	255	
255	255	255	
255	255	255	
255	255	255	
255	255	255	
255	255	255	
255	255	255	
255	255	255	
255	255	255	
255	255	255	
255	255	255	
255	255	255	
255	255	255	
255	255	255	
255	255	255	
255	255	255	
255	255	255	
255	255	255	
255	255	255	
255	255	255	
255	255	255	
255	255	255	
255	255	255	
255	255	255	
255	255	255	
255	255	255	
255	255	255	
255	255	255	
255	255	255	
255	255	255	
255	255	255	
255	255	255	
255	255	255	
255	255	255	
255	255	255	
255	255	255	
255	255	255	
255	255	255	
255	255	255	
255	255	255	
255	255	255	
255	255	255	
255	255	255	
255	255	255	
255	255	255	
255	255	255	
255	255	255	
255	255	255	
255	255	255	
255	255	255	
255	255	255	
255	255	255	
255	255	255	
255	255	255	
255	255	255	
255	255	255	
255	255	255	
255	255	255	
255	255	255	
255	255	255	
255	255	255	
255	255	255	
255	255	255	
255	255	255	
255	255	255	
255	255	255	
255	255	255	
255	255	255	
255	255	255	
255	255	255	
255	255	255	
255	255	255	
255	255	255	
255	255	255	
255	255	255	
255	255	255	
255	255	255	
255	255	255	
255	255	255	
255	255	255	
255	255	255	
255	255	255	
255	255	255	
255	255	255	
255	255	255	
255	255	255	
255	255	255	
255	255	255	
255	255	255	
255	255	255	
255	255	255	
255	255	255	
255	255	255	
255	255	255	
255	255	255	
255	255	255	
255	255	255	
255	255	255	
255	255	255	
255	255	255	
255	255	255	
255	255	255	
255	255	255	
255	255	255	
255	255	255	
255	255	255	
255	255	255	
255	255	255	
255	255	255	
255	255	255	
255	255	255	
255	255	255	
255	255	255	
255	255	255	
255	255	255	
255	255	255	
255	255	255	
255	255	255	
255	255	255	
255	255	255	
255	255	255	
255	255	255	
255	255	255	
255	255	255	
255	255	255	
255	255	255	
255	255	255	
255	255	255	
255	255	255	
255	255	255	
255	255	255	
255	255	255	
255	255	255	
255	255	255	
255	255	255	
255	255	255	
255	255	255	
255	255	255	
255	255	255	
255	255	255	
255	255	255	
255	255	255	
255	255	255	
255	255	255	
255	255	255	
255	255	255	
255	255	255	
255	255	255	
255	255	255	
255	255	255	
255	255	255	
255	255	255	
255	255	255	
255	255	255	
255	255	255	
255	255	255	
255	255	255	
255	255	255	
255	255	255	
255	255	255	
255	255	255	
255	255	255	
255	255	255	
255	255	255	
255	255	255	
255	255	255	
255	255	255	
255	255	255	
255	255	255	
255	255	255	
255	255	255	
255	255	255	
255	255	255	
255	255	255	
255	255	255	
255	255	255	
255	255	255	
255	255	255	
255	255	255	
255	255	255	
255	255	255	
255	255	255	
255	255	255	
255	255	255	
255	255	255	
255	255	255	
255	255	255	
255	255	255	
255	255	255	
255	255	255	
255	255	255	
255	255	255	
255	255	255	
255	255	255	
255	255	255	
255	255	255	
255	255	255	
255	255	255	
255	255	255	
255	255	255	
255	255	255	
255	255	255	
255	255	255	
255	255	255	
255	255	255	
255	255	255	
255	255	255	
255	255	255	
255	255	255	
255	255	255	
255	255	255	
255	255	255	
255	255	255	
255	255	255	
255	255	255	
255	255	255	
255	255	255	
255	255	255	
255	255	255	
255	255	255	
255	255	255	
255	255	255	
255	255	255	
255	255	255	
255	255	255	
255	255	255	
255	255	255	
255	255	255	
255	255	255	
255	255	255	
255	255	255	
255	255	255	
255	255	255	
255	255	255	
255	255	255	
255	255	255	
255	255	255	
255	255	255	
255	255	255	
255	255	255	
255	255	255	
255	255	255	
255	255	255	
255	255	255	
255	255	255	
255	255	255	
255	255	255	
255	255	255	
255	255	255	
255	255	255	
255	255	255	
255	255	255	
255	255	255	
255	255	255	
255	255	255	
255	255	255	
255	255	255	
255	255	255	
255	255	255	
255	255	255	
255	255	255	
255	255	255	
255	255	255	
255	255	255	
255	255	255	
255	255	255	
255	255	255	
255	255	255	
255	255	255	
255	255	255	
255	255	255	
255	255	255	
255	255	255	
255	255	255	
255	255	255	
255	255	255	
255	255	255	
255	255	255	
255	255	255	
255	255	255	
255	255	255	
255	255	255	
255	255	255	
255	255	255	
255	255	255	
255	255	255	
255	255	255	
255	255	255	
255	255	255	
255	255	255	
255	255	255	
255	255	255	
255	255	255	
255	255	255	
255	255	255	
255	255	255	
255	255	255	
255	255	255	
255	255	255	
255	255	255	
255	255	255	
255	255	255	
255	255	255	
255	255	255	
255	255	255	
255	255	255	
255	255	255	
255	255	255	
255	255	255	
255	255	255	
255	255	255	
255	255	255	
255	255	255	
255	255	255	
255	255	255	
255	255	255	
255	255	255	
255	255	255	
255	255	255	
255	255	255	
255	255	255	
255	255	255	
255	255	255	
255	255	255	
255	255	255	
255	255	255	
255	255	255	
255	255	255	
255	255	255	
255	255	255	
255	255	255	
255	255	255	
255	255	255	
255	255	255	
255	255	255	
255	255	255	
255	255	255	
255	255	255	
255	255	255	
255	255	255	
255	255	255	
255	255	255	
255	255	255	
255	255	255	
255	255	255	
255	255	255	
255	255	255	
255	255	255	
255	255	255	
255	255	255	
255	255	255	
255	255	255	
255	255	255	
255	255	255	
255	255	255	
255	255	255	
255	255	255	
255	255	255	
255	255	255	
255	255	255	
255	255	255	
255	255	255	
255	255	255	
255	255	255	
255	255	255	
255	255	255	
255	255	255	
255	255	255	
255	255	255	
255	255	255	
255	255	255	
255	255	255	
255	255	255	
255	255	255	
255	255	255	
255	255	255	
255	255	255	
255	255	255	
255	255	255	
255	255	255	
255	255	255	
255	255	255	
255	255	255	
255	255	255	
255	255	255	
255	255	255	
255	255	255	
255	255	255	
255	255	255	
255	255	255	
255	255	255	
255	255	255	
255	255	255	
255	255	255	
255	255	255	
255	255	255	
255	255	255	
255	255	255	
255	255	255	
255	255	255	
255	255	255	
255	255	255	
255	255	255	
255	255	255	
255	255	255	
255	255	255	
255	255	255	
255	255	255	
255	255	255	
255	255	255	
255	255	255	
255	255	255	
255	255	255	
255	255	255	
255	255	255	
255	255	255	
255	255	255	
255	255	255	
255	255	255	
255	255	255	
255	255	255	
255	255	255	
255	255	255	
255	255	255	
255	255	255	
255	255	255	
255	255	255	
255	255	255	
255	255	255	
255	255	255	
255	255	255	
255	255	255	
255	255	255	
255	255	255	
255	255	255	
255	255	255	
255	255	255	
255	255	255	
255	255	255	
255	255	255	
255	255	255	
255	255	255	
255	255	255	
255	255	255	
255	255	255	
255	255	255	
255	255	255	
255	255	255	
255	255	255	
255	255	255	
255	255	255	
255	255	255	
255	255	255	
255	255	255	
255	255	255	
255	255	255	
255	255	255	
255	255	255	
255	255	255	
255	255	255	
255	255	255	
255	255	255	
255	255	255	
255	255	255	
255	255	255	
255	255	255	
255	255	255	
255	255	255	
255	255	255	
255	255	255	
255	255	255	
255	255	255	
255	255	255	
255	255	255	
255	255	255	
255	255	255	
255	255	255	
255	255	255	
255	255	255	
255	255	255	
255	255	255	
255	255	255	
255	255	255	
255	255	255	
255	255	255	
255	255	255	
255	255	255	
255	255	255	
255	255	255	
255	255	255	
255	255	255	
255	255	255	
255	255	255	
255	255	255	
255	255	255	
255	255	255	
255	255	255	
255	255	255	
255	255	255	
255	255	255	
255	255	255	
255	255	255	
255	255	255	
255	255	255	
255	255	255	
255	255	255	
255	255	255	
255	255	255	
255	255	255	
255	255	255	
255	255	255	
255	255	255	
255	255	255	
255	255	255	
255	255	255	
255	255	255	
255	255	255	
255	255	255	
255	255	255	
255	255	255	
255	255	255	
255	255	255	
255	255	255	
255	255	255	
255	255	255	
255	255	255	
255	255	255	
255	255	255	
255	255	255	
255	255	255	
255	255	255	
255	255	255	
255	255	255	
255	255	255	
255	255	255	
255	255	255	
255	255	255	
255	255	255	
255	255	255	
255	255	255	
255	255	255	
255	255	255	
255	255	255	
255	255	255	
255	255	255	
255	255	255	
255	255	255	
255	255	255	
255	255	255	
255	255	255	
255	255	255	
255	255	255	
255	255	255	
255	255	255	
255	255	255	
255	255	255	
255	255	255	
255	255	255	
255	255	255	
255	255	255	
255	255	255	
255	255	255	
255	255	255	
255	255	255	
255	255	255	
255	255	255	
255	255	255	
255	255	255	
255	255	255	
255	255	255	
255	255	255	
255	255	255	
255	255	255	
255	255	255	
255	255	255	
255	255	255	
255	255	255	
255	255	255	
255	255	255	
255	255	255	
255	255	255	
255	255	255	
255	255	255	
255	255	255	
255	255	255	
255	255	255	
255	255	255	
255	255	255	
255	255	255	
255	255	255	
255	255	255	
255	255	255	
255	255	255	
255	255	255	
255	255	255	
255	255	255	
255	255	255	
255	255	255	
255	255	255	
255	255	255	
255	255	255	
255	255	255	
255	255	255	
255	255	255	
255	255	255	
255	255	255	
255	255	255	
255	255	255	
255	255	255	
255	255	255	
255	255	255	
255	255	255	
255	255	255	
255	255	255	
255	255	255	
255	255	255	
255	255	255	
255	255	255	
255	255	255	
255	255	255	
255	255	255	
255	255	255	
255	255	255	
255	255	255	
255	255	255	
255	255	255	
255	255	255	
255	255	255	
255	255	255	
255	255	255	
255	255	255	
255	255	255	
255	255	255	
255	255	255	
255	255	255	
255	255	255	
255	255	255	
255	255	255	
255	255	255	
255	255	255	
255	255	255	
255	255	255	
255	255	255	
255	255	255	
255	255	255	
255	255	255	
255	255	255	
255	255	255	
255	255	255	
255	255	255	
255	255	255	
255	255	255	
255	255	255	
255	255	255	
255	255	255	
255	255	255	
255	255	255	
255	255	255	
255	255	255	
255	255	255	
255	255	255	
255	255	255	
255	255	255	
255	255	255	
255	255	255	
255	255	255	
255	255	255	
255	255	255	
255	255	255	
255	255	255	
255	255	255	
255	255	255	
255	255	255	
255	255	255	
255	255	255	
255	255	255	
255	255	255	
255	255	255	
255	255	255	
255	255	255	
255	255	255	
255	255	255	
255	255	255	
255	255	255	
255	255	255	
255	255	255	
255	255	255	
255	255	255	
255	255	255	
255	255	255	
255	255	255	
255	255	255	
255	255	255	
255	255	255	
255	255	255	
255	255	255	
255	255	255	
255	255	255	
255	255	255	
255	255	255	
255	255	255	
255	255	255	
255	255	255	
255	255	255	
255	255	255	
255	255	255	
255	255	255	
255	255	255	
255	255	255	
255	255	255	
255	255	255	
255	255	255	
255	255	255	
255	255	255	
255	255	255	
255	255	255	
255	255	255	
255	255	255	
255	255	255	
255	255	255	
255	255	255	
255	255	255	
255	255	255	
255	255	255	
255	255	255	
255	255	255	
255	255	255	
255	255	255	
255	255	255	
255	255	255	
255	255	255	
255	255	255	
255	255	255	
255	255	255	
255	255	255	
255	255	255	
255	255	255	
255	255	255	
255	255	255	
255	255	255	
255	255	255	
255	255	255	
255	255	255	
255	255	255	
255	255	255	
255	255	255	
255	255	255	
255	255	255	
255	255	255	
255	255	255	
255	255	255	
255	255	255	
255	255	255	
255	255	255	
255	255	255	
255	255	255	
255	255	255	
255	255	255	
255	255	255	
255	255	255	
255	255	255	
255	255	255	
255	255	255	
255	255	255	
255	255	255	
255	255	255	
255	255	255	
255	255	255	
255	255	255	
255	255	255	
255	255	255	
255	255	255	
255	255	255	
255	255	255	
255	255	255	
255	255	255	
255	255	255	
255	255	255	
255	255	255	
255	255	255	
255	255	255	
255	255	255	
255	255	255	
255	255	255	
255	255	255	
255	255	255	
255	255	255	
255	255	255	
255	255	255	
255	255	255	
255	255	255	
255	255	255	
255	255	255	
255	255	255	
255	255	255	
255	255	255	
255	255	255	
255	255	255	
255	255	255	
255	255	255	
255	255	255	
255	255	255	
255	255	255	
255	255	255	
255	255	255	
255	255	255	
255	255	255	
255	255	255	
255	255	255	
255	255	255	
255	255	255	
255	255	255	
255	255	255	
255	255	255	
255	255	255	
255	255	255	
255	255	255	
255	255	255	
255	255	255	
255	255	255	
255	255	255	
255	255	255	
255	255	255	
255	255	255	
255	255	255	
255	255	255	
255	255	255	
255	255	255	
255	255	255	
255	255	255	
255	255	255	
255	255	255	
255	255	255	
255	255	255	
255	255	255	
255	255	255	
255	255	255	
255	255	255	
255	255	255	
255	255	255	
255	255	255	
255	255	255	
255	255	255	
255	255	255	
255	255	255	
255	255	255	
255	255	255	
255	255	255	
255	255	255	
255	255	255	
255	255	255	
255	255	255	
255	255	255	
255	255	255	
255	255	255	
255	255	255	
255	255	255	
255	255	255	
255	255	255	
255	255	255	
255	255	255	
255	255	255	
255	255	255	
255	255	255	
255	255	255	
255	255	255	
255	255	255	
255	255	255	
255	255	255	
255	255	255	
255	255	255	
255	255	255	
255	255	255	
255	255	255	
255	255	255	
255	255	255	
255	255	255	
255	255	255	
255	255	255	
255	255	255	
255	255	255	
255	255	255	
255	255	255	
255	255	255	
255	255	255	
255	255	255	
255	255	255	
255	255	255	
255	255	255	
255	255	255	
255	255	255	
255	255	255	
255	255	255	
255	255	255	
255	255	255	
255	255	255	
255	255	255	
255	255	255	
255	255	255	
255	255	255	
255	255	255	
255	255	255	
255	255	255	
255	255	255	
255	255	255	
255	255	255	
255	255	255	
255	255	255	
255	255	255	
255	255	255	
255	255	255	
255	255	255	
255	255	255	
255	255	255	
255	255	255	
255	255	255	
255	255	255	
255	255	255	
255	255	255	
255	255	255	
255	255	255	
255	255	255	
255	255	255	
255	255	255	
255	255	255	
255	255	255	
255	255	255	
255	255	255	
255	255	255	
255	255	255	
255	255	255	
255	255	255	
255	255	255	
255	255	255	
255	255	255	
255	255	255	
255	255	255	
255	255	255	
255	255	255	
255	255	255	
255	255	255	
255	255	255	
255	255	255	
255	255	255	
255	255	255	
255	255	255	
255	255	255	
255	255	255	
255	255	255	
255	255	255	
255	255	255	
255	255	255	
255	255	255	
255	255	255	
255	255	255	
255	255	255	
255	255	255	
255	255	255	
255	255	255	
255	255	255	
255	255	255	
255	255	255	
255	255	255	
255	255	255	
255	255	255	
255	255	255	
255	255	255	
255	255	255	
255	255	255	
255	255	255	
255	255	255	
255	255	255	
255	255	255	
255	255	255	
255	255	255	
255	255	255	
255	255	255	
255	255	255	
255	255	255	
255	255	255	
255	255	255	
255	255	255	
255	255	255	
255	255	255	
255	255	255	
255	255	255	
255	255	255	
255	255	255	
255	255	255	
255	255	255	
255	255	255	
255	255	255	
255	255	255	
255	255	255	
255	255	255	
255	255	255	
255	255	255	
255	255	255	
255	255	255	
255	255	255	
255	255	255	
255	255	255	
255	255	255	
255	255	255	
255	255	255	
255	255	255	
255	255	255	
255	255	255	
255	255	255	
255	255	255	
255	255	255	
255	255	255	
255	255	255	
255	255	255	
255	255	255	
255	255	255	
255	255	255	
255	255	255	
255	255	255	
255	255	255	
255	255	255	
255	255	255	
255	255	255	
255	255	255	
255	255	255	
255	255	255	
255	255	255	
255	255	255	
255	255	255	
255	255	255	
255	255	255	
255	255	255	
255	255	255	
255	255	255	
255	255	255	
255	255	255	
255	255	255	
255	255	255	
255	255	255	
255	255	255	
255	255	255	
255	255	255	
255	255	255	
255	255	255	
255	255	255	
255	255	255	
255	255	255	
255	255	255	
255	255	255	
255	255	255	
255	255	255	
255	255	255	
255	255	255	
255	255	255	
255	255	255	
255	255	255	
255	255	255	
255	255	255	
255	255	255	
255	255	255	
255	255	255	
255	255	255	
255	255	255	
255	255	255	
255	255	255	
255	255	255	
255	255	255	
255	255	255	
255	255	255	
255	255	255	
255	255	255	
255	255	255	
255	255	255	
255	255	255	
255	255	255	
255	255	255	
255	255	255	
255	255	255	
255	255	255	
255	255	255	
255	255	255	
255	255	255	
255	255	255	
255	255	255	
255	255	255	
255	255	255	
255	255	255	
255	255	255	
255	255	255	
255	255	255	
255	255	255	
255	255	255	
255	255	255	
255	255	255	
255	255	255	
255	255	255	
255	255	255	
255	255	255	
255	255	255	
255	255	255	
255	255	255	
255	255	255	
255	255	255	
255	255	255	
255	255	255	
255	255	255	
255	255	255	
255	255	255	
255	255	255	
255	255	255	
255	255	255	
255	255	255	
255	255	255	
255	255	255	
255	255	255	
255	255	255	
255	255	255	
255	255	255	
255	255	255	
255	255	255	
255	255	255	
255	255	255	
255	255	255	
255	255	255	
255	255	255	
255	255	255	
255	255	255	
255	255	255	
255	255	255	
255	255	255	
255	255	255	
255	255	255	
255	255	255	
255	255	255	
255	255	255	
255	255	255	
255	255	255	
255	255	255	
255	255	255	
255	255	255	
255	255	255	
255	255	255	
255	255	255	
255	255	255	
255	255	255	
255	255	255	
255	255	255	
255	255	255	
255	255	255	
255	255	255	
255	255	255	
255	255	255	
255	255	255	
255	255	255	
255	255	255	
255	255	255	
255	255	255	
255	255	255	
255	255	255	
255	255	255	
255	255	255	
255	255	255	
255	255	255	
255	255	255	
255	255	255	
255	255	255	
255	255	255	
255	255	255	
255	255	255	
255	255	255	
255	255	255	
255	255	255	
255	255	255	
255	255	255	
255	255	255	
255	255	255	
255	255	255	
255	255	255	
255	255	255	
255	255	255	
255	255	255	
255	255	255	
255	255	255	
255	255	255	
255	255	255	
255	255	255	
255	255	255	
255	255	255	
255	255	255	
255	255	255	
255	255	255	
255	255	255	
255	255	255	
255	255	255	
255	255	255	
255	255	255	
255	255	255	
255	255	255	
255	255	255	
255	255	255	
255	255	255	
255	255	255	
255	255	255	
255	255	255	
255	255	255	
255	255	255	
255	255	255	
255	255	255	
255	255	255	
255	255	255	
255	255	255	
255	255	255	
255	255	255	
255	255	255	
255	255	255	
255	255	255	
255	255	255	
255	255	255	
255	255	255	
255	255	255	
255	255	255	
255	255	255	
255	255	255	
255	255	255	
255	255	255	
255	255	255	
255	255	255	
255	255	255	
255	255	255	
255	255	255	
255	255	255	
255	255	255	
255	255	255	
255	255	255	
255	255	255	
255	255	255	
255	255	255	
255	255	255	
255	255	255	
255	255	255	
255	255	255	
255	255	255	
255	255	255	
255	255	255	
255	255	255	
255	255	255	
255	255	255	
255	255	255	
255	255	255	
255	255	255	
255	255	255	
255	255	255	
255	255	255	
255	255	255	
255	255	255	
255	255	255	
255	255	255	
255	255	255	
255	255	255	
255	255	255	
255	255	255	
255	255	255	
255	255	255	
255	255	255	
255	255	255	
255	255	255	
255	255	255	
255	255	255	
255	255	255	
255	255	255	
255	255	255	
255	255	255	
255	255	255	
255	255	255	
255	255	255	
255	255	255	
255	255	255	
255	255	255	
255	255	255	
255	255	255	
255	255	255	
255	255	255	
255	255	255	
255	255	255	
255	255	255	
255	255	255	
255	255	255	
255	255	255	
255	255	255	
255	255	255	
255	255	255	
255	255	255	
255	255	255	
255	255	255	
255	255	255	
255	255	255	
255	255	255	
255	255	255	
255	255	255	
255	255	255	
255	255	255	
255	255	255	
255	255	255	
255	255	255	
255	255	255	
255	255	255	
255	255	255	
255	255	255	
255	255	255	
255	255	255	
255	255	255	
255	255	255	
255	255	255	
255	255	255	
255	255	255	
255	255	255	
255	255	255	
255	255	255	
255	255	255	
255	255	255	
255	255	255	
255	255	255	
255	255	255	
255	255	255	
255	255	255	
255	255	255	
255	255	255	
255	255	255	
255	255	255	
255	255	255	
255	255	255	
255	255	255	
255	255	255	
255	255	255	
255	255	255	
255	255	255	
255	255	255	
255	255	255	
255	255	255	
255	255	255	
255	255	255	
255	255	255	
255	255	255	
255	255	255	
255	255	255	
255	255	255	
255	255	255	
255	255	255	
255	255	255	
255	255	255	
255	255	255	
255	255	255	
255	255	255	
255	255	255	
255	255	255	
255	255	255	
255	255	255	
255	255	255	
255	255	255	
255	255	255	
255	255	255	
255	255	255	
255	255	255	
255	255	255	
255	255	255	
255	255	255	
255	255	255	
255	255	255	
255	255	255	
255	255	255	
255	255	255	
255	255	255	
255	255	255	
255	255	255	
255	255	255	
255	255	255	
255	255	255	
255	255	255	
255	255	255	
255	255	255	
255	255	255	
255	255	255	
255	255	255	
255	255	255	
255	255	255	
255	255	255	
255	255	255	
255	255	255	
255	255	255	
255	255	255	
255	255	255	
255	255	255	
255	255	255	
255	255	255	
255	255	255	
255	255	255	
255	255	255	
255	255	255	
255	255	255	
255	255	255	
255	255	255	
255	255	255	
255	255	255	
255	255	255	
255	255	255	
255	255	255	
255	255	255	
255	255	255	
255	255	255	
255	255	255	
255	255	255	
255	255	255	
255	255	255	
255	255	255	
255	255	255	
255	255	255	
255	255	255	
255	255	255	
255	255	255	
255	255	255	
255	255	255	
255	255	255	
255	255	255	
255	255	255	
255	255	255	
255	255	255	
255	255	255	
255	255	255	
255	255	255	
255	255	255	
255	255	255	
255	255	255	
255	255	255	
255	255	255	
255	255	255	
255	255	255	
255	255	255	
255	255	255	
255	255	255	
255	255	255	
255	255	255	
255	255	255	
255	255	255	
255	255	255	
255	255	255	
255	255	255	
255	255	255	
255	255	255	
255	255	255	
255	255	255	
255	255	255	
255	255	255	
255	255	255	
255	255	255	
255	255	255	
255	255	255	
255	255	255	
255	255	255	
255	255	255	
255	255	255	
255	255	255	
255	255	255	
255	255	255	
255	255	255	
255	255	255	
255	255	255	
255	255	255	
255	255	255	
255	255	255	
255	255	255	
255	255	255	
255	255	255	
255	255	255	
255	255	255	
255	255	255	
255	255	255	
255	255	255	
255	255	255	
255	255	255	
255	255	255	
255	255	255	
255	255	255	
255	255	255	
255	255	255	
255	255	255	
255	255	255	
255	255	255	
255	255	255	
255	255	255	
255	255	255	
255	255	255	
255	255	255	
255	255	255	
255	255	255	
255	255	255	
255	255	255	
255	255	255	
255	255	255	
255	255	255	
255	255	255	
255	255	255	
255	255	255	
255	255	255	
255	255	255	
255	255	255	
255	255	255	
255	255	255	
255	255	255	
255	255	255	
255	255	255	
255	255	255	
255	255	255	
255	255	255	
255	255	255	
255	255	255	
255	255	255	
255	255	255	
255	255	255	
255	255	255	
255	255	255	
255	255	255	
255	255	255	
255	255	255	
255	255	255	
255	255	255	
255	255	255	
255	255	255	
255	255	255	
255	255	255	
255	255	255	
255	255	255	
255	255	255	
255	255	255	
255	255	255	
255	255	255	
255	255	255	
255	255	255	
255	255	255	
255	255	255	
255	255	255	
255	255	255	
255	255	255	
255	255	255	
255	255	255	
255	255	255	
255	255	255	
255	255	255	
255	255	255	
255	255	255	
255	255	255	
255	255	255	
255	255	255	
255	255	255	
255	255	255	
255	255	255	
255	255	255	
255	255	255	
255	255	255	
255	255	255	
255	255	255	
255	255	255	
255	255	255	
255	255	255	
255	255	255	
255	255	255	
255	255	255	
255	255	255	
255	255	255	
255	255	255	
255	255	255	
255	255	255	
255	255	255	
255	255	255	
255	255	255	
255	255	255	
255	255	255	
255	255	255	
255	255	255	
255	255	255	
255	255	255	
255	255	255	
255	255	255	
255	255	255	
255	255	255	
255	255	255	
255	255	255	
255	255	255	
255	255	255	
255	255	255	
255	255	255	
255	255	255	
255	255	255	
255	255	255	
255	255	255	
255	255	255	
255	255	255	
255	255	255	
255	255	255	
255	255	255	
255	255	255	
255	255	255	
255	255	255	
255	255	255	
255	255	255	
255	255	255	
255	255	255	
255	255	255	
255	255	255	
255	255	255	
255	255	255	
255	255	255	
255	255	255	
255	255	255	
255	255	255	
255	255	255	
255	255	255	
255	255	255	
255	255	255	
255	255	255	
255	255	255	
255	255	255	
255	255	255	
255	255	255	
255	255	255	
255	255	255	
255	255	255	
255	255	255	
255	255	255	
255	255	255	
255	255	255	
255	255	255	
255	255	255	
255	255	255	
255	255	255	
255	255	255	
255	255	255	
255	255	255	
255	255	255	
255	255	255	
255	255	255	
255	255	255	
255	255	255	
255	255	255	
255	255	255	
255	255	255	
255	255	255	
255	255	255	
255	255	255	
255	255	255	
255	255	255	
255	255	255	
255	255	255	
255	255	255	
255	255	255	
255	255	255	
255	255	255	
255	255	255	
255	255	255	
255	255	255	
255	255	255	
255	255	255	
255	255	255	
255	255	255	
255	255	255	
255	255	255	
255	255	255	
255	255	255	
255	255	255	
255	255	255	
255	255	255	
255	255	255	
255	255	255	
255	255	255	
255	255	255	
255	255	255	
255	255	255	
255	255	255	
255	255	255	
255	255	255	
255	255	255	
255	255	255	
255	255	255	
255	255	255	
255	255	255	
255	255	255	
255	255	255	
255	255	255	
255	255	255	
255	255	255	
255	255	255	
255	255	255	
255	255	255	
255	255	255	
255	255	255	
255	255	255	
255	255	255	
255	255	255	
255	255	255	
255	255	255	
255	255	255	
255	255	255	
255	255	255	
255	255	255	
255	255	255	
255	255	255	
255	255	255	
255	255	255	
255	255	255	
255	255	255	
255	255	255	
255	255	255	
255	255	255	
255	255	255	
255	255	255	
255	255	255	
255	255	255	
255	255	255	
255	255	255	
255	255	255	
255	255	255	
255	255	255	
255	255	255	
255	255	255	
255	255	255	
255	255	255	
255	255	255	
255	255	255	
255	255	255	
255	255	255	
255	255	255	
255	255	255	
255	255	255	
255	255	255	
255	255	255	
255	255	255	
255	255	255	
255	255	255	
255	255	255	
255	255	255	
255	255	255	
255	255	255	
255	255	255	
255	255	255	
255	255	255	
255	255	255	
255	255	255	
255	255	255	
255	255	255	
255	255	255	
255	255	255	
255	255	255	
255	255	255	
255	255	255	
255	255	255	
255	255	255	
255	255	255	
255	255	255	
255	255	255	
255	255	255	
255	255	255	
255	255	255	
255	255	255	
255	255	255	
255	255	255	
255	255	255	
255	255	255	
255	255	255	
255	255	255	
255	255	255	
255	255	255	
255	255	255	
255	255	255	
255	255	255	
255	255	255	
255	255	255	
255	255	255	
255	255	255	
255	255	255	
255	255	255	
255	255	255	
255	255	255	
255	255	255	
255	255	255	
255	255	255	
255	255	255	
255	255	255	
255	255	255	
255	255	255	
255	255	255	
255	255	255	
255	255	255	
255	255	255	
255	255	255	
255	255	255	
255	255	255	
255	255	255	
255	255	255	
255	255	255	
255	255	255	
255	255	255	
255	255	255	
255	255	255	
255	255	255	
255	255	255	
255	255	255	
255	255	255	
255	255	255	
255	255	255	
255	255	255	
255	255	255	
255	255	255	
255	255	255	
255	255	255	
255	255	255	
255	255	255	
255	255	255	
255	255	255	
255	255	255	
255	255	255	
255	255	255	
255	255	255	
255	255	255	
255	255	255	
255	255	255	
255	255	255	
255	255	255	
255	255	255	
255	255	255	
255	255	255	
255	255	255	
255	255	255	
255	255	255	
255	255	255	
255	255	255	
255	255	255	
255	255	255	
255	255	255	
255	255	255	
255	255	255	
255	255	255	
255	255	255	
255	255	255	
255	255	255	
255	255	255	
255	255	255	
255	255	255	
255	255	255	
255	255	255	
255	255	255	
255	255	255	
255	255	255	
255	255	255	
255	255	255	
255	255	255	
255	255	255	
255	255	255	
255	255	255	
255	255	255	
255	255	255	
255	255	255	
255	255	255	
255	255	255	
255	255	255	
255	255	255	
255	255	255	
255	255	255	
255	255	255	
255	255	255	
255	255	255	
255	255	255	
255	255	255	
255	255	255	
255	255	255	
255	255	255	
255	255	255	
255	255	255	
255	255	255	
255	255	255	
255	255	255	
255	255	255	
255	255	255	
255	255	255	
255	255	255	
255	255	255	
255	255	255	
255	255	255	
255	255	255	
255	255	255	
255	255	255	
255	255	255	
255	255	255	
255	255	255	
255	255	255	
255	255	255	
255	255	255	
255	255	255	
255	255	255	
255	255	255	
255	255	255	
255	255	255	
255	255	255	
255	255	255	
255	255	255	
255	255	255	
255	255	255	
255	255	255	
255	255	255	
255	255	255	
255	255	255	
255	255	255	
255	255	255	
255	255	255	
255	255	255	
255	255	255	
255	255	255	
255	255	255	
255	255	255	
255	255	255	
255	255	255	
255	255	255	
255	255	255	
255	255	255	
255	255	255	
255	255	255	
255	255	255	
255	255	255	
255	255	255	
255	255	255	
255	255	255	
255	255	255	
255	255	255	
255	255	255	
255	255	255	
255	255	255	
255	255	255	
255	255	255	
255	255	255	
255	255	255	
255	255	255	
255	255	255	
255	255	255	
255	255	255	
255	255	255	
255	255	255	
255	255	255	
255	255	255	
255	255	255	
255	255	255	
255	255	255	
255	255	255	
255	255	255	
255	255	255	
255	255	255	
255	255	255	
255	255	255	
255	255	255	
255	255	255	
255	255	255	
255	255	255	
255	255	255	
255	255	255	
255	255	255	
255	255	255	
255	255	255	
255	255	255	
255	255	255	
255	255	255	
255	255	255	
255	255	255	
255	255	255	
255	255	255	
255	255	255	
255	255	255	
255	255	255	
255	255	255	
255	255	255	
255	255	255	
255	255	255	
255	255	255	
255	255	255	
255	255	255	
255	255	255	
255	255	255	
255	255	255	
255	255	255	
255	255	255	
255	255	255	
255	255	255	
255	255	255	
255	255	255	
255	255	255	
255	255	255	
255	255	255	
255	255	255	
255	255	255	
255	255	255	
255	255	255	
255	255	255	
255	255	255	
255	255	255	
255	255	255	
255	255	255	
255	255	255	
255	255	255	
255	255	255	
255	255	255	
255	255	255	
255	255	255	
255	255	255	
255	255	255	
255	255	255	
255	255	255	
255	255	255	
255	255	255	
255	255	255	
255	255	255	
255	255	255	
255	255	255	
255	255	255	
255	255	255	
255	255	255	
255	255	255	
255	255	255	
255	255	255	
255	255	255	
255	255	255	
255	255	255	
255	255	255	
255	255	255	
255	255	255	
255	255	255	
255	255	255	
255	255	255	
255	255	255	
255	255	255	
255	255	255	
255	255	255	
255	255	255	
255	255	255	
255	255	255	
255	255	255	
255	255	255	
255	255	255	
255	255	255	
255	255	255	
255	255	255	
255	255	255	
255	255	255	
255	255	255	
255	255	255	
255	255	255	
255	255	255	
255	255	255	
255	255	255	
255	255	255	
255	255	255	
255	255	255	
255	255	255	
255	255	255	
255	255	255	
255	255	255	
255	255	255	
255	255	255	
255	255	255	
255	255	255	
255	255	255	
255	255	255	
255	255	255	
255	255	255	
255	255	255	
255	255	255	
255	255	255	
255	255	255	
255	255	255	
255	255	255	
255	255	255	
255	255	255	
255	255	255	
255	255	255	
255	255	255	
255	255	255	
255	255	255	
255	255	255	
255	255	255	
255	255	255	
255	255	255	
255	255	255	
255	255	255	
255	255	255	
255	255	255	
255	255	255	
255	255	255	
255	255	255	
255	255	255	
255	255	255	
255	255	255	
255	255	255	
255	255	255	
255	255	255	
255	255	255	
255	255	255	
255	255	255	
255	255	255	
255	255	255	
255	255	255	
255	255	255	
255	255	255	
255	255	255	
255	255	255	
255	255	255	
255	255	255	
255	255	255	
255	255	255	
255	255	255	
255	255	255	
255	255	255	
255	255	255	
255	255	255	
255	255	255	
255	255	255	
255	255	255	
255	255	255	
255	255	255	
255	255	255	
255	255	255	
255	255	255	
255	255	255	
255	255	255	
255	255	255	
255	255	255	
255	255	255	
255	255	255	
255	255	255	
255	255	255	
255	255	255	
255	255	255	
255	255	255	
255	255	255	
255	255	255	
255	255	255	
255	255	255	
255	255	255	
255	255	255	
255	255	255	
255	255	255	
255	255	255	
255	255	255	
255	255	255	
255	255	255	
255	255	255	
255	255	255	
255	255	255	
255	255	255	
255	255	255	
255	255	255	
255	255	255	
255	255	255	
255	255	255	
255	255	255	
255	255	255	
255	255	255	
255	255	255	
255	255	255	
255	255	255	
255	255	255	
255	255	255	
255	255	255	
255	255	255	
255	255	255	
255	255	255	
255	255	255	
255	255	255	
255	255	255	
255	255	255	
255	255	255	
255	255	255	
255	255	255	
255	255	255	
255	255	255	
255	255	255	
255	255	255	
255	255	255	
255	255	255	
255	255	255	
255	255	255	
255	255	255	
255	255	255	
255	255	255	
255	255	255	
255	255	255	
255	255	255	
255	255	255	
255	255	255	
255	255	255	
255	255	255	
255	255	255	
255	255	255	
255	255	255	
255	255	255	
255	255	255	
255	255	255	
255	255	255	
255	255	255	
255	255	255	
255	255	255	
255	255	255	
255	255	255	
255	255	255	
255	255	255	
255	255	255	
255	255	255	
255	255	255	
255	255	255	
255	255	255	
255	255	255	
255	255	255	
255	255	255	
255	255	255	
255	255	255	
255	255	255	
255	255	255	
255	255	255	
255	255	255	
255	255	255	
255	255	255	
255	255	255	
255	255	255	
255	255	255	
255	255	255	
255	255	255	
255	255	255	
255	255	255	
255	255	255	
255	255	255	
255	255	255	
255	255	255	
255	255	255	
255	255	255	
255	255	255	
255	255	255	
255	255	255	
255	255	255	
255	255	255	
255	255	255	
255	255	255	
255	255	255	
255	255	255	
255	255	255	
255	255	255	
255	255	255	
255	255	255	
255	255	255	
255	255	255	
255	255	255	
255	255	255	
255	255	255	
255	255	255	
255	255	255	
255	255	255	
255	255	255	
255	255	255	
255	255	255	
255	255	255	
255	255	255	
255	255	255	
255	255	255	
255	255	255	
255	255	255	
255	255	255	
255	255	255	
255	255	255	
255	255	255	
255	255	255	
255	255	255	
255	255	255	
255	255	255	
255	255	255	
255	255	255	
255	255	255	
255	255	255	
255	255	255	
255	255	255	
255	255	255	
255	255	255	
255	255	255	
255	255	255	
255	255	255	
255	255	255	
255	255	255	
255	255	255	
255	255	255	
255	255	255	
255	255	255	
255	255	255	
255	255	255	
255	255	255	
255	255	255	
255	255	255	
255	255	255	
255	255	255	
255	255	255	
255	255	255	
255	255	255	
255	255	255	
255	255	255	
255	255	255	
255	255	255	
255	255	255	
255	255	255	
255	255	255	
255	255	255	
255	255	255	
255	255	255	
255	255	255	
255	255	255	
255	255	255	
255	255	255	
255	255	255	
255	255	255	
255	255	255	
255	255	255	
255	255	255	
255	255	255	
255	255	255	
255	255	255	
255	255	255	
255	255	255	
255	255	255	
255	255	255	
255	255	255	
255	255	255	
255	255	255	
255	255	255	
255	255	255	
255	255	255	
255	255	255	
255	255	255	
255	255	255	
255	255	255	
255	255	255	
255	255	255	
255	255	255	
255	255	255	
255	255	255	
255	255	255	
255	255	255	
255	255	255	
255	255	255	
255	255	255	
255	255	255	
255	255	255	
255	255	255	
255	255	255	
255	255	255	
255	255	255	
255	255	255	
255	255	255	
255	255	255	
255	255	255	
255	255	255	
255	255	255	
255	255	255	
255	255	255	
255	255	255	
255	255	255	
255	255	255	
255	255	255	
255	255	255	
255	255	255	
255	255	255	
255	255	255	
255	255	255	
255	255	255	
255	255	255	
255	255	255	
255	255	255	
255	255	255	
255	255	255	
255	255	255	
255	255	255	
255	255	255	
255	255	255	
255	255	255	
255	255	255	
255	255	255	
255	255	255	
255	255	255	
255	255	255	
255	255	255	
255	255	255	
255	255	255	
255	255	255	
255	255	255	
255	255	255	
255	255	255	
255	255	255	
255	255	255	
255	255	255	
255	255	255	
255	255	255	
255	255	255	
255	255	255	
255	255	255	
255	255	255	
255	255	255	
255	255	255	
255	255	255	
255	255	255	
255	255	255	
255	255	255	
255	255	255	
255	255	255	
255	255	255	
255	255	255	
255	255	255	
255	255	255	
255	255	255	
255	255	255	
255	255	255	
255	255	255	
255	255	255	
255	255	255	
255	255	255	
255	255	255	
255	255	255	
255	255	255	
255	255	255	
255	255	255	
255	255	255	
255	255	255	
255	255	255	
255	255	255	
255	255	255	
255	255	255	
255	255	255	
255	255	255	
255	255	255	
255	255	255	
255	255	255	
255	255	255	
255	255	255	
255	255	255	
255	255	255	
255	255	255	
255	255	255	
255	255	255	
255	255	255	
255	255	255	
255	255	255	
255	255	255	
255	255	255	
255	255	255	
255	255	255	
255	255	255	
255	255	255	
255	255	255	
255	255	255	
255	255	255	
255	255	255	
255	255	255	
255	255	255	
255	255	255	
255	255	255	
255	255	255	
255	255	255	
255	255	255	
255	255	255	
255	255	255	
255	255	255	
255	255	255	
255	255	255	
255	255	255	
255	255	255	
255	255	255	
255	255	255	
255	255	255	
255	255	255	
255	255	255	
255	255	255	
255	255	255	
255	255	255	
255	255	255	
255	255	255	
255	255	255	
255	255	255	
255	255	255	
255	255	255	
255	255	255	
255	255	255	
255	255	255	
255	255	255	
255	255	255	
255	255	255	
255	255	255	
255	255	255	
255	255	255	
255	255	255	
255	255	255	
255	255	255	
255	255	255	
255	255	255	
255	255	255	
255	255	255	
255	255	255	
255	255	255	
255	255	255	
255	255	255	
255	255	255	
255	255	255	
255	255	255	
255	255	255	
255	255	255	
255	255	255	
255	255	255	
255	255	255	
255	255	255	
255	255	255	
255	255	255	
255	255	255	
255	255	255	
255	255	255	
255	255	255	
255	255	255	
255	255	255	
255	255	255	
255	255	255	
255	255	255	
255	255	255	
255	255	255	
255	255	255	
255	255	255	
255	255	255	
255	255	255	
255	255	255	
255	255	255	
255	255	255	
255	255	255	
255	255	255	
255	255	255	
255	255	255	
255	255	255	
255	255	255	
255	255	255	
255	255	255	
255	255	255	
255	255	255	
255	255	255	
255	255	255	
255	255	255	
255	255	255	
255	255	255	
255	255	255	
255	255	255	
255	255	255	
255	255	255	
255	255	255	
255	255	255	
255	255	255	
255	255	255	
255	255	255	
255	255	255	
255	255	255	
255	255	255	
255	255	255	
255	255	255	
255	255	255	
255	255	255	
255	255	255	
255	255	255	
255	255	255	
255	255	255	
255	255	255	
255	255	255	
255	255	255	
255	255	255	
255	255	255	
255	255	255	
255	255	255	
255	255	255	
255	255	255	
255	255	255	
255	255	255	
255	255	255	
255	255	255	
255	255	255	
255	255	255	
255	255	255	
255	255	255	
255	255	255	
255	255	255	
255	255	255	
255	255	255	
255	255	255	
255	255	255	
255	255	255	
255	255	255	
255	255	255	
255	255	255	
255	255	255	
255	255	255	
255	255	255	
255	255	255	
255	255	255	
255	255	255	
255	255	255	
255	255	255	
255	255	255	
255	255	255	
255	255	255	
255	255	255	
255	255	255	
255	255	255	
255	255	255	
255	255	255	
255	255	255	
255	255	255	
255	255	255	
255	255	255	
255	255	255	
255	255	255	
255	255	255	
255	255	255	
255	255	255	
255	255	255	
255	255	255	
255	255	255	
255	255	255	
255	255	255	
255	255	255	
255	255	255	
255	255	255	
255	255	255	
255	255	255	
255	255	255	
255	255	255	
255	255	255	
255	255	255	
255	255	255	
255	255	255	
255	255	255	
255	255	255	
255	255	255	
255	255	255	
255	255	255	
255	255	255	
255	255	255	
255	255	255	
255	255	255	
255	255	255	
255	255	255	
255	255	255	
255	255	255	
255	255	255	
255	255	255	
255	255	255	
255	255	255	
255	255	255	
255	255	255	
255	255	255	
255	255	255	
255	255	255	
255	255	255	
255	255	255	
255	255	255	
255	255	255	
255	255	255	
255	255	255	
255	255	255	
255	255	255	
255	255	255	
255	255	255	
255	255	255	
255	255	255	
255	255	255	
255	255	255	
255	255	255	
255	255	255	
255	255	255	
255	255	255	
255	255	255	
255	255	255	
255	255	255	
255	255	255	
255	255	255	
255	255	255	
255	255	255	
255	255	255	
255	255	255	
255	255	255	
255	255	255	
255	255	255	
255	255	255	
255	255	255	
255	255	255	
255	255	255	
255	255	255	
255	255	255	
255	255	255	
255	255	255	
255	255	255	
255	255	255	
255	255	255	
255	255	255	
255	255	255	
255	255	255	
255	255	255	
255	255	255	
255	255	255	
255	255	255	
255	255	255	
255	255	255	
255	255	255	
255	255	255	
255	255	255	
255	255	255	
255	255	255	
255	255	255	
255	255	255	
255	255	255	
255	255	255	
255	255	255	
255	255	255	
255	255	255	
255	255	255	
255	255	255	
255	255	255	
255	255	255	
255	255	255	
255	255	255	
255	255	255	
255	255	255	
255	255	255	
255	255	255	
255	255	255	
255	255	255	
255	255	255	
255	255	255	
255	255	255	
255	255	255	
255	255	255	
255	255	255	
255	255	255	
255	255	255	
255	255	255	
255	255	255	
255	255	255	
255	255	255	
255	255	255	
255	255	255	
255	255	255	
255	255	255	
255	255	255	
255	255	255	
255	255	255	
255	255	255	
255	255	255	
255	255	255	
255	255	255	
255	255	255	
255	255	255	
255	255	255	
255	255	255	
255	255	255	
255	255	255	
255	255	255	
255	255	255	
255	255	255	
255	255	255	
255	255	255	
255	255	255	
255	255	255	
255	255	255	
255	255	255	
255	255	255	
255	255	255	
255	255	255	
255	255	255	
255	255	255	
255	255	255	
255	255	255	
255	255	255	
255	255	255	
255	255	255	
255	255	255	
255	255	255	
255	255	255	
255	255	255	
255	255	255	
255	255	255	
255	255	255	
255	255	255	
255	255	255	
255	255	255	
255	255	255	
255	255	255	
255	255	255	
255	255	255	
255	255	255	
255	255	255	
255	255	255	
255	255	255	
255	255	255	
255	255	255	
255	255	255	
255	255	255	
255	255	255	
255	255	255	
255	255	255	
255	255	255	
255	255	255	
255	255	255	
255	255	255	
255	255	255	
255	255	255	
255	255	255	
255	255	255	
255	255	255	
255	255	255	
255	255	255	
255	255	255	
255	255	255	
255	255	255	
255	255	255	
255	255	255	
255	255	255	
255	255	255	
255	255	255	
255	255	255	
255	255	255	
255	255	255	
255	255	255	
255	255	255	
255	255	255	
255	255	255	
255	255	255	
255	255	255	
255	255	255	
255	255	255	
255	255	255	
255	255	255	
255	255	255	
255	255	255	
255	255	255	
255	255	255	
255	255	255	
255	255	255	
255	255	255	
255	255	255	
255	255	255	
255	255	255	
255	255	255	
255	255	255	
255	255	255	
255	255	255	
255	255	255	
255	255	255	
255	255	255	
255	255	255	
255	255	255	
255	255	255	
255	255	255	
255	255	255	
255	255	255	
255	255	255	
255	255	255	
255	255	255	
255	255	255	
255	255	255	
255	255	255	
255	255	255	
255	255	255	
255	255	255	
255	255	255	
255	255	255	
255	255	255	
255	255	255	
255	255	255	
255	255	255	
255	255	255	
255	255	255	
255	255	255	
255	255	255	
255	255	255	
255	255	255	
255	255	255	
255	255	255	
255	255	255	
255	255	255	
255	255	255	
255	255	255	
255	255	255	
255	255	255	
255	255	255	
255	255	255	
255	255	255	
255	255	255	
255	255	255	
255	255	255	
255	255	255	
255	255	255	
255	255	255	
255	255	255	
255	255	255	
255	255	255	
255	255	255	
255	255	255	
255	255	255	
255	255	255	
255	255	255	
255	255	255	
255	255	255	
255	255	255	
255	255	255	
255	255	255	
255	255	255	
255	255	255	
255	255	255	
255	255	255	
255	255	255	
255	255	255	
255	255	255	
255	255	255	
255	255	255	
255	255	255	
255	255	255	
255	255	255	
255	255	255	
255	255	255	
255	255	255	
255	255	255	
255	255	255	
255	255	255	
255	255	255	
255	255	255	
255	255	255	
255	255	255	
255	255	255	
255	255	255	
255	255	255	
255	255	255	
255	255	255	
255	255	255	
255	255	255	
255	255	255	
255	255	255	
255	255	255	
255	255	255	
255	255	255	
255	255	255	
255	255	255	
255	255	255	
255	255	255	
255	255	255	
255	255	255	
255	255	255	
255	255	255	
255	255	255	
255	255	255	
255	255	255	
255	255	255	
255	255	255	
255	255	255	
255	255	255	
255	255	255	
255	255	255	
255	255	255	
255	255	255	
255	255	255	
255	255	255	
255	255	255	
255	255	255	
255	255	255	
255	255	255	
255	255	255	
255	255	255	
255	255	255	
255	255	255	
255	255	255	
255	255	255	
255	255	255	
255	255	255	
255	255	255	
255	255	255	
255	255	255	
255	255	255	
255	255	255	
255	255	255	
255	255	255	
255	255	255	
255	255	255	
255	255	255	
255	255	255	
255	255	255	
255	255	255	
255	255	255	
255	255	255	
255	255	255	
255	255	255	
255	255	255	
255	255	255	
255	255	255	
255	255	255	
255	255	255	
255	255	255	
255	255	255	
255	255	255	
255	255	255	
255	255	255	
255	255	255	
255	255	255	
255	255	255	
255	255	255	
255	255	255	
255	255	255	
255	255	255	
255	255	255	
255	255	255	
255	255	255	
255	255	255	
255	255	255	
255	255	255	
255	255	255	
255	255	255	
255	255	255	
255	255	255	
255	255	255	
255	255	255	
255	255	255	
255	255	255	
255	255	255	
255	255	255	
255	255	255	
255	255	255	
255	255	255	
255	255	255	
255	255	255	
255	255	255	
255	255	255	
255	255	255	
255	255	255	
255	255	255	
255	255	255	
255	255	255	
255	255	255	
255	255	255	
255	255	255	
255	255	255	
255	255	255	
255	255	255	
255	255	255	
255	255	255	
255	255	255	
255	255	255	
255	255	255	
255	255	255	
255	255	255	
255	255	255	
255	255	255	
255	255	255	
255	255	255	
255	255	255	
255	255	255	
255	255	255	
255	255	255	
255	255	255	
255	255	255	
255	255	255	
255	255	255	
255	255	255	
255	255	255	
255	255	255	
255	255	255	
255	255	255	
255	255	255	
255	255	255	
255	255	255	
255	255	255	
255	255	255	
255	255	255	
255	255	255	
255	255	255	
255	255	255	
255	255	255	
255	255	255	
255	255	255	
255	255	255	
255	255	255	
255	255	255	
255	255	255	
255	255	255	
255	255	255	
255	255	255	
255	255	255	
255	255	255	
255	255	255	
255	255	255	
255	255	255	
255	255	255	
255	255	255	
255	255	255	
255	255	255	
255	255	255	
255	255	255	
255	255	255	
255	255	255	
255	255	255	
255	255	255	
255	255	255	
255	255	255	
255	255	255	
255	255	255	
255	255	255	
255	255	255	
255	255	255	
255	255	255	
255	255	255	
255	255	255	
255	255	255	
255	255	255	
255	255	255	
255	255	255	
255	255	255	
255	255	255	
255	255	255	
255	255	255	
255	255	255	
255	255	255	
255	255	255	
255	255	255	
255	255	255	
255	255	255	
255	255	255	
255	255	255	
255	255	255	
255	255	255	
255	255	255	
255	255	255	
255	255	255	
255	255	255	
255	255	255	
255	255	255	
255	255	255	
255	255	255	
255	255	255	
255	255	255	
255	255	255	
255	255	255	
255	255	255	
255	255	255	
255	255	255	
255	255	255	
255	255	255	
255	255	255	
255	255	255	
255	255	255	
255	255	255	
255	255	255	
255	255	255	
255	255	255	
255	255	255	
255	255	255	
255	255	255	
255	255	255	
255	255	255	
255	255	255	
255	255	255	
255	255	255	
255	255	255	
255	255	255	
255	255	255	
255	255	255	
255	255	255	
255	255	255	
255	255	255	
255	255	255	
255	255	255	
255	255	255	
255	255	255	
255	255	255	
255	255	255	
255	255	255	
255	255	255	
255	255	255	
255	255	255	
255	255	255	
255	255	255	
255	255	255	
255	255	255	
255	255	255	
255	255	255	
255	255	255	
255	255	255	
255	255	255	
255	255	255	
255	255	255	
255	255	255	
255	255	255	
255	255	255	
255	255	255	
255	255	255	
255	255	255	
255	255	255	
255	255	255	
255	255	255	
255	255	255	
255	255	255	
255	255	255	
255	255	255	
255	255	255	
255	255	255	
255	255	255	
255	255	255	
255	255	255	
255	255	255	
255	255	255	
255	255	255	
255	255	255	
255	255	255	
255	255	255	
255	255	255	
255	255	255	
255	255	255	
255	255	255	
255	255	255	
255	255	255	
255	255	255	
255	255	255	
255	255	255	
255	255	255	
255	255	255	
255	255	255	
255	255	255	
255	255	255	
255	255	255	
255	255	255	
255	255	255	
255	255	255	
255	255	255	
255	255	255	
255	255	255	
255	255	255	
255	255	255	
255	255	255	
255	255	255	
255	255	255	
255	255	255	
255	255	255	
255	255	255	
255	255	255	
255	255	255	
255	255	255	
255	255	255	
255	255	255	
255	255	255	
255	255	255	
255	255	255	
255	255	255	
255	255	255	
255	255	255	
255	255	255	
255	255	255	
255	255	255	
255	255	255	
255	255	255	
255	255	255	
255	255	255	
255	255	255	
255	255	255	
255	255	255	
255	255	255	
255	255	255	
255	255	255	
255	255	255	
255	255	255	
255	255	255	
255	255	255	
255	255	255	
255	255	255	
255	255	255	
255	255	255	
255	255	255	
255	255	255	
255	255	255	
255	255	255	
255	255	255	
255	255	255	
255	255	255	
255	255	255	
255	255	255	
255	255	255	
255	255	255	
255	255	255	
255	255	255	
255	255	255	
255	255	255	
255	255	255	
255	255	255	
255	255	255	
255	255	255	
255	255	255	
255	255	255	
255	255	255	
255	255	255	
255	255	255	
255	255	255	
255	255	255	
255	255	255	
255	255	255	
255	255	255	
255	255	255	
255	255	255	
255	255	255	
255	255	255	
255	255	255	
255	255	255	
255	255	255	
255	255	255	
255	255	255	
255	255	255	
255	255	255	
255	255	255	
255	255	255	
255	255	255	
255	255	255	
255	255	255	
255	255	255	
255	255	255	
255	255	255	
255	255	255	
255	255	255	
255	255	255	
255	255	255	
255	255	255	
255	255	255	
255	255	255	
255	255	255	
255	255	255	
255	255	255	
255	255	255	
255	255	255	
255	255	255	
255	255	255	
255	255	255	
255	255	255	
255	255	255	
255	255	255	
255	255	255	
255	255	255	
255	255	255	
255	255	255	
255	255	255	
255	255	255	
255	255	255	
255	255	255	
255	255	255	
255	255	255	
255	255	255	
255	255	255	
255	255	255	
255	255	255	
255	255	255	
255	255	255	
255	255	255	
255	255	255	
255	255	255	
255	255	255	
255	255	255	
255	255	255	
255	255	255	
255	255	255	
255	255	255	
255	255	255	
255	255	255	
255	255	255	
255	255	255	
255	255	255	
255	255	255	
255	255	255	
255	255	255	
255	255	255	
255	255	255	
255	255	255	
255	255	255	
255	255	255	
255	255	255	
255	255	255	
255	255	255	
255	255	255	
255	255	255	
255	255	255	
255	255	255	
255	255	255	
255	255	255	
255	255	255	
255	255	255	
255	255	255	
255	255	255	
255	255	255	
255	255	255	
255	255	255	
255	255	255	
255	255	255	
255	255	255	
255	255	255	
255	255	255	
255	255	255	
255	255	255	
255	255	255	
255	255	255	
255	255	255	
255	255	255	
255	255	255	
255	255	255	
255	255	255	
255	255	255	
255	255	255	
255	255	255	
255	255	255	
255	255	255	
255	255	255	
255	255	255	
255	255	255	
255	255	255	
255	255	255	
255	255	255	
255	255	255	
255	255	255	
255	255	255	
255	255	255	
255	255	255	
255	255	255	
255	255	255	
255	255	255	
255	255	255	
255	255	255	
255	255	255	
255	255	255	
255	255	255	
255	255	255	
255	255	255	
255	255	255	
255	255	255	
255	255	255	
255	255	255	
255	255	255	
255	255	255	
255	255	255	
255	255	255	
255	255	255	
255	255	255	
255	255	255	
255	255	255	
255	255	255	
255	255	255	
255	255	255	
255	255	255	
255	255	255	
255	255	255	
255	255	255	
255	255	255	
255	255	255	
255	255	255	
255	255	255	
255	255	255	
255	255	255	
255	255	255	
255	255	255	
255	255	255	
255	255	255	
255	255	255	
255	255	255	
255	255	255	
255	255	255	
255	255	255	
255	255	255	
255	255	255	
255	255	255	
255	255	255	
255	255	255	
255	255	255	
255	255	255	
255	255	255	
255	255	255	
255	255	255	
255	255	255	
255	255	255	
255	255	255	
255	255	255	
255	255	255	
255	255	255	
255	255	255	
255	255	255	
255	255	255	
255	255	255	
255	255	255	
255	255	255	
255	255	255	
255	255	255	
255	255	255	
255	255	255	
255	255	255	
255	255	255	
255	255	255	
255	255	255	
255	255	255	
255	255	255	
255	255	255	
255	255	255	
255	255	255	
255	255	255	
255	255	255	
255	255	255	
255	255	255	
255	255	255	
255	255	255	
255	255	255	
255	255	255	
255	255	255	
255	255	255	
255	255	255	
255	255	255	
255	255	255	
255	255	255	
255	255	255	
255	255	255	
255	255	255	
255	255	255	
255	255	255	
255	255	255	
255	255	255	
255	255	255	
255	255	255	
255	255	255	
255	255	255	
255	255	255	
255	255	255	
255	255	255	
255	255	255	
255	255	255	
255	255	255	
255	255	255	
255	255	255	
255	255	255	
255	255	255	
255	255	255	
255	255	255	
255	255	255	
255	255	255	
255	255	255	
255	255	255	
255	255	255	
255	255	255	
255	255	255	
255	255	255	
255	255	255	
255	255	255	
255	255	255	
255	255	255	
255	255	255	
255	255	255	
255	255	255	
255	255	255	
255	255	255	
255	255	255	
255	255	255	
255	255	255	
255	255	255	
255	255	255	
255	255	255	
255	255	255	
255	255	255	
255	255	255	
255	255	255	
255	255	255	
255	255	255	
255	255	255	
255	255	255	
255	255	255	
255	255	255	
255	255	255	
255	255	255	
255	255	255	
255	255	255	
255	255	255	
255	255	255	
255	255	255	
255	255	255	
255	255	255	
255	255	255	
255	255	255	
255	255	255	
255	255	255	
255	255	255	
255	255	255	
255	255	255	
255	255	255	
255	255	255	
255	255	255	
255	255	255	
255	255	255	
255	255	255	
255	255	255	
255	255	255	
255	255	255	
255	255	255	
255	255	255	
255	255	255	
255	255	255	
255	255	255	
255	255	255	
255	255	255	
255	255	255	
255	255	255	
255	255	255	
255	255	255	
255	255	255	
255	255	255	
255	255	255	
255	255	255	
255	255	255	
255	255	255	
255	255	255	
255	255	255	
255	255	255	
255	255	255	
255	255	255	
255	255	255	
255	255	255	
255	255	255	
255	255	255	
255	255	255	
255	255	255	
255	255	255	
255	255	255	
255	255	255	
255	255	255	
255	255	255	
255	255	255	
255	255	255	
255	255	255	
255	255	255	
255	255	255	
255	255	255	
255	255	255	
255	255	255	
255	255	255	
255	255	255	
255	255	255	
255	255	255	
255	255	255	
255	255	255	
255	255	255	
255	255	255	
255	255	255	
255	255	255	
255	255	255	
255	255	255	
255	255	255	
255	255	255	
255	255	255	
255	255	255	
255	255	255	
255	255	255	
255	255	255	
255	255	255	
255	255	255	
255	255	255	
255	255	255	
255	255	255	
255	255	255	
255	255	255	
255	255	255	
255	255	255	
255	255	255	
255	255	255	
255	255	255	
255	255	255	
255	255	255	
255	255	255	
255	255	255	
255	255	255	
255	255	255	
255	255	255	
255	255	255	
255	255	255	
255	255	255	
255	255	255	
255	255	255	
255	255	255	
255	255	255	
255	255	255	
255	255	255	
255	255	255	
255	255	255	
255	255	255	
255	255	255	
255	255	255	
255	255	255	
255	255	255	
255	255	255	
255	255	255	
255	255	255	
255	255	255	
255	255	255	
255	255	255	
255	255	255	
255	255	255	
255	255	255	
255	255	255	
255	255	255	
255	255	255	
255	255	255	
255	255	255	
255	255	255	
255	255	255	
255	255	255	
255	255	255	
255	255	255	
255	255	255	
255	255	255	
255	255	255	
255	255	255	
255	255	255	
255	255	255	
255	255	255	
255	255	255	
255	255	255	
255	255	255	
255	255	255	
255	255	255	
255	255	255	
255	255	255	
255	255	255	
255	255	255	
255	255	255	
255	255	255	
255	255	255	
255	255	255	
255	255	255	
255	255	255	
255	255	255	
255	255	255	
255	255	255	
255	255	255	
255	255	255	
255	255	255	
255	255	255	
255	255	255	
255	255	255	
255	255	255	
255	255	255	
255	255	255	
255	255	255	
255	255	255	
255	255	255	
255	255	255	
255	255	255	
255	255	255	
255	255	255	
255	255	255	
255	255	255	
255	255	255	
255	255	255	
255	255	255	
255	255	255	
255	255	255	
255	255	255	
255	255	255	
255	255	255	
255	255	255	
255	255	255	
255	255	255	
255	255	255	
255	255	255	
255	255	255	
255	255	255	
255	255	255	
255	255	255	
255	255	255	
255	255	255	
255	255	255	
255	255	255	
255	255	255	
255	255	255	
255	255	255	
255	255	255	
255	255	255	
255	255	255	
255	255	255	
255	255	255	
255	255	255	
255	255	255	
255	255	255	
255	255	255	
255	255	255	
255	255	255	
255	255	255	
255	255	255	
255	255	255	
255	255	255	
255	255	255	
255	255	255	
255	255	255	
255	255	255	
255	255	255	
255	255	255	
255	255	255	
255	255	255	
255	255	255	
255	255	255	
255	255	255	
255	255	255	
255	255	255	
255	255	255	
255	255	255	
255	255	255	
255	255	255	
255	255	255	
255	255	255	
255	255	255	
255	255	255	
255	255	255	
255	255	255	
255	255	255	
255	255	255	
255	255	255	
255	255	255	
255	255	255	
255	255	255	
255	255	255	
255	255	255	
255	255	255	
255	255	255	
255	255	255	
255	255	255	
255	255	255	
255	255	255	
255	255	255	
255	255	255	
255	255	255	
255	255	255	
255	255	255	
255	255	255	
255	255	255	
255	255	255	
255	255	255	
255	255	255	
255	255	255	
255	255	255	
255	255	255	
255	255	255	
255	255	255	
255	255	255	
255	255	255	
255	255	255	
255	255	255	
255	255	255	
255	255	255	
255	255	255	
255	255	255	
255	255	255	
255	255	255	
255	255	255	
255	255	255	
255	255	255	
255	255	255	
255	255	255	
255	255	255	
255	255	255	
255	255	255	
255	255	255	
255	255	255	
255	255	255	
255	255	255	
255	255	255	
255	255	255	
255	255	255	
255	255	255	
255	255	255	
255	255	255	
255	255	255	
255	255	255	
255	255	255	
255	255	255	
255	255	255	
255	255	255	
255	255	255	
255	255	255	
255	255	255	
255	255	255	
255	255	255	
255	255	255	
255	255	255	
255	255	255	
255	255	255	
255	255	255	
255	255	255	
255	255	255	
255	255	255	
255	255	255	
255	255	255	
255	255	255	
255	255	255	
255	255	255	
255	255	255	
255	255	255	
255	255	255	
255	255	255	
255	255	255	
255	255	255	
255	255	255	
255	255	255	
255	255	255	
255	255	255	
255	255	255	
255	255	255	
255	255	255	
255	255	255	
255	255	255	
255	255	255	
255	255	255	
255	255	255	
255	255	255	
255	255	255	
255	255	255	
255	255	255	
255	255	255	
255	255	255	
255	255	255	
255	255	255	
255	255	255	
255	255	255	
255	255	255	
255	255	255	
255	255	255	
255	255	255	
255	255	255	
255	255	255	
255	255	255	
255	255	255	
255	255	255	
255	255	255	
255	255	255	
255	255	255	
255	255	255	
255	255	255	
255	255	255	
255	255	255	
255	255	255	
255	255	255	
255	255	255	
255	255	255	
255	255	255	
255	255	255	
255	255	255	
255	255	255	
255	255	255	
255	255	255	
255	255	255	
255	255	255	
255	255	255	
255	255	255	
255	255	255	
255	255	255	
255	255	255	
255	255	255	
255	255	255	
255	255	255	
255	255	255	
255	255	255	
255	255	255	
255	255	255	
255	255	255	
255	255	255	
255	255	255	
255	255	255	
255	255	255	
255	255	255	
255	255	255	
255	255	255	
255	255	255	
255	255	255	
255	255	255	
255	255	255	
255	255	255	
255	255	255	
255	255	255	
255	255	255	
255	255	255	
255	255	255	
255	255	255	
255	255	255	
255	255	255	
255	255	255	
255	255	255	
255	255	255	
255	255	255	
255	255	255	
255	255	255	
255	255	255	
255	255	255	
255	255	255	
255	255	255	
255	255	255	
255	255	255	
255	255	255	
255	255	255	
255	255	255	
255	255	255	
255	255	255	
255	255	255	
255	255	255	
255	255	255	
255	255	255	
255	255	255	
255	255	255	
255	255	255	
255	255	255	
255	255	255	
255	255	255	
255	255	255	
255	255	255	
255	255	255	
255	255	255	
255	255	255	
255	255	255	
255	255	255	
255	255	255	
255	255	255	
255	255	255	
255	255	255	
255	255	255	
255	255	255	
255	255	255	
255	255	255	
255	255	255	
255	255	255	
255	255	255	
255	255	255	
255	255	255	
255	255	255	
255	255	255	
255	255	255	
255	255	255	
255	255	255	
255	255	255	
255	255	255	
255	255	255	
255	255	255	
255	255	255	
255	255	255	
255	255	255	
255	255	255	
255	255	255	
255	255	255	
255	255	255	
255	255	255	
255	255	255	
255	255	255	
255	255	255	
255	255	255	
255	255	255	
255	255	255	
255	255	255	
255	255	255	
255	255	255	
255	255	255	
255	255	255	
255	255	255	
255	255	255	
255	255	255	
255	255	255	
255	255	255	
255	255	255	
255	255	255	
255	255	255	
255	255	255	
255	255	255	
255	255	255	
255	255	255	
255	255	255	
255	255	255	
255	255	255	
255	255	255	
255	255	255	
255	255	255	
255	255	255	
255	255	255	
255	255	255	
255	255	255	
255	255	255	
255	255	255	
255	255	255	
255	255	255	
255	255	255	
255	255	255	
255	255	255	
255	255	255	
255	255	255	
255	255	255	
255	255	255	
255	255	255	
255	255	255	
255	255	255	
255	255	255	
255	255	255	
255	255	255	
255	255	255	
255	255	255	
255	255	255	
255	255	255	
255	255	255	
255	255	255	
255	255	255	
255	255	255	
255	255	255	
255	255	255	
255	255	255	
255	255	255	
255	255	255	
255	255	255	
255	255	255	
255	255	255	
255	255	255	
255	255	255	
255	255	255	
255	255	255	
255	255	255	
255	255	255	
255	255	255	
255	255	255	
255	255	255	
255	255	255	
255	255	255	
255	255	255	
255	255	255	
255	255	255	
255	255	255	
255	255	255	
255	255	255	
255	255	255	
255	255	255	
255	255	255	
255	255	255	
255	255	255	
255	255	255	
255	255	255	
255	255	255	
255	255	255	
255	255	255	
255	255	255	
255	255	255	
255	255	255	
255	255	255	
255	255	255	
255	255	255	
255	255	255	
255	255	255	
255	255	255	
255	255	255	
255	255	255	
255	255	255	
255	255	255	
255	255	255	
255	255	255	
255	255	255	
255	255	255	
255	255	255	
255	255	255	
255	255	255	
255	255	255	
255	255	255	
255	255	255	
255	255	255	
255	255	255	
255	255	255	
255	255	255	
255	255	255	
255	255	255	
255	255	255	
255	255	255	
255	255	255	
255	255	255	
255	255	255	
255	255	255	
255	255	255	
255	255	255	
255	255	255	
255	255	255	
255	255	255	
255	255	255	
255	255	255	
255	255	255	
255	255	255	
255	255	255	
255	255	255	
255	255	255	
255	255	255	
255	255	255	
255	255	255	
255	255	255	
255	255	255	
255	255	255	
255	255	255	
255	255	255	
255	255	255	
255	255	255	
255	255	255	
255	255	255	
255	255	255	
255	255	255	
255	255	255	
255	255	255	
255	255	255	
255	255	255	
255	255	255	
255	255	255	
255	255	255	
255	255	255	
255	255	255	
255	255	255	
255	255	255	
255	255	255	
255	255	255	
255	255	255	
255	255	255	
255	255	255	
255	255	255	
255	255	255	
255	255	255	
255	255	255	
255	255	255	
255	255	255	
255	255	255	
255	255	255	
255	255	255	
255	255	255	
255	255	255	
255	255	255	
255	255	255	
255	255	255	
255	255	255	
255	255	255	
255	255	255	
255	255	255	
255	255	255	
255	255	255	
255	255	255	
255	255	255	
255	255	255	
255	255	255	
255	255	255	
255	255	255	
255	255	255	
255	255	255	
255	255	255	
255	255	255	
255	255	255	
255	255	255	
255	255	255	
255	255	255	
255	255	255	
255	255	255	
255	255	255	
255	255	255	
255	255	255	
255	255	255	
255	255	255	
255	255	255	
255	255	255	
255	255	255	
255	255	255	
255	255	255	
255	255	255	
255	255	255	
255	255	255	
255	255	255	
255	255	255	
255	255	255	
255	255	255	
255	255	255	
255	255	255	
255	255	255	
255	255	255	
255	255	255	
255	255	255	
255	255	255	
255	255	255	
255	255	255	
255	255	255	
255	255	255	
255	255	255	
255	255	255	
255	255	255	
255	255	255	
255	255	255	
255	255	255	
255	255	255	
255	255	255	
255	255	255	
255	255	255	
255	255	255	
255	255	255	
255	255	255	
255	255	255	
255	255	255	
255	255	255	
255	255	255	
255	255	255	
255	255	255	
255	255	255	
255	255	255	
255	255	255	
255	255	255	
255	255	255	
255	255	255	
255	255	255	
255	255	255	
255	255	255	
255	255	255	
255	255	255	
255	255	255	
255	255	255	
255	255	255	
255	255	255	
255	255	255	
255	255	255	
255	255	255	
255	255	255	
255	255	255	
255	255	255	
255	255	255	
255	255	255	
255	255	255	
255	255	255	
255	255	255	
255	255	255	
255	255	255	
255	255	255	
255	255	255	
255	255	255	
255	255	255	
255	255	255	
255	255	255	
255	255	255	
255	255	255	
255	255	255	
255	255	255	
255	255	255	
255	255	255	
255	255	255	
255	255	255	
255	255	255	
255	255	255	
255	255	255	
255	255	255	
255	255	255	
255	255	255	
255	255	255	
255	255	255	
255	255	255	
255	255	255	
255	255	255	
255	255	255	
255	255	255	
255	255	255	
255	255	255	
255	255	255	
255	255	255	
255	255	255	
255	255	255	
255	255	255	
255	255	255	
255	255	255	
255	255	255	
255	255	255	
255	255	255	
255	255	255	
255	255	255	
255	255	255	
255	255	255	
255	255	255	
255	255	255	
255	255	255	
255	255	255	
255	255	255	
255	255	255	
255	255	255	
255	255	255	
255	255	255	
255	255	255	
255	255	255	
255	255	255	
255	255	255	
255	255	255	
255	255	255	
255	255	255	
255	255	255	
255	255	255	
255	255	255	
255	255	255	
255	255	255	
255	255	255	
255	255	255	
255	255	255	
255	255	255	
255	255	255	
255	255	255	
255	255	255	
255	255	255	
255	255	255	
255	255	255	
255	255	255	
255	255	255	
255	255	255	
255	255	255	
255	255	255	
255	255	255	
255	255	255	
255	255	255	
255	255	255	
255	255	255	
255	255	255	
255	255	255	
255	255	255	
255	255	255	
255	255	255	
255	255	255	
255	255	255	
255	255	255	
255	255	255	
255	255	255	
255	255	255	
255	255	255	
255	255	255	
255	255	255	
255	255	255	
255	255	255	
255	255	255	
255	255	255	
255	255	255	
255	255	255	
255	255	255	
255	255	255	
255	255	255	
255	255	255	
255	255	255	
255	255	255	
255	255	255	
255	255	255	
255	255	255	
255	255	255	
255	255	255	
255	255	255	
255	255	255	
255	255	255	
255	255	255	
255	255	255	
255	255	255	
255	255	255	
255	255	255	
255	255	255	
255	255	255	
255	255	255	
255	255	255	
255	255	255	
255	255	255	
255	255	255	
255	255	255	
255	255	255	
255	255	255	
255	255	255	
255	255	255	
255	255	255	
255	255	255	
255	255	255	
255	255	255	
255	255	255	
255	255	255	
255	255	255	
255	255	255	
255	255	255	
255	255	255	
255	255	255	
255	255	255	
255	255	255	
255	255	255	
255	255	255	
255	255	255	
255	255	255	
255	255	255	
255	255	255	
255	255	255	
255	255	255	
255	255	255	
255	255	255	
255	255	255	
255	255	255	
255	255	255	
255	255	255	
255	255	255	
255	255	255	
255	255	255	
255	255	255	
255	255	255	
255	255	255	
255	255	255	
255	255	255	
255	255	255	
255	255	255	
255	255	255	
255	255	255	
255	255	255	
255	255	255	
255	255	255	
255	255	255	
255	255	255	
255	255	255	
255	255	255	
255	255	255	
255	255	255	
255	255	255	
255	255	255	
255	255	255	
255	255	255	
255	255	255	
255	255	255	
255	255	255	
255	255	255	
255	255	255	
255	255	255	
255	255	255	
255	255	255	
255	255	255	
255	255	255	
255	255	255	
255	255	255	
255	255	255	
255	255	255	
255	255	255	
255	255	255	
255	255	255	
255	255	255	
255	255	255	
255	255	255	
255	255	255	
255	255	255	
255	255	255	
255	255	255	
255	255	255	
255	255	255	
255	255	255	
255	255	255	
255	255	255	
255	255	255	
255	255	255	
255	255	255	
255	255	255	
255	255	255	
255	255	255	
255	255	255	
255	255	255	
255	255	255	
255	255	255	
255	255	255	
255	255	255	
255	255	255	
255	255	255	
255	255	255	
255	255	255	
255	255	255	
255	255	255	
255	255	255	
255	255	255	
255	255	255	
255	255	255	
255	255	255	
255	255	255	
255	255	255	
255	255	255	
255	255	255	
255	255	255	
255	255	255	
255	255	255	
255	255	255	
255	255	255	
255	255	255	
255	255	255	
255	255	255	
255	255	255	
255	255	255	
255	255	255	
255	255	255	
255	255	255	
255	255	255	
255	255	255	
255	255	255	
255	255	255	
255	255	255	
255	255	255	
255	255	255	
255	255	255	
255	255	255	
255	255	255	
255	255	255	
255	255	255	
255	255	255	
255	255	255	
255	255	255	
255	255	255	
255	255	255	
255	255	255	
255	255	255	
255	255	255	
255	255	255	
255	255	255	
255	255	255	
255	255	255	
255	255	255	
255	255	255	
255	255	255	
255	255	255	
255	255	255	
255	255	255	
255	255	255	
255	255	255	
255	255	255	
255	255	255	
255	255	255	
255	255	255	
255	255	255	
255	255	255	
255	255	255	
255	255	255	
255	255	255	
255	255	255	
255	255	255	
255	255	255	
255	255	255	
255	255	255	
255	255	255	
255	255	255	
255	255	255	
255	255	255	
255	255	255	
255	255	255	
255	255	255	
255	255	255	
255	255	255	
255	255	255	
255	255	255	
255	255	255	
255	255	255	
255	255	255	
255	255	255	
255	255	255	
255	255	255	
255	255	255	
255	255	255	
255	255	255	
255	255	255	
255	255	255	
255	255	255	
255	255	255	
255	255	255	
255	255	255	
255	255	255	
255	255	255	
255	255	255	
255	255	255	
255	255	255	
255	255	255	
255	255	255	
255	255	255	
255	255	255	
255	255	255	
255	255	255	
255	255	255	
255	255	255	
255	255	255	
255	255	255	
255	255	255	
255	255	255	
255	255	255	
255	255	255	
255	255	255	
255	255	255	
255	255	255	
255	255	255	
255	255	255	
255	255	255	
255	255	255	
255	255	255	
255	255	255	
255	255	255	
255	255	255	
255	255	255	
255	255	255	
255	255	255	
255	255	255	
255	255	255	
255	255	255	
255	255	255	
255	255	255	
255	255	255	
255	255	255	
255	255	255	
255	255	255	
255	255	255	
255	255	255	
255	255	255	
255	255	255	
255	255	255	
255	255	255	
255	255	255	
255	255	255	
255	255	255	
255	255	255	
255	255	255	
255	255	255	
255	255	255	
255	255	255	
255	255	255	
255	255	255	
255	255	255	
255	255	255	
255	255	255	
255	255	255	
255	255	255	
255	255	255	
255	255	255	
255	255	255	
255	255	255	
255	255	255	
255	255	255	
255	255	255	
255	255	255	
255	255	255	
255	255	255	
255	255	255	
255	255	255	
255	255	255	
255	255	255	
255	255	255	
255	255	255	
255	255	255	
255	255	255	
255	255	255	
255	255	255	
255	255	255	
255	255	255	
255	255	255	
255	255	255	
255	255	255	
255	255	255	
255	255	255	
255	255	255	
255	255	255	
255	255	255	
255	255	255	
255	255	255	
255	255	255	
255	255	255	
255	255	255	
255	255	255	
255	255	255	
255	255	255	
255	255	255	
255	255	255	
255	255	255	
255	255	255	
255	255	255	
255	255	255	
255	255	255	
255	255	255	
255	255	255	
255	255	255	
255	255	255	
255	255	255	
255	255	255	
255	255	255	
255	255	255	
255	255	255	
255	255	255	
255	255	255	
255	255	255	
255	255	255	
255	255	255	
255	255	255	
255	255	255	
255	255	255	
255	255	255	
255	255	255	
255	255	255	
255	255	255	
255	255	255	
255	255	255	
255	255	255	
255	255	255	
255	255	255	
255	255	255	
255	255	255	
255	255	255	
255	255	255	
255	255	255	
255	255	255	
255	255	255	
255	255	255	
255	255	255	
255	255	255	
255	255	255	
255	255	255	
255	255	255	
255	255	255	
255	255	255	
255	255	255	
255	255	255	
255	255	255	
255	255	255	
255	255	255	
255	255	255	
255	255	255	
255	255	255	
255	255	255	
255	255	255	
255	255	255	
255	255	255	
255	255	255	
255	255	255	
255	255	255	
255	255	255	
255	255	255	
255	255	255	
255	255	255	
255	255	255	
255	255	255	
255	255	255	
255	255	255	
255	255	255	
255	255	255	
255	255	255	
255	255	255	
255	255	255	
255	255	255	
255	255	255	
255	255	255	
255	255	255	
255	255	255	
255	255	255	
255	255	255	
255	255	255	
255	255	255	
255	255	255	
255	255	255	
255	255	255	
255	255	255	
255	255	255	
255	255	255	
255	255	255	
255	255	255	
255	255	255	
255	255	255	
255	255	255	
255	255	255	
255	255	255	
255	255	255	
255	255	255	
255	255	255	
255	255	255	
255	255	255	
255	255	255	
255	255	255	
255	255	255	
255	255	255	
255	255	255	
255	255	255	
255	255	255	
255	255	255	
255	255	255	
255	255	255	
255	255	255	
255	255	255	
255	255	255	
255	255	255	
255	255	255	
255	255	255	
255	255	255	
255	255	255	
255	255	255	
255	255	255	
255	255	255	
255	255	255	
255	255	255	
255	255	255	
255	255	255	
255	255	255	
255	255	255	
255	255	255	
255	255	255	
255	255	255	
255	255	255	
255	255	255	
255	255	255	
255	255	255	
255	255	255	
255	255	255	
255	255	255	
255	255	255	
255	255	255	
255	255	255	
255	255	255	
255	255	255	
255	255	255	
255	255	255	
255	255	255	
255	255	255	
255	255	255	
255	255	255	
255	255	255	
255	255	255	
255	255	255	
255	255	255	
255	255	255	
255	255	255	
255	255	255	
255	255	255	
255	255	255	
255	255	255	
255	255	255	
255	255	255	
255	255	255	
255	255	255	
255	255	255	
255	255	255	
255	255	255	
255	255	255	
255	255	255	
255	255	255	
255	255	255	
255	255	255	
255	255	255	
255	255	255	
255	255	255	
255	255	255	
255	255	255	
255	255	255	
255	255	255	
255	255	255	
255	255	255	
255	255	255	
255	255	255	
255	255	255	
255	255	255	
255	255	255	
255	255	255	
255	255	255	
255	255	255	
255	255	255	
255	255	255	
255	255	255	
255	255	255	
255	255	255	
255	255	255	
255	255	255	
255	255	255	
255	255	255	
255	255	255	
255	255	255	
255	255	255	
255	255	255	
255	255	255	
255	255	255	
255	255	255	
255	255	255	
255	255	255	
255	255	255	
255	255	255	
255	255	255	
255	255	255	
255	255	255	
255	255	255	
255	255	255	
255	255	255	
255	255	255	
255	255	255	
255	255	255	
255	255	255	
255	255	255	
255	255	255	
255	255	255	
255	255	255	
255	255	255	
255	255	255	
255	255	255	
255	255	255	
255	255	255	
255	255	255	
255	255	255	
255	255	255	
255	255	255	
255	255	255	
255	255	255	
255	255	255	
255	255	255	
255	255	255	
255	255	255	
255	255	255	
255	255	255	
255	255	255	
255	255	255	
255	255	255	
255	255	255	
255	255	255	
255	255	255	
255	255	255	
255	255	255	
255	255	255	
255	255	255	
255	255	255	
255	255	255	
255	255	255	
255	255	255	
255	255	255	
255	255	255	
255	255	255	
255	255	255	
255	255	255	
255	255	255	
255	255	255	
255	255	255	
255	255	255	
255	255	255	
255	255	255	
255	255	255	
255	255	255	
255	255	255	
255	255	255	
255	255	255	
255	255	255	
255	255	255	
255	255	255	
255	255	255	
255	255	255	
255	255	255	
255	255	255	
255	255	255	
255	255	255	
255	255	255	
255	255	255	
255	255	255	
255	255	255	
255	255	255	
255	255	255	
255	255	255	
255	255	255	
255	255	255	
255	255	255	
255	255	255	
255	255	255	
255	255	255	
255	255	255	
255	255	255	
255	255	255	
255	255	255	
255	255	255	
255	255	255	
255	255	255	
255	255	255	
255	255	255	
255	255	255	
255	255	255	
255	255	255	
255	255	255	
255	255	255	
255	255	255	
255	255	255	
255	255	255	
255	255	255	
255	255	255	
255	255	255	
255	255	255	
255	255	255	
255	255	255	
255	255	255	
255	255	255	
255	255	255	
255	255	255	
255	255	255	
255	255	255	
255	255	255	
255	255	255	
255	255	255	
255	255	255	
255	255	255	
255	255	255	
255	255	255	
255	255	255	
255	255	255	
255	255	255	
255	255	255	
255	255	255	
255	255	255	
255	255	255	
255	255	255	
255	255	255	
255	255	255	
255	255	255	
255	255	255	
255	255	255	
255	255	255	
255	255	255	
255	255	255	
255	255	255	
255	255	255	
255	255	255	
255	255	255	
255	255	255	
255	255	255	
255	255	255	
255	255	255	
255	255	255	
255	255	255	
255	255	255	
255	255	255	
255	255	255	
255	255	255	
255	255	255	
255	255	255	
255	255	255	
255	255	255	
255	255	255	
255	255	255	
255	255	255	
255	255	255	
255	255	255	
255	255	255	
255	255	255	
255	255	255	
255	255	255	
255	255	255	
255	255	255	
255	255	255	
255	255	255	
255	255	255	
255	255	255	
255	255	255	
255	255	255	
255	255	255	
255	255	255	
255	255	255	
255	255	255	
255	255	255	
255	255	255	
255	255	255	
255	255	255	
255	255	255	
255	255	255	
255	255	255	
255	255	255	
255	255	255	
255	255	255	
255	255	255	
255	255	255	
255	255	255	
255	255	255	
255	255	255	
255	255	255	
255	255	255	
255	255	255	
255	255	255	
255	255	255	
255	255	255	
255	255	255	
255	255	255	
255	255	255	
255	255	255	
255	255	255	
255	255	255	
255	255	255	
255	255	255	
255	255	255	
255	255	255	
255	255	255	
255	255	255	
255	255	255	
255	255	255	
255	255	255	
255	255	255	
255	255	255	
255	255	255	
255	255	255	
255	255	255	
255	255	255	
255	255	255	
255	255	255	
255	255	255	
255	255	255	
255	255	255	
255	255	255	
255	255	255	
255	255	255	
255	255	255	
255	255	255	
255	255	255	
255	255	255	
255	255	255	
255	255	255	
255	255	255	
255	255	255	
255	255	255	
255	255	255	
255	255	255	
255	255	255	
255	255	255	
255	255	255	
255	255	255	
255	255	255	
255	255	255	
255	255	255	
255	255	255	
255	255	255	
255	255	255	
255	255	255	
255	255	255	
255	255	255	
255	255	255	
255	255	255	
255	255	255	
255	255	255	
255	255	255	
255	255	255	
255	255	255	
255	255	255	
255	255	255	
255	255	255	
255	255	255	
255	255	255	
255	255	255	
255	255	255	
255	255	255	
255	255	255	
255	255	255	
255	255	255	
255	255	255	
255	255	255	
255	255	255	
255	255	255	
255	255	255	
255	255	255	
255	255	255	
255	255	255	
255	255	255	
255	255	255	
255	255	255	
255	255	255	
255	255	255	
255	255	255	
255	255	255	
255	255	255	
255	255	255	
255	255	255	
255	255	255	
255	255	255	
255	255	255	
255	255	255	
255	255	255	
255	255	255	
255	255	255	
255	255	255	
255	255	255	
255	255	255	
255	255	255	
255	255	255	
255	255	255	
255	255	255	
255	255	255	
255	255	255	
255	255	255	
255	255	255	
255	255	255	
255	255	255	
255	255	255	
255	255	255	
255	255	255	
255	255	255	
255	255	255	
255	255	255	
255	255	255	
255	255	255	
255	255	255	
255	255	255	
255	255	255	
255	255	255	
255	255	255	
255	255	255	
255	255	255	
255	255	255	
255	255	255	
255	255	255	
255	255	255	
255	255	255	
255	255	255	
255	255	255	
255	255	255	
255	255	255	
255	255	255	
255	255	255	
255	255	255	
255	255	255	
255	255	255	
255	255	255	
255	255	255	
255	255	255	
255	255	255	
255	255	255	
255	255	255	
255	255	255	
255	255	255	
255	255	255	
255	255	255	
255	255	255	
255	255	255	
255	255	255	
255	255	255	
255	255	255	
255	255	255	
255	255	255	
255	255	255	
255	255	255	
255	255	255	
255	255	255	
255	255	255	
255	255	255	
255	255	255	
255	255	255	
255	255	255	
255	255	255	
255	255	255	
255	255	255	
255	255	255	
255	255	255	
255	255	255	
255	255	255	
255	255	255	
255	255	255	
255	255	255	
255	255	255	
255	255	255	
255	255	255	
255	255	255	
255	255	255	
255	255	255	
255	255	255	
255	255	255	
255	255	255	
255	255	255	
255	255	255	
255	255	255	
255	255	255	
255	255	255	
255	255	255	
255	255	255	
255	255	255	
255	255	255	
255	255	255	
255	255	255	
255	255	255	
255	255	255	
255	255	255	
255	255	255	
255	255	255	
255	255	255	
255	255	255	
255	255	255	
255	255	255	
255	255	255	
255	255	255	
255	255	255	
255	255	255	
255	255	255	
255	255	255	
255	255	255	
255	255	255	
255	255	255	
255	255	255	
255	255	255	
255	255	255	
255	255	255	
255	255	255	
255	255	255	
255	255	255	
255	255	255	
255	255	255	
255	255	255	
255	255	255	
255	255	255	
255	255	255	
255	255	255	
255	255	255	
255	255	255	
255	255	255	
255	255	255	
255	255	255	
255	255	255	
255	255	255	
255	255	255	
255	255	255	
255	255	255	
255	255	255	
255	255	255	
255	255	255	
255	255	255	
255	255	255	
255	255	255	
255	255	255	
255	255	255	
255	255	255	
255	255	255	
255	255	255	
255	255	255	
255	255	255	
255	255	255	
255	255	255	
255	255	255	
255	255	255	
255	255	255	
255	255	255	
255	255	255	
255	255	255	
255	255	255	
255	255	255	
255	255	255	
255	255	255	
255	255	255	
255	255	255	
255	255	255	
255	255	255	
255	255	255	
255	255	255	
255	255	255	
255	255	255	
255	255	255	
255	255	255	
255	255	255	
255	255	255	
255	255	255	
255	255	255	
255	255	255	
255	255	255	
255	255	255	
255	255	255	
255	255	255	
255	255	255	
255	255	255	
255	255	255	
255	255	255	
255	255	255	
255	255	255	
255	255	255	
255	255	255	
255	255	255	
255	255	255	
255	255	255	
255	255	255	
255	255	255	
255	255	255	
255	255	255	
255	255	255	
255	255	255	
255	255	255	
255	255	255	
255	255	255	
255	255	255	
255	255	255	
255	255	255	
255	255	255	
255	255	255	
255	255	255	
255	255	255	
255	255	255	
255	255	255	
255	255	255	
255	255	255	
255	255	255	
255	255	255	
255	255	255	
255	255	255	
255	255	255	
255	255	255	
255	255	255	
255	255	255	
255	255	255	
255	255	255	
255	255	255	
255	255	255	
255	255	255	
255	255	255	
255	255	255	
255	255	255	
255	255	255	
255	255	255	
255	255	255	
255	255	255	
255	255	255	
255	255	255	
255	255	255	
255	255	255	
255	255	255	
255	255	255	
255	255	255	
255	255	255	
255	255	255	
255	255	255	
255	255	255	
255	255	255	
255	255	255	
255	255	255	
255	255	255	
255	255	255	
255	255	255	
255	255	255	
255	255	255	
255	255	255	
255	255	255	
255	255	255	
255	255	255	
255	255	255	
255	255	255	
255	255	255	
255	255	255	
255	255	255	
255	255	255	
255	255	255	
255	255	255	
255	255	255	
255	255	255	
255	255	255	
255	255	255	
255	255	255	
255	255	255	
255	255	255	
255	255	255	
255	255	255	
255	255	255	
255	255	255	
255	255	255	
255	255	255	
255	255	255	
255	255	255	
255	255	255	
255	255	255	
255	255	255	
255	255	255	
255	255	255	
255	255	255	
255	255	255	
255	255	255	
255	255	255	
255	255	255	
255	255	255	
255	255	255	
255	255	255	
255	255	255	
255	255	255	
255	255	255	
255	255	255	
255	255	255	
255	255	255	
255	255	255	
255	255	255	
255	255	255	
255	255	255	
255	255	255	
255	255	255	
255	255	255	
255	255	255	
255	255	255	
255	255	255	
255	255	255	
255	255	255	
255	255	255	
255	255	255	
255	255	255	
255	255	255	
255	255	255	
255	255	255	
255	255	255	
255	255	255	
255	255	255	
255	255	255	
255	255	255	
255	255	255	
255	255	255	
255	255	255	
255	255	255	
255	255	255	
255	255	255	
255	255	255	
255	255	255	
255	255	255	
255	255	255	
255	255	255	
255	255	255	
255	255	255	
255	255	255	
255	255	255	
255	255	255	
255	255	255	
255	255	255	
255	255	255	
255	255	255	
255	255	255	
255	255	255	
255	255	255	
255	255	255	
255	255	255	
255	255	255	
255	255	255	
255	255	255	
255	255	255	
255	255	255	
255	255	255	
255	255	255	
255	255	255	
255	255	255	
255	255	255	
255	255	255	
255	255	255	
255	255	255	
255	255	255	
255	255	255	
255	255	255	
255	255	255	
255	255	255	
255	255	255	
255	255	255	
255	255	255	
255	255	255	
255	255	255	
255	255	255	
255	255	255	
255	255	255	
255	255	255	
255	255	255	
255	255	255	
255	255	255	
255	255	255	
255	255	255	
255	255	255	
255	255	255	
255	255	255	
255	255	255	
255	255	255	
255	255	255	
255	255	255	
255	255	255	
255	255	255	
255	255	255	
255	255	255	
255	255	255	
255	255	255	
255	255	255	
255	255	255	
255	255	255	
255	255	255	
255	255	255	
255	255	255	
255	255	255	
255	255	255	
255	255	255	
255	255	255	
255	255	255	
255	255	255	
255	255	255	
255	255	255	
255	255	255	
255	255	255	
255	255	255	
255	255	255	
255	255	255	
255	255	255	
255	255	255	
255	255	255	
255	255	255	
255	255	255	
255	255	255	
255	255	255	
255	255	255	
255	255	255	
255	255	255	
255	255	255	
255	255	255	
255	255	255	
255	255	255	
255	255	255	
255	255	255	
255	255	255	
255	255	255	
255	255	255	
255	255	255	
255	255	255	
255	255	255	
255	255	255	
255	255	255	
255	255	255	
255	255	255	
255	255	255	
255	255	255	
255	255	255	
255	255	255	
255	255	255	
255	255	255	
255	255	255	
255	255	255	
255	255	255	
255	255	255	
255	255	255	
255	255	255	
255	255	255	
255	255	255	
255	255	255	
255	255	255	
255	255	255	
255	255	255	
255	255	255	
255	255	255	
255	255	255	
255	255	255	
255	255	255	
255	255	255	
255	255	255	
255	255	255	
255	255	255	
255	255	255	
255	255	255	
255	255	255	
255	255	255	
255	255	255	
255	255	255	
255	255	255	
255	255	255	
255	255	255	
255	255	255	
255	255	255	
255	255	255	
255	255	255	
255	255	255	
255	255	255	
255	255	255	
255	255	255	
255	255	255	
255	255	255	
255	255	255	
255	255	255	
255	255	255	
255	255	255	
255	255	255	
255	255	255	
255	255	255	
255	255	255	
255	255	255	
255	255	255	
255	255	255	
255	255	255	
255	255	255	
255	255	255	
255	255	255	
255	255	255	
255	255	255	
255	255	255	
255	255	255	
255	255	255	
255	255	255	
255	255	255	
255	255	255	
255	255	255	
255	255	255	
255	255	255	
255	255	255	
255	255	255	
255	255	255	
255	255	255	
255	255	255	
255	255	255	
255	255	255	
255	255	255	
255	255	255	
255	255	255	
255	255	255	
255	255	255	
255	255	255	
255	255	255	
255	255	255	
255	255	255	
255	255	255	
255	255	255	
255	255	255	
255	255	255	
255	255	255	
255	255	255	
255	255	255	
255	255	255	
255	255	255	
255	255	255	
255	255	255	
255	255	255	
255	255	255	
255	255	255	
255	255	255	
255	255	255	
255	255	255	
255	255	255	
255	255	255	
255	255	255	
255	255	255	
255	255	255	
255	255	255	
255	255	255	
255	255	255	
255	255	255	
255	255	255	
255	255	255	
255	255	255	
255	255	255	
255	255	255	
255	255	255	
255	255	255	
255	255	255	
255	255	255	
255	255	255	
255	255	255	
255	255	255	
255	255	255	
255	255	255	
255	255	255	
255	255	255	
255	255	255	
255	255	255	
255	255	255	
255	255	255	
255	255	255	
255	255	255	
255	255	255	
255	255	255	
255	255	255	
255	255	255	
255	255	255	
255	255	255	
255	255	255	
255	255	255	
255	255	255	
255	255	255	
255	255	255	
255	255	255	
255	255	255	
255	255	255	
255	255	255	
255	255	255	
255	255	255	
255	255	255	
255	255	255	
255	255	255	
255	255	255	
255	255	255	
255	255	255	
255	255	255	
255	255	255	
255	255	255	
255	255	255	
255	255	255	
255	255	255	
255	255	255	
255	255	255	
255	255	255	
255	255	255	
255	255	255	
255	255	255	
255	255	255	
255	255	255	
255	255	255	
255	255	255	
255	255	255	
255	255	255	
255	255	255	
255	255	255	
255	255	255	
255	255	255	
255	255	255	
255	255	255	
255	255	255	
255	255	255	
255	255	255	
255	255	255	
255	255	255	
255	255	255	
255	255	255	
255	255	255	
255	255	255	
255	255	255	
255	255	255	
255	255	255	
255	255	255	
255	255	255	
255	255	255	
255	255	255	
255	255	255	
255	255	255	
255	255	255	
255	255	255	
255	255	255	
255	255	255	
255	255	255	
255	255	255	
255	255	255	
255	255	255	
255	255	255	
255	255	255	
255	255	255	
255	255	255	
255	255	255	
255	255	255	
255	255	255	
255	255	255	
255	255	255	
255	255	255	
255	255	255	
255	255	255	
255	255	255	
255	255	255	
255	255	255	
255	255	255	
255	255	255	
255	255	255	
255	255	255	
255	255	255	
255	255	255	
255	255	255	
255	255	255	
255	255	255	
255	255	255	
255	255	255	
255	255	255	
255	255	255	
255	255	255	
255	255	255	
255	255	255	
255	255	255	
255	255	255	
255	255	255	
255	255	255	
255	255	255	
255	255	255	
255	255	255	
255	255	255	
255	255	255	
255	255	255	
255	255	255	
255	255	255	
255	255	255	
255	255	255	
255	255	255	
255	255	255	
255	255	255	
255	255	255	
255	255	255	
255	255	255	
255	255	255	
255	255	255	
255	255	255	
255	255	255	
255	255	255	
255	255	255	
255	255	255	
255	255	255	
255	255	255	
255	255	255	
255	255	255	
255	255	255	
255	255	255	
255	255	255	
255	255	255	
255	255	255	
255	255	255	
255	255	255	
255	255	255	
255	255	255	
255	255	255	
255	255	255	
255	255	255	
255	255	255	
255	255	255	
255	255	255	
255	255	255	
255	255	255	
255	255	255	
255	255	255	
255	255	255	
255	255	255	
255	255	255	
255	255	255	
255	255	255	
255	255	255	
255	255	255	
255	255	255	
255	255	255	
255	255	255	
255	255	255	
255	255	255	
255	255	255	
255	255	255	
255	255	255	
255	255	255	
255	255	255	
255	255	255	
255	255	255	
255	255	255	
255	255	255	
255	255	255	
255	255	255	
255	255	255	
255	255	255	
255	255	255	
255	255	255	
255	255	255	
255	255	255	
255	255	255	
255	255	255	
255	255	255	
255	255	255	
255	255	255	
255	255	255	
255	255	255	
255	255	255	
255	255	255	
255	255	255	
255	255	255	
255	255	255	
255	255	255	
255	255	255	
255	255	255	
255	255	255	
255	255	255	
255	255	255	
255	255	255	
255	255	255	
255	255	255	
255	255	255	
255	255	255	
255	255	255	
255	255	255	
255	255	255	
255	255	255	
255	255	255	
255	255	255	
255	255	255	
255	255	255	
255	255	255	
255	255	255	
255	255	255	
255	255	255	
255	255	255	
255	255	255	
255	255	255	
255	255	255	
255	255	255	
255	255	255	
255	255	255	
255	255	255	
255	255	255	
255	255	255	
255	255	255	
255	255	255	
255	255	255	
255	255	255	
255	255	255	
255	255	255	
255	255	255	
255	255	255	
255	255	255	
255	255	255	
255	255	255	
255	255	255	
255	255	255	
255	255	255	
255	255	255	
255	255	255	
255	255	255	
255	255	255	
255	255	255	
255	255	255	
255	255	255	
255	255	255	
255	255	255	
255	255	255	
255	255	255	
255	255	255	
255	255	255	
255	255	255	
255	255	255	
255	255	255	
255	255	255	
255	255	255	
255	255	255	
255	255	255	
255	255	255	
255	255	255	
255	255	255	
255	255	255	
255	255	255	
255	255	255	
255	255	255	
255	255	255	
255	255	255	
255	255	255	
255	255	255	
255	255	255	
255	255	255	
255	255	255	
255	255	255	
255	255	255	
255	255	255	
255	255	255	
255	255	255	
255	255	255	
255	255	255	
255	255	255	
255	255	255	
255	255	255	
255	255	255	
255	255	255	
255	255	255	
255	255	255	
255	255	255	
255	255	255	
255	255	255	
255	255	255	
255	255	255	
255	255	255	
255	255	255	
255	255	255	
255	255	255	
255	255	255	
255	255	255	
255	255	255	
255	255	255	
255	255	255	
255	255	255	
255	255	255	
255	255	255	
255	255	255	
255	255	255	
255	255	255	
255	255	255	
255	255	255	
255	255	255	
255	255	255	
255	255	255	
255	255	255	
255	255	255	
255	255	255	
255	255	255	
255	255	255	
255	255	255	
255	255	255	
255	255	255	
255	255	255	
255	255	255	
255	255	255	
255	255	255	
255	255	255	
255	255	255	
255	255	255	
255	255	255	
255	255	255	
255	255	255	
255	255	255	
255	255	255	
255	255	255	
255	255	255	
255	255	255	
255	255	255	
255	255	255	
255	255	255	
255	255	255	
255	255	255	
255	255	255	
255	255	255	
255	255	255	
255	255	255	
255	255	255	
255	255	255	
255	255	255	
255	255	255	
255	255	255	
255	255	255	
255	255	255	
255	255	255	
255	255	255	
255	255	255	
255	255	255	
255	255	255	
255	255	255	
255	255	255	
255	255	255	
255	255	255	
255	255	255	
255	255	255	
255	255	255	
255	255	255	
255	255	255	
255	255	255	
255	255	255	
255	255	255	
255	255	255	
255	255	255	
255	255	255	
255	255	255	
255	255	255	
255	255	255	
255	255	255	
255	255	255	
255	255	255	
255	255	255	
255	255	255	
255	255	255	
255	255	255	
255	255	255	
255	255	255	
255	255	255	
255	255	255	
255	255	255	
255	255	255	
255	255	255	
255	255	255	
255	255	255	
255	255	255	
255	255	255	
255	255	255	
255	255	255	
255	255	255	
255	255	255	
255	255	255	
255	255	255	
255	255	255	
255	255	255	
255	255	255	
255	255	255	
255	255	255	
255	255	255	
255	255	255	
255	255	255	
255	255	255	
255	255	255	
255	255	255	
255	255	255	
255	255	255	
255	255	255	
255	255	255	
255	255	255	
255	255	255	
255	255	255	
255	255	255	
255	255	255	
255	255	255	
255	255	255	
255	255	255	
255	255	255	
255	255	255	
255	255	255	
255	255	255	
255	255	255	
255	255	255	
255	255	255	
255	255	255	
255	255	255	
255	255	255	
255	255	255	
255	255	255	
255	255	255	
255	255	255	
255	255	255	
255	255	255	
255	255	255	
255	255	255	
255	255	255	
255	255	255	
255	255	255	
255	255	255	
255	255	255	
255	255	255	
255	255	255	
255	255	255	
255	255	255	
255	255	255	
255	255	255	
255	255	255	
255	255	255	
255	255	255	
255	255	255	
255	255	255	
255	255	255	
255	255	255	
255	255	255	
255	255	255	
255	255	255	
255	255	255	
255	255	255	
255	255	255	
255	255	255	
255	255	255	
255	255	255	
255	255	255	
255	255	255	
255	255	255	
255	255	255	
255	255	255	
255	255	255	
255	255	255	
255	255	255	
255	255	255	
255	255	255	
255	255	255	
255	255	255	
255	255	255	
255	255	255	
255	255	255	
255	255	255	
255	255	255	
255	255	255	
255	255	255	
255	255	255	
255	255	255	
255	255	255	
255	255	255	
255	255	255	
255	255	255	
255	255	255	
255	255	255	
255	255	255	
255	255	255	
255	255	255	
255	255	255	
255	255	255	
255	255	255	
255	255	255	
255	255	255	
255	255	255	
255	255	255	
255	255	255	
255	255	255	
255	255	255	
255	255	255	
255	255	255	
255	255	255	
255	255	255	
255	255	255	
255	255	255	
255	255	255	
255	255	255	
255	255	255	
255	255	255	
255	255	255	
255	255	255	
255	255	255	
255	255	255	
255	255	255	
255	255	255	
255	255	255	
255	255	255	
255	255	255	
255	255	255	
255	255	255	
255	255	255	
255	255	255	
255	255	255	
255	255	255	
255	255	255	
255	255	255	
255	255	255	
255	255	255	
255	255	255	
255	255	255	
255	255	255	
255	255	255	
255	255	255	
255	255	255	
255	255	255	
255	255	255	
255	255	255	
255	255	255	
255	255	255	
255	255	255	
255	255	255	
255	255	255	
255	255	255	
255	255	255	
255	255	255	
255	255	255	
255	255	255	
255	255	255	
255	255	255	
255	255	255	
255	255	255	
255	255	255	
255	255	255	
255	255	255	
255	255	255	
255	255	255	
255	255	255	
255	255	255	
255	255	255	
255	255	255	
255	255	255	
255	255	255	
255	255	255	
255	255	255	
255	255	255	
255	255	255	
255	255	255	
255	255	255	
255	255	255	
255	255	255	
255	255	255	
255	255	255	
255	255	255	
255	255	255	
255	255	255	
255	255	255	
255	255	255	
255	255	255	
255	255	255	
255	255	255	
255	255	255	
255	255	255	
255	255	255	
255	255	255	
255	255	255	
255	255	255	
255	255	255	
255	255	255	
255	255	255	
255	255	255	
255	255	255	
255	255	255	
255	255	255	
255	255	255	
255	255	255	
255	255	255	
255	255	255	
255	255	255	
255	255	255	
255	255	255	
255	255	255	
255	255	255	
255	255	255	
255	255	255	
255	255	255	
255	255	255	
255	255	255	
255	255	255	
255	255	255	
255	255	255	
255	255	255	
255	255	255	
255	255	255	
255	255	255	
255	255	255	
255	255	255	
255	255	255	
255	255	255	
255	255	255	
255	255	255	
255	255	255	
255	255	255	
255	255	255	
255	255	255	
255	255	255	
255	255	255	
255	255	255	
255	255	255	
255	255	255	
255	255	255	
255	255	255	
255	255	255	
255	255	255	
255	255	255	
255	255	255	
255	255	255	
255	255	255	
255	255	255	
255	255	255	
255	255	255	
255	255	255	
255	255	255	
255	255	255	
255	255	255	
255	255	255	
255	255	255	
255	255	255	
255	255	255	
255	255	255	
255	255	255	
255	255	255	
255	255	255	
255	255	255	
255	255	255	
255	255	255	
255	255	255	
255	255	255	
255	255	255	
255	255	255	
255	255	255	
255	255	255	
255	255	255	
255	255	255	
255	255	255	
255	255	255	
255	255	255	
255	255	255	
255	255	255	
255	255	255	
255	255	255	
255	255	255	
255	255	255	
255	255	255	
255	255	255	
255	255	255	
255	255	255	
255	255	255	
255	255	255	
255	255	255	
255	255	255	
255	255	255	
255	255	255	
255	255	255	
255	255	255	
255	255	255	
255	255	255	
255	255	255	
255	255	255	
255	255	255	
255	255	255	
255	255	255	
255	255	255	
255	255	255	
255	255	255	
255	255	255	
255	255	255	
255	255	255	
255	255	255	
255	255	255	
255	255	255	
255	255	255	
255	255	255	
255	255	255	
255	255	255	
255	255	255	
255	255	255	
255	255	255	
255	255	255	
255	255	255	
255	255	255	
255	255	255	
255	255	255	
255	255	255	
255	255	255	
255	255	255	
255	255	255	
255	255	255	
255	255	255	
255	255	255	
255	255	255	
255	255	255	
255	255	255	
255	255	255	
255	255	255	
255	255	255	
255	255	255	
255	255	255	
255	255	255	
255	255	255	
255	255	255	
255	255	255	
255	255	255	
255	255	255	
255	255	255	
255	255	255	
255	255	255	
255	255	255	
255	255	255	
255	255	255	
255	255	255	
255	255	255	
255	255	255	
255	255	255	
255	255	255	
255	255	255	
255	255	255	
255	255	255	
255	255	255	
255	255	255	
255	255	255	
255	255	255	
255	255	255	
255	255	255	
255	255	255	
255	255	255	
255	255	255	
255	255	255	
255	255	255	
255	255	255	
255	255	255	
255	255	255	
255	255	255	
255	255	255	
255	255	255	
255	255	255	
255	255	255	
255	255	255	
255	255	255	
255	255	255	
255	255	255	
255	255	255	
255	255	255	
255	255	255	
255	255	255	
255	255	255	
255	255	255	
255	255	255	
255	255	255	
255	255	255	
255	255	255	
255	255	255	
255	255	255	
255	255	255	
255	255	255	
255	255	255	
255	255	255	
255	255	255	
255	255	255	
255	255	255	
255	255	255	
255	255	255	
255	255	255	
255	255	255	
255	255	255	
255	255	255	
255	255	255	
255	255	255	
255	255	255	
255	255	255	
255	255	255	
255	255	255	
255	255	255	
255	255	255	
255	255	255	
255	255	255	
255	255	255	
255	255	255	
255	255	255	
255	255	255	
255	255	255	
255	255	255	
255	255	255	
255	255	255	
255	255	255	
255	255	255	
255	255	255	
255	255	255	
255	255	255	
255	255	255	
255	255	255	
255	255	255	
255	255	255	
255	255	255	
255	255	255	
255	255	255	
255	255	255	
255	255	255	
255	255	255	
255	255	255	
255	255	255	
255	255	255	
255	255	255	
255	255	255	
255	255	255	
255	255	255	
255	255	255	
255	255	255	
255	255	255	
255	255	255	
255	255	255	
255	255	255	
255	255	255	
255	255	255	
255	255	255	
255	255	255	
255	255	255	
255	255	255	
255	255	255	
255	255	255	
255	255	255	
255	255	255	
255	255	255	
255	255	255	
255	255	255	
255	255	255	
255	255	255	
255	255	255	
255	255	255	
255	255	255	
255	255	255	
255	255	255	
255	255	255	
255	255	255	
255	255	255	
255	255	255	
255	255	255	
255	255	255	
255	255	255	
255	255	255	
255	255	255	
255	255	255	
255	255	255	
255	255	255	
255	255	255	
255	255	255	
255	255	255	
255	255	255	
255	255	255	
255	255	255	
255	255	255	
255	255	255	
255	255	255	
255	255	255	
255	255	255	
255	255	255	
255	255	255	
255	255	255	
255	255	255	
255	255	255	
255	255	255	
255	255	255	
255	255	255	
255	255	255	
255	255	255	
255	255	255	
255	255	255	
255	255	255	
255	255	255	
255	255	255	
255	255	255	
255	255	255	
255	255	255	
255	255	255	
255	255	255	
255	255	255	
255	255	255	
255	255	255	
255	255	255	
255	255	255	
255	255	255	
255	255	255	
255	255	255	
255	255	255	
255	255	255	
255	255	255	
255	255	255	
255	255	255	
255	255	255	
255	255	255	
255	255	255	
255	255	255	
255	255	255	
255	255	255	
255	255	255	
255	255	255	
255	255	255	
255	255	255	
255	255	255	
255	255	255	
255	255	255	
255	255	255	
255	255	255	
255	255	255	
255	255	255	
255	255	255	
255	255	255	
255	255	255	
255	255	255	
255	255	255	
255	255	255	
255	255	255	
255	255	255	
255	255	255	
255	255	255	
255	255	255	
255	255	255	
255	255	255	
255	255	255	
255	255	255	
255	255	255	
255	255	255	
255	255	255	
255	255	255	
255	255	255	
255	255	255	
255	255	255	
255	255	255	
255	255	255	
255	255	255	
255	255	255	
255	255	255	
255	255	255	
255	255	255	
255	255	255	
255	255	255	
255	255	255	
255	255	255	
255	255	255	
255	255	255	
255	255	255	
255	255	255	
255	255	255	
255	255	255	
255	255	255	
255	255	255	
255	255	255	
255	255	255	
255	255	255	
255	255	255	
255	255	255	
255	255	255	
255	255	255	
255	255	255	
255	255	255	
255	255	255	
255	255	255	
255	255	255	
255	255	255	
255	255	255	
255	255	255	
255	255	255	
255	255	255	
255	255	255	
255	255	255	
255	255	255	
255	255	255	
255	255	255	
255	255	255	
255	255	255	
255	255	255	
255	255	255	
255	255	255	
255	255	255	
255	255	255	
255	255	255	
255	255	255	
255	255	255	
255	255	255	
255	255	255	
255	255	255	
255	255	255	
255	255	255	
255	255	255	
255	255	255	
255	255	255	
255	255	255	
255	255	255	
255	255	255	
255	255	255	
255	255	255	
255	255	255	
255	255	255	
255	255	255	
255	255	255	
255	255	255	
255	255	255	
255	255	255	
255	255	255	
255	255	255	
255	255	255	
255	255	255	
255	255	255	
255	255	255	
255	255	255	
255	255	255	
255	255	255	
255	255	255	
255	255	255	
255	255	255	
255	255	255	
255	255	255	
255	255	255	
255	255	255	
255	255	255	
255	255	255	
255	255	255	
255	255	255	
255	255	255	
255	255	255	
255	255	255	
255	255	255	
255	255	255	
255	255	255	
255	255	255	
255	255	255	
255	255	255	
255	255	255	
255	255	255	
255	255	255	
255	255	255	
255	255	255	
255	255	255	
255	255	255	
255	255	255	
255	255	255	
255	255	255	
255	255	255	
255	255	255	
255	255	255	
255	255	255	
255	255	255	
255	255	255	
255	255	255	
255	255	255	
255	255	255	
255	255	255	
255	255	255	
255	255	255	
255	255	255	
255	255	255	
255	255	255	
255	255	255	
255	255	255	
255	255	255	
255	255	255	
255	255	255	
255	255	255	
255	255	255	
255	255	255	
255	255	255	
255	255	255	
255	255	255	
255	255	255	
255	255	255	
255	255	255	
255	255	255	
255	255	255	
255	255	255	
255	255	255	
255	255	255	
255	255	255	
255	255	255	
255	255	255	
255	255	255	
255	255	255	
255	255	255	
255	255	255	
255	255	255	
255	255	255	
255	255	255	
255	255	255	
255	255	255	
255	255	255	
255	255	255	
255	255	255	
255	255	255	
255	255	255	
255	255	255	
255	255	255	
255	255	255	
255	255	255	
255	255	255	
255	255	255	
255	255	255	
255	255	255	
255	255	255	
255	255	255	
255	255	255	
255	255	255	
255	255	255	
255	255	255	
255	255	255	
255	255	255	
255	255	255	
255	255	255	
255	255	255	
255	255	255	
255	255	255	
255	255	255	
255	255	255	
255	255	255	
255	255	255	
255	255	255	
255	255	255	
255	255	255	
255	255	255	
255	255	255	
255	255	255	
255	255	255	
255	255	255	
255	255	255	
255	255	255	
255	255	255	
255	255	255	
255	255	255	
255	255	255	
255	255	255	
255	255	255	
255	255	255	
255	255	255	
255	255	255	
255	255	255	
255	255	255	
255	255	255	
255	255	255	
255	255	255	
255	255	255	
255	255	255	
255	255	255	
255	255	255	
255	255	255	
255	255	255	
255	255	255	
255	255	255	
255	255	255	
255	255	255	
255	255	255	
255	255	255	
255	255	255	
255	255	255	
255	255	255	
255	255	255	
255	255	255	
255	255	255	
255	255	255	
255	255	255	
255	255	255	
255	255	255	
255	255	255	
255	255	255	
255	255	255	
255	255	255	
255	255	255	
255	255	255	
255	255	255	
255	255	255	
255	255	255	
255	255	255	
255	255	255	
255	255	255	
255	255	255	
255	255	255	
255	255	255	
255	255	255	
255	255	255	
255	255	255	
255	255	255	
255	255	255	
255	255	255	
255	255	255	
255	255	255	
255	255	255	
255	255	255	
255	255	255	
255	255	255	
255	255	255	
255	255	255	
255	255	255	
255	255	255	
255	255	255	
255	255	255	
255	255	255	
255	255	255	
255	255	255	
255	255	255	
255	255	255	
255	255	255	
255	255	255	
255	255	255	
255	255	255	
255	255	255	
255	255	255	
255	255	255	
255	255	255	
255	255	255	
255	255	255	
255	255	255	
255	255	255	
255	255	255	
255	255	255	
255	255	255	
255	255	255	
255	255	255	
255	255	255	
255	255	255	
255	255	255	
255	255	255	
255	255	255	
255	255	255	
255	255	255	
255	255	255	
255	255	255	
255	255	255	
255	255	255	
255	255	255	
255	255	255	
255	255	255	
255	255	255	
255	255	255	
255	255	255	
255	255	255	
255	255	255	
255	255	255	
255	255	255	
255	255	255	
255	255	255	
255	255	255	
255	255	255	
255	255	255	
255	255	255	
255	255	255	
255	255	255	
255	255	255	
255	255	255	
255	255	255	
255	255	255	
255	255	255	
255	255	255	
255	255	255	
255	255	255	
255	255	255	
255	255	255	
255	255	255	
255	255	255	
255	255	255	
255	255	255	
255	255	255	
255	255	255	
255	255	255	
255	255	255	
255	255	255	
255	255	255	
255	255	255	
255	255	255	
255	255	255	
255	255	255	
255	255	255	
255	255	255	
255	255	255	
255	255	255	
255	255	255	
255	255	255	
255	255	255	
255	255	255	
255	255	255	
255	255	255	
255	255	255	
255	255	255	
255	255	255	
255	255	255	
255	255	255	
255	255	255	
255	255	255	
255	255	255	
255	255	255	
255	255	255	
255	255	255	
255	255	255	
255	255	255	
255	255	255	
255	255	255	
255	255	255	
255	255	255	
255	255	255	
255	255	255	
255	255	255	
255	255	255	
255	255	255	
255	255	255	
255	255	255	
255	255	255	
255	255	255	
255	255	255	
255	255	255	
255	255	255	
255	255	255	
255	255	255	
255	255	255	
255	255	255	
255	255	255	
255	255	255	
255	255	255	
255	255	255	
255	255	255	
255	255	255	
255	255	255	
255	255	255	
255	255	255	
255	255	255	
255	255	255	
255	255	255	
255	255	255	
255	255	255	
255	255	255	
255	255	255	
255	255	255	
255	255	255	
255	255	255	
255	255	255	
255	255	255	
255	255	255	
255	255	255	
255	255	255	
255	255	255	
255	255	255	
255	255	255	
255	255	255	
255	255	255	
255	255	255	
255	255	255	
255	255	255	
255	255	255	
255	255	255	
255	255	255	
255	255	255	
255	255	255	
255	255	255	
255	255	255	
255	255	255	
255	255	255	
255	255	255	
255	255	255	
255	255	255	
255	255	255	
255	255	255	
255	255	255	
255	255	255	
255	255	255	
255	255	255	
255	255	255	
255	255	255	
255	255	255	
255	255	255	
255	255	255	
255	255	255	
255	255	255	
255	255	255	
255	255	255	
255	255	255	
255	255	255	
255	255	255	
255	255	255	
255	255	255	
255	255	255	
255	255	255	
255	255	255	
255	255	255	
255	255	255	
255	255	255	
255	255	255	
255	255	255	
255	255	255	
255	255	255	
255	255	255	
255	255	255	
255	255	255	
255	255	255	
255	255	255	
255	255	255	
255	255	255	
255	255	255	
255	255	255	
255	255	255	
255	255	255	
255	255	255	
255	255	255	
255	255	255	
255	255	255	
255	255	255	
255	255	255	
255	255	255	
255	255	255	
255	255	255	
255	255	255	
255	255	255	
255	255	255	
255	255	255	
255	255	255	
255	255	255	
255	255	255	
255	255	255	
255	255	255	
255	255	255	
255	255	255	
255	255	255	
255	255	255	
255	255	255	
255	255	255	
255	255	255	
255	255	255	
255	255	255	
255	255	255	
255	255	255	
255	255	255	
255	255	255	
255	255	255	
255	255	255	
255	255	255	
255	255	255	
255	255	255	
255	255	255	
255	255	255	
255	255	255	
255	255	255	
255	255	255	
255	255	255	
255	255	255	
255	255	255	
255	255	255	
255	255	255	
255	255	255	
255	255	255	
255	255	255	
255	255	255	
255	255	255	
255	255	255	
255	255	255	
255	255	255	
255	255	255	
255	255	255	
255	255	255	
255	255	255	
255	255	255	
255	255	255	
255	255	255	
255	255	255	
255	255	255	
255	255	255	
255	255	255	
255	255	255	
255	255	255	
255	255	255	
255	255	255	
255	255	255	
255	255	255	
255	255	255	
255	255	255	
255	255	255	
255	255	255	
255	255	255	
255	255	255	
255	255	255	
255	255	255	
255	255	255	
255	255	255	
255	255	255	
255	255	255	
255	255	255	
255	255	255	
255	255	255	
255	255	255	
255	255	255	
255	255	255	
255	255	255	
255	255	255	
255	255	255	
255	255	255	
255	255	255	
255	255	255	
255	255	255	
255	255	255	
255	255	255	
255	255	255	
255	255	255	
255	255	255	
255	255	255	
255	255	255	
255	255	255	
255	255	255	
255	255	255	
255	255	255	
255	255	255	
255	255	255	
255	255	255	
255	255	255	
255	255	255	
255	255	255	
255	255	255	
255	255	255	
255	255	255	
255	255	255	
255	255	255	
255	255	255	
255	255	255	
255	255	255	
255	255	255	
255	255	255	
255	255	255	
255	255	255	
255	255	255	
255	255	255	
255	255	255	
255	255	255	
255	255	255	
255	255	255	
255	255	255	
255	255	255	
255	255	255	
255	255	255	
255	255	255	
255	255	255	
255	255	255	
255	255	255	
255	255	255	
255	255	255	
255	255	255	
255	255	255	
255	255	255	
255	255	255	
255	255	255	
255	255	255	
255	255	255	
255	255	255	
255	255	255	
255	255	255	
255	255	255	
255	255	255	
255	255	255	
255	255	255	
255	255	255	
255	255	255	
255	255	255	
255	255	255	
255	255	255	
255	255	255	
255	255	255	
255	255	255	
255	255	255	
255	255	255	
255	255	255	
255	255	255	
255	255	255	
255	255	255	
255	255	255	
255	255	255	
255	255	255	
255	255	255	
255	255	255	
255	255	255	
255	255	255	
255	255	255	
255	255	255	
255	255	255	
255	255	255	
255	255	255	
255	255	255	
255	255	255	
255	255	255	
255	255	255	
255	255	255	
255	255	255	
255	255	255	
255	255	255	
255	255	255	
255	255	255	
255	255	255	
255	255	255	
255	255	255	
255	255	255	
255	255	255	
255	255	255	
255	255	255	
255	255	255	
255	255	255	
255	255	255	
255	255	255	
255	255	255	
255	255	255	
255	255	255	
255	255	255	
255	255	255	
255	255	255	
255	255	255	
255	255	255	
255	255	255	
255	255	255	
255	255	255	
255	255	255	
255	255	255	
255	255	255	
255	255	255	
255	255	255	
255	255	255	
255	255	255	
255	255	255	
255	255	255	
255	255	255	
255	255	255	
255	255	255	
255	255	255	
255	255	255	
255	255	255	
255	255	255	
255	255	255	
255	255	255	
255	255	255	
255	255	255	
255	255	255	
255	255	255	
255	255	255	
255	255	255	
255	255	255	
255	255	255	
255	255	255	
255	255	255	
255	255	255	
255	255	255	
255	255	255	
255	255	255	
255	255	255	
255	255	255	
255	255	255	
255	255	255	
255	255	255	
255	255	255	
255	255	255	
255	255	255	
255	255	255	
255	255	255	
255	255	255	
255	255	255	
255	255	255	
255	255	255	
255	255	255	
255	255	255	
255	255	255	
255	255	255	
255	255	255	
255	255	255	
255	255	255	
255	255	255	
255	255	255	
255	255	255	
255	255	255	
255	255	255	
255	255	255	
255	255	255	
255	255	255	
255	255	255	
255	255	255	
255	255	255	
255	255	255	
255	255	255	
255	255	255	
255	255	255	
255	255	255	
255	255	255	
255	255	255	
255	255	255	
255	255	255	
255	255	255	
255	255	255	
255	255	255	
255	255	255	
255	255	255	
255	255	255	
255	255	255	
255	255	255	
255	255	255	
255	255	255	
255	255	255	
255	255	255	
255	255	255	
255	255	255	
255	255	255	
255	255	255	
255	255	255	
255	255	255	
255	255	255	
255	255	255	
255	255	255	
255	255	255	
255	255	255	
255	255	255	
255	255	255	
255	255	255	
255	255	255	
255	255	255	
255	255	255	
255	255	255	
255	255	255	
255	255	255	
255	255	255	
255	255	255	
255	255	255	
255	255	255	
255	255	255	
255	255	255	
255	255	255	
255	255	255	
255	255	255	
255	255	255	
255	255	255	
255	255	255	
255	255	255	
255	255	255	
255	255	255	
255	255	255	
255	255	255	
255	255	255	
255	255	255	
255	255	255	
255	255	255	
255	255	255	
255	255	255	
255	255	255	
255	255	255	
255	255	255	
255	255	255	
255	255	255	
255	255	255	
255	255	255	
255	255	255	
255	255	255	
255	255	255	
255	255	255	
255	255	255	
255	255	255	
255	255	255	
255	255	255	
255	255	255	
255	255	255	
255	255	255	
255	255	255	
255	255	255	
255	255	255	
255	255	255	
255	255	255	
255	255	255	
255	255	255	
255	255	255	
255	255	255	
255	255	255	
255	255	255	
255	255	255	
255	255	255	
255	255	255	
255	255	255	
255	255	255	
255	255	255	
255	255	255	
255	255	255	
255	255	255	
255	255	255	
255	255	255	
255	255	255	
255	255	255	
255	255	255	
255	255	255	
255	255	255	
255	255	255	
255	255	255	
255	255	255	
255	255	255	
255	255	255	
255	255	255	
255	255	255	
255	255	255	
255	255	255	
255	255	255	
255	255	255	
255	255	255	
255	255	255	
255	255	255	
255	255	255	
255	255	255	
255	255	255	
255	255	255	
255	255	255	
255	255	255	
255	255	255	
255	255	255	
255	255	255	
255	255	255	
255	255	255	
255	255	255	
255	255	255	
255	255	255	
255	255	255	
255	255	255	
255	255	255	
255	255	255	
255	255	255	
255	255	255	
255	255	255	
255	255	255	
255	255	255	
255	255	255	
255	255	255	
255	255	255	
255	255	255	
255	255	255	
255	255	255	
255	255	255	
255	255	255	
255	255	255	
255	255	255	
255	255	255	
255	255	255	
255	255	255	
255	255	255	
255	255	255	
255	255	255	
255	255	255	
255	255	255	
255	255	255	
255	255	255	
255	255	255	
255	255	255	
255	255	255	
255	255	255	
255	255	255	
255	255	255	
255	255	255	
255	255	255	
255	255	255	
255	255	255	
255	255	255	
255	255	255	
255	255	255	
255	255	255	
255	255	255	
255	255	255	
255	255	255	
255	255	255	
255	255	255	
255	255	255	
255	255	255	
255	255	255	
255	255	255	
255	255	255	
255	255	255	
255	255	255	
255	255	255	
255	255	255	
255	255	255	
255	255	255	
255	255	255	
255	255	255	
255	255	255	
255	255	255	
255	255	255	
255	255	255	
255	255	255	
255	255	255	
255	255	255	
255	255	255	
255	255	255	
255	255	255	
255	255	255	
255	255	255	
255	255	255	
255	255	255	
255	255	255	
255	255	255	
255	255	255	
255	255	255	
255	255	255	
255	255	255	
255	255	255	
255	255	255	
255	255	255	
255	255	255	
255	255	255	
255	255	255	
255	255	255	
255	255	255	
255	255	255	
255	255	255	
255	255	255	
255	255	255	
255	255	255	
255	255	255	
255	255	255	
255	255	255	
255	255	255	
255	255	255	
255	255	255	
255	255	255	
255	255	255	
255	255	255	
255	255	255	
255	255	255	
255	255	255	
255	255	255	
255	255	255	
255	255	255	
255	255	255	
255	255	255	
255	255	255	
255	255	255	
255	255	255	
255	255	255	
255	255	255	
255	255	255	
255	255	255	
255	255	255	
255	255	255	
255	255	255	
255	255	255	
255	255	255	
255	255	255	
255	255	255	
255	255	255	
255	255	255	
255	255	255	
255	255	255	
255	255	255	
255	255	255	
255	255	255	
255	255	255	
255	255	255	
255	255	255	
255	255	255	
255	255	255	
255	255	255	
255	255	255	
255	255	255	
255	255	255	
255	255	255	
255	255	255	
255	255	255	
255	255	255	
255	255	255	
255	255	255	
255	255	255	
255	255	255	
255	255	255	
255	255	255	
255	255	255	
255	255	255	
255	255	255	
255	255	255	
255	255	255	
255	255	255	
255	255	255	
255	255	255	
255	255	255	
255	255	255	
255	255	255	
255	255	255	
255	255	255	
255	255	255	
255	255	255	
255	255	255	
255	255	255	
255	255	255	
255	255	255	
255	255	255	
255	255	255	
255	255	255	
255	255	255	
255	255	255	
255	255	255	
255	255	255	
255	255	255	
255	255	255	
255	255	255	
255	255	255	
255	255	255	
255	255	255	
255	255	255	
255	255	255	
255	255	255	
255	255	255	
255	255	255	
255	255	255	
255	255	255	
255	255	255	
255	255	255	
255	255	255	
255	255	255	
255	255	255	
255	255	255	
255	255	255	
255	255	255	
255	255	255	
255	255	255	
255	255	255	
255	255	255	
255	255	255	
255	255	255	
255	255	255	
255	255	255	
255	255	255	
255	255	255	
255	255	255	
255	255	255	
255	255	255	
255	255	255	
255	255	255	
255	255	255	
255	255	255	
255	255	255	
255	255	255	
255	255	255	
255	255	255	
255	255	255	
255	255	255	
255	255	255	
255	255	255	
255	255	255	
255	255	255	
255	255	255	
255	255	255	
255	255	255	
255	255	255	
255	255	255	
255	255	255	
255	255	255	
255	255	255	
255	255	255	
255	255	255	
255	255	255	
255	255	255	
255	255	255	
255	255	255	
255	255	255	
255	255	255	
255	255	255	
255	255	255	
255	255	255	
255	255	255	
255	255	255	
255	255	255	
255	255	255	
255	255	255	
255	255	255	
255	255	255	
255	255	255	
255	255	255	
255	255	255	
255	255	255	
255	255	255	
255	255	255	
255	255	255	
255	255	255	
255	255	255	
255	255	255	
255	255	255	
255	255	255	
255	255	255	
255	255	255	
255	255	255	
255	255	255	
255	255	255	
255	255	255	
255	255	255	
255	255	255	
255	255	255	
255	255	255	
255	255	255	
255	255	255	
255	255	255	
255	255	255	
255	255	255	
255	255	255	
255	255	255	
255	255	255	
255	255	255	
255	255	255	
255	255	255	
255	255	255	
255	255	255	
255	255	255	
255	255	255	
255	255	255	
255	255	255	
255	255	255	
255	255	255	
255	255	255	
255	255	255	
255	255	255	
255	255	255	
255	255	255	
255	255	255	
255	255	255	
255	255	255	
255	255	255	
255	255	255	
255	255	255	
255	255	255	
255	255	255	
255	255	255	
255	255	255	
255	255	255	
255	255	255	
255	255	255	
255	255	255	
255	255	255	
255	255	255	
255	255	255	
255	255	255	
255	255	255	
255	255	255	
255	255	255	
255	255	255	
255	255	255	
255	255	255	
255	255	255	
255	255	255	
255	255	255	
255	255	255	
255	255	255	
255	255	255	
255	255	255	
255	255	255	
255	255	255	
255	255	255	
255	255	255	
255	255	255	
255	255	255	
255	255	255	
255	255	255	
255	255	255	
255	255	255	
255	255	255	
255	255	255	
255	255	255	
255	255	255	
255	255	255	
255	255	255	
255	255	255	
255	255	255	
255	255	255	
255	255	255	
255	255	255	
255	255	255	
255	255	255	
255	255	255	
255	255	255	
255	255	255	
255	255	255	
255	255	255	
255	255	255	
255	255	255	
255	255	255	
255	255	255	
255	255	255	
255	255	255	
255	255	255	
255	255	255	
255	255	255	
255	255	255	
255	255	255	
255	255	255	
255	255	255	
255	255	255	
255	255	255	
255	255	255	
255	255	255	
255	255	255	
255	255	255	
255	255	255	
255	255	255	
255	255	255	
255	255	255	
255	255	255	
255	255	255	
255	255	255	
255	255	255	
255	255	255	
255	255	255	
255	255	255	
255	255	255	
255	255	255	
255	255	255	
255	255	255	
255	255	255	
255	255	255	
255	255	255	
255	255	255	
255	255	255	
255	255	255	
255	255	255	
255	255	255	
255	255	255	
255	255	255	
255	255	255	
255	255	255	
255	255	255	
255	255	255	
255	255	255	
255	255	255	
255	255	255	
255	255	255	
255	255	255	
255	255	255	
255	255	255	
255	255	255	
255	255	255	
255	255	255	
255	255	255	
255	255	255	
255	255	255	
255	255	255	
255	255	255	
255	255	255	
255	255	255	
255	255	255	
255	255	255	
255	255	255	
255	255	255	
255	255	255	
255	255	255	
255	255	255	
255	255	255	
255	255	255	
255	255	255	
255	255	255	
255	255	255	
255	255	255	
255	255	255	
255	255	255	
255	255	255	
255	255	255	
255	255	255	
255	255	255	
255	255	255	
255	255	255	
255	255	255	
255	255	255	
255	255	255	
255	255	255	
255	255	255	
255	255	255	
255	255	255	
255	255	255	
255	255	255	
255	255	255	
255	255	255	
255	255	255	
255	255	255	
255	255	255	
255	255	255	
255	255	255	
255	255	255	
255	255	255	
255	255	255	
255	255	255	
255	255	255	
255	255	255	
255	255	255	
255	255	255	
255	255	255	
255	255	255	
255	255	255	
255	255	255	
255	255	255	
255	255	255	
255	255	255	
255	255	255	
255	255	255	
255	255	255	
255	255	255	
255	255	255	
255	255	255	
255	255	255	
255	255	255	
255	255	255	
255	255	255	
255	255	255	
255	255	255	
255	255	255	
255	255	255	
255	255	255	
255	255	255	
255	255	255	
255	255	255	
255	255	255	
255	255	255	
255	255	255	
255	255	255	
255	255	255	
255	255	255	
255	255	255	
255	255	255	
255	255	255	
255	255	255	
255	255	255	
255	255	255	
255	255	255	
255	255	255	
255	255	255	
255	255	255	
255	255	255	
255	255	255	
255	255	255	
255	255	255	
255	255	255	
255	255	255	
255	255	255	
255	255	255	
255	255	255	
255	255	255	
255	255	255	
255	255	255	
255	255	255	
255	255	255	
255	255	255	
255	255	255	
255	255	255	
255	255	255	
255	255	255	
255	255	255	
255	255	255	
255	255	255	
255	255	255	
255	255	255	
255	255	255	
255	255	255	
255	255	255	
255	255	255	
255	255	255	
255	255	255	
255	255	255	
255	255	255	
255	255	255	
255	255	255	
255	255	255	
255	255	255	
255	255	255	
255	255	255	
255	255	255	
255	255	255	
255	255	255	
255	255	255	
255	255	255	
255	255	255	
255	255	255	
255	255	255	
255	255	255	
255	255	255	
255	255	255	
255	255	255	
255	255	255	
255	255	255	
255	255	255	
255	255	255	
255	255	255	
255	255	255	
255	255	255	
255	255	255	
255	255	255	
255	255	255	
255	255	255	
255	255	255	
255	255	255	
255	255	255	
255	255	255	
255	255	255	
255	255	255	
255	255	255	
255	255	255	
255	255	255	
255	255	255	
255	255	255	
255	255	255	
255	255	255	
255	255	255	
255	255	255	
255	255	255	
255	255	255	
255	255	255	
255	255	255	
255	255	255	
255	255	255	
255	255	255	
255	255	255	
255	255	255	
255	255	255	
255	255	255	
255	255	255	
255	255	255	
255	255	255	
255	255	255	
255	255	255	
255	255	255	
255	255	255	
255	255	255	
255	255	255	
255	255	255	
255	255	255	
255	255	255	
255	255	255	
255	255	255	
255	255	255	
255	255	255	
255	255	255	
255	255	255	
255	255	255	
255	255	255	
255	255	255	
255	255	255	
255	255	255	
255	255	255	
255	255	255	
255	255	255	
255	255	255	
255	255	255	
255	255	255	
255	255	255	
255	255	255	
255	255	255	
255	255	255	
255	255	255	
255	255	255	
255	255	255	
255	255	255	
255	255	255	
255	255	255	
255	255	255	
255	255	255	
255	255	255	
255	255	255	
255	255	255	
255	255	255	
255	255	255	
255	255	255	
255	255	255	
255	255	255	
255	255	255	
255	255	255	
255	255	255	
255	255	255	
255	255	255	
255	255	255	
255	255	255	
255	255	255	
255	255	255	
255	255	255	
255	255	255	
255	255	255	
255	255	255	
255	255	255	
255	255	255	
255	255	255	
255	255	255	
255	255	255	
255	255	255	
255	255	255	
255	255	255	
255	255	255	
255	255	255	
255	255	255	
255	255	255	
255	255	255	
255	255	255	
255	255	255	
255	255	255	
255	255	255	
255	255	255	
255	255	255	
255	255	255	
255	255	255	
255	255	255	
255	255	255	
255	255	255	
255	255	255	
255	255	255	
255	255	255	
255	255	255	
255	255	255	
255	255	255	
255	255	255	
255	255	255	
255	255	255	
255	255	255	
255	255	255	
255	255	255	
255	255	255	
255	255	255	
255	255	255	
255	255	255	
255	255	255	
255	255	255	
255	255	255	
255	255	255	
255	255	255	
255	255	255	
255	255	255	
255	255	255	
255	255	255	
255	255	255	
255	255	255	
255	255	255	
255	255	255	
255	255	255	
255	255	255	
255	255	255	
255	255	255	
255	255	255	
255	255	255	
255	255	255	
255	255	255	
255	255	255	
255	255	255	
255	255	255	
255	255	255	
255	255	255	
255	255	255	
255	255	255	
255	255	255	
255	255	255	
255	255	255	
255	255	255	
255	255	255	
255	255	255	
255	255	255	
255	255	255	
255	255	255	
255	255	255	
255	255	255	
255	255	255	
255	255	255	
255	255	255	
255	255	255	
255	255	255	
255	255	255	
255	255	255	
255	255	255	
255	255	255	
255	255	255	
255	255	255	
255	255	255	
255	255	255	
255	255	255	
255	255	255	
255	255	255	
255	255	255	
255	255	255	
255	255	255	
255	255	255	
255	255	255	
255	255	255	
255	255	255	
255	255	255	
255	255	255	
255	255	255	
255	255	255	
255	255	255	
255	255	255	
255	255	255	
255	255	255	
255	255	255	
255	255	255	
255	255	255	
255	255	255	
255	255	255	
255	255	255	
255	255	255	
255	255	255	
255	255	255	
255	255	255	
255	255	255	
255	255	255	
255	255	255	
255	255	255	
255	255	255	
255	255	255	
255	255	255	
255	255	255	
255	255	255	
255	255	255	
255	255	255	
255	255	255	
255	255	255	
255	255	255	
255	255	255	
255	255	255	
255	255	255	
255	255	255	
255	255	255	
255	255	255	
255	255	255	
255	255	255	
255	255	255	
255	255	255	
255	255	255	
255	255	255	
255	255	255	
255	255	255	
255	255	255	
255	255	255	
255	255	255	
255	255	255	
255	255	255	
255	255	255	
255	255	255	
255	255	255	
255	255	255	
255	255	255	
255	255	255	
255	255	255	
255	255	255	
255	255	255	
255	255	255	
255	255	255	
255	255	255	
255	255	255	
255	255	255	
255	255	255	
255	255	255	
255	255	255	
255	255	255	
255	255	255	
255	255	255	
255	255	255	
255	255	255	
255	255	255	
255	255	255	
255	255	255	
255	255	255	
255	255	255	
255	255	255	
255	255	255	
255	255	255	
255	255	255	
255	255	255	
255	255	255	
255	255	255	
255	255	255	
255	255	255	
255	255	255	
255	255	255	
255	255	255	
255	255	255	
255	255	255	
255	255	255	
255	255	255	
255	255	255	
255	255	255	
255	255	255	
255	255	255	
255	255	255	
255	255	255	
255	255	255	
255	255	255	
255	255	255	
255	255	255	
255	255	255	
255	255	255	
255	255	255	
255	255	255	
255	255	255	
255	255	255	
255	255	255	
255	255	255	
255	255	255	
255	255	255	
255	255	255	
255	255	255	
255	255	255	
255	255	255	
255	255	255	
255	255	255	
255	255	255	
255	255	255	
255	255	255	
255	255	255	
255	255	255	
255	255	255	
255	255	255	
255	255	255	
255	255	255	
255	255	255	
255	255	255	
255	255	255	
255	255	255	
255	255	255	
255	255	255	
255	255	255	
255	255	255	
255	255	255	
255	255	255	
255	255	255	
255	255	255	
255	255	255	
255	255	255	
255	255	255	
255	255	255	
255	255	255	
255	255	255	
255	255	255	
255	255	255	
255	255	255	
255	255	255	
255	255	255	
255	255	255	
255	255	255	
255	255	255	
255	255	255	
255	255	255	
255	255	255	
255	255	255	
255	255	255	
255	255	255	
255	255	255	
255	255	255	
255	255	255	
255	255	255	
255	255	255	
255	255	255	
255	255	255	
255	255	255	
255	255	255	
255	255	255	
255	255	255	
255	255	255	
255	255	255	
255	255	255	
255	255	255	
255	255	255	
255	255	255	
255	255	255	
255	255	255	
255	255	255	
255	255	255	
255	255	255	
255	255	255	
255	255	255	
255	255	255	
255	255	255	
255	255	255	
255	255	255	
255	255	255	
255	255	255	
255	255	255	
255	255	255	
255	255	255	
255	255	255	
255	255	255	
255	255	255	
255	255	255	
255	255	255	
255	255	255	
255	255	255	
255	255	255	
255	255	255	
255	255	255	
255	255	255	
255	255	255	
255	255	255	
255	255	255	
255	255	255	
255	255	255	
255	255	255	
255	255	255	
255	255	255	
255	255	255	
255	255	255	
255	255	255	
255	255	255	
255	255	255	
255	255	255	
255	255	255	
255	255	255	
255	255	255	
255	255	255	
255	255	255	
255	255	255	
255	255	255	
255	255	255	
255	255	255	
255	255	255	
255	255	255	
255	255	255	
255	255	255	
255	255	255	
255	255	255	
255	255	255	
255	255	255	
255	255	255	
255	255	255	
255	255	255	
255	255	255	
255	255	255	
255	255	255	
255	255	255	
255	255	255	
255	255	255	
255	255	255	
255	255	255	
255	255	255	
255	255	255	
255	255	255	
255	255	255	
255	255	255	
255	255	255	
255	255	255	
255	255	255	
255	255	255	
255	255	255	
255	255	255	
255	255	255	
255	255	255	
255	255	255	
255	255	255	
255	255	255	
255	255	255	
255	255	255	
255	255	255	
255	255	255	
255	255	255	
255	255	255	
255	255	255	
255	255	255	
255	255	255	
255	255	255	
255	255	255	
255	255	255	
255	255	255	
255	255	255	
255	255	255	
255	255	255	
255	255	255	
255	255	255	
255	255	255	
255	255	255	
255	255	255	
255	255	255	
255	255	255	
255	255	255	
255	255	255	
255	255	255	
255	255	255	
255	255	255	
255	255	255	
255	255	255	
255	255	255	
255	255	255	
255	255	255	
255	255	255	
255	255	255	
255	255	255	
255	255	255	
255	255	255	
255	255	255	
255	255	255	
255	255	255	
255	255	255	
255	255	255	
255	255	255	
255	255	255	
255	255	255	
255	255	255	
255	255	255	
255	255	255	
255	255	255	
255	255	255	
255	255	255	
255	255	255	
255	255	255	
255	255	255	
255	255	255	
255	255	255	
255	255	255	
255	255	255	
255	255	255	
255	255	255	
255	255	255	
255	255	255	
255	255	255	
255	255	255	
255	255	255	
255	255	255	
255	255	255	
255	255	255	
255	255	255	
255	255	255	
255	255	255	
255	255	255	
255	255	255	
255	255	255	
255	255	255	
255	255	255	
255	255	255	
255	255	255	
255	255	255	
255	255	255	
255	255	255	
255	255	255	
255	255	255	
255	255	255	
255	255	255	
255	255	255	
255	255	255	
255	255	255	
255	255	255	
255	255	255	
255	255	255	
255	255	255	
255	255	255	
255	255	255	
255	255	255	
255	255	255	
255	255	255	
255	255	255	
255	255	255	
255	255	255	
255	255	255	
255	255	255	
255	255	255	
255	255	255	
255	255	255	
255	255	255	
255	255	255	
255	255	255	
255	255	255	
255	255	255	
255	255	255	
255	255	255	
255	255	255	
255	255	255	
255	255	255	
255	255	255	
255	255	255	
255	255	255	
255	255	255	
255	255	255	
255	255	255	
255	255	255	
255	255	255	
255	255	255	
255	255	255	
255	255	255	
255	255	255	
255	255	255	
255	255	255	
255	255	255	
255	255	255	
255	255	255	
255	255	255	
255	255	255	
255	255	255	
255	255	255	
255	255	255	
255	255	255	
255	255	255	
255	255	255	
255	255	255	
255	255	255	
255	255	255	
255	255	255	
255	255	255	
255	255	255	
255	255	255	
255	255	255	
255	255	255	
255	255	255	
255	255	255	
255	255	255	
255	255	255	
255	255	255	
255	255	255	
255	255	255	
255	255	255	
255	255	255	
255	255	255	
255	255	255	
255	255	255	
255	255	255	
255	255	255	
255	255	255	
255	255	255	
255	255	255	
255	255	255	
255	255	255	
255	255	255	
255	255	255	
255	255	255	
255	255	255	
255	255	255	
255	255	255	
255	255	255	
255	255	255	
255	255	255	
255	255	255	
255	255	255	
255	255	255	
255	255	255	
255	255	255	
255	255	255	
255	255	255	
255	255	255	
255	255	255	
255	255	255	
255	255	255	
255	255	255	
255	255	255	
255	255	255	
255	255	255	
255	255	255	
255	255	255	
255	255	255	
255	255	255	
255	255	255	
255	255	255	
255	255	255	
255	255	255	
255	255	255	
255	255	255	
255	255	255	
255	255	255	
255	255	255	
255	255	255	
255	255	255	
255	255	255	
255	255	255	
255	255	255	
255	255	255	
255	255	255	
255	255	255	
255	255	255	
255	255	255	
255	255	255	
255	255	255	
255	255	255	
255	255	255	
255	255	255	
255	255	255	
255	255	255	
255	255	255	
255	255	255	
255	255	255	
255	255	255	
255	255	255	
255	255	255	
255	255	255	
255	255	255	
255	255	255	
255	255	255	
255	255	255	
255	255	255	
255	255	255	
255	255	255	
255	255	255	
255	255	255	
255	255	255	
255	255	255	
255	255	255	
255	255	255	
255	255	255	
255	255	255	
255	255	255	
255	255	255	
255	255	255	
255	255	255	
255	255	255	
255	255	255	
255	255	255	
255	255	255	
255	255	255	
255	255	255	
255	255	255	
255	255	255	
255	255	255	
255	255	255	
255	255	255	
255	255	255	
255	255	255	
255	255	255	
255	255	255	
255	255	255	
255	255	255	
255	255	255	
255	255	255	
255	255	255	
255	255	255	
255	255	255	
255	255	255	
255	255	255	
255	255	255	
255	255	255	
255	255	255	
255	255	255	
255	255	255	
255	255	255	
255	255	255	
255	255	255	
255	255	255	
255	255	255	
255	255	255	
255	255	255	
255	255	255	
255	255	255	
255	255	255	
255	255	255	
255	255	255	
255	255	255	
255	255	255	
255	255	255	
255	255	255	
255	255	255	
255	255	255	
255	255	255	
255	255	255	
255	255	255	
255	255	255	
255	255	255	
255	255	255	
255	255	255	
255	255	255	
255	255	255	
255	255	255	
255	255	255	
255	255	255	
255	255	255	
255	255	255	
255	255	255	
255	255	255	
255	255	255	
255	255	255	
255	255	255	
255	255	255	
255	255	255	
255	255	255	
255	255	255	
255	255	255	
255	255	255	
255	255	255	
255	255	255	
255	255	255	
255	255	255	
255	255	255	
255	255	255	
255	255	255	
255	255	255	
255	255	255	
255	255	255	
255	255	255	
255	255	255	
255	255	255	
255	255	255	
255	255	255	
255	255	255	
255	255	255	
255	255	255	
255	255	255	
255	255	255	
255	255	255	
255	255	255	
255	255	255	
255	255	255	
255	255	255	
255	255	255	
255	255	255	
255	255	255	
255	255	255	
255	255	255	
255	255	255	
255	255	255	
255	255	255	
255	255	255	
255	255	255	
255	255	255	
255	255	255	
255	255	255	
255	255	255	
255	255	255	
255	255	255	
255	255	255	
255	255	255	
255	255	255	
255	255	255	
255	255	255	
255	255	255	
255	255	255	
255	255	255	
255	255	255	
255	255	255	
255	255	255	
255	255	255	
255	255	255	
255	255	255	
255	255	255	
255	255	255	
255	255	255	
255	255	255	
255	255	255	
255	255	255	
255	255	255	
255	255	255	
255	255	255	
255	255	255	
255	255	255	
255	255	255	
255	255	255	
255	255	255	
255	255	255	
255	255	255	
255	255	255	
255	255	255	
255	255	255	
255	255	255	
255	255	255	
255	255	255	
255	255	255	
255	255	255	
255	255	255	
255	255	255	
255	255	255	
255	255	255	
255	255	255	
255	255	255	
255	255	255	
255	255	255	
255	255	255	
255	255	255	
255	255	255	
255	255	255	
255	255	255	
255	255	255	
255	255	255	
255	255	255	
255	255	255	
255	255	255	
255	255	255	
255	255	255	
255	255	255	
255	255	255	
255	255	255	
255	255	255	
255	255	255	
255	255	255	
255	255	255	
255	255	255	
255	255	255	
255	255	255	
255	255	255	
255	255	255	
255	255	255	
255	255	255	
255	255	255	
255	255	255	
255	255	255	
255	255	255	
255	255	255	
255	255	255	
255	255	255	
255	255	255	
255	255	255	
255	255	255	
255	255	255	
255	255	255	
255	255	255	
255	255	255	
255	255	255	
255	255	255	
255	255	255	
255	255	255	
255	255	255	
255	255	255	
255	255	255	
255	255	255	
255	255	255	
255	255	255	
255	255	255	
255	255	255	
255	255	255	
255	255	255	
255	255	255	
255	255	255	
255	255	255	
255	255	255	
255	255	255	
255	255	255	
255	255	255	
255	255	255	
255	255	255	
255	255	255	
255	255	255	
255	255	255	
255	255	255	
255	255	255	
255	255	255	
255	255	255	
255	255	255	
255	255	255	
255	255	255	
255	255	255	
255	255	255	
255	255	255	
255	255	255	
255	255	255	
255	255	255	
255	255	255	
255	255	255	
255	255	255	
255	255	255	
255	255	255	
255	255	255	
255	255	255	
255	255	255	
255	255	255	
255	255	255	
255	255	255	
255	255	255	
255	255	255	
255	255	255	
255	255	255	
255	255	255	
255	255	255	
255	255	255	
255	255	255	
255	255	255	
255	255	255	
255	255	255	
255	255	255	
255	255	255	
255	255	255	
255	255	255	
255	255	255	
255	255	255	
255	255	255	
255	255	255	
255	255	255	
255	255	255	
255	255	255	
255	255	255	
255	255	255	
255	255	255	
255	255	255	
255	255	255	
255	255	255	
255	255	255	
255	255	255	
255	255	255	
255	255	255	
255	255	255	
255	255	255	
255	255	255	
255	255	255	
255	255	255	
255	255	255	
255	255	255	
255	255	255	
255	255	255	
255	255	255	
255	255	255	
255	255	255	
255	255	255	
255	255	255	
255	255	255	
255	255	255	
255	255	255	
255	255	255	
255	255	255	
255	255	255	
255	255	255	
255	255	255	
255	255	255	
255	255	255	
255	255	255	
255	255	255	
255	255	255	
255	255	255	
255	255	255	
255	255	255	
255	255	255	
255	255	255	
255	255	255	
255	255	255	
255	255	255	
255	255	255	
255	255	255	
255	255	255	
255	255	255	
255	255	255	
255	255	255	
255	255	255	
255	255	255	
255	255	255	
255	255	255	
255	255	255	
255	255	255	
255	255	255	
255	255	255	
255	255	255	
255	255	255	
255	255	255	
255	255	255	
255	255	255	
255	255	255	
255	255	255	
255	255	255	
255	255	255	
255	255	255	
255	255	255	
255	255	255	
255	255	255	
255	255	255	
255	255	255	
255	255	255	
255	255	255	
255	255	255	
255	255	255	
255	255	255	
255	255	255	
255	255	255	
255	255	255	
255	255	255	
255	255	255	
255	255	255	
255	255	255	
255	255	255	
255	255	255	
255	255	255	
255	255	255	
255	255	255	
255	255	255	
255	255	255	
255	255	255	
255	255	255	
255	255	255	
255	255	255	
255	255	255	
255	255	255	
255	255	255	
255	255	255	
255	255	255	
255	255	255	
255	255	255	
255	255	255	
255	255	255	
255	255	255	
255	255	255	
255	255	255	
255	255	255	
255	255	255	
255	255	255	
255	255	255	
255	255	255	
255	255	255	
255	255	255	
255	255	255	
255	255	255	
255	255	255	
255	255	255	
255	255	255	
255	255	255	
255	255	255	
255	255	255	
255	255	255	
255	255	255	
255	255	255	
255	255	255	
255	255	255	
255	255	255	
255	255	255	
255	255	255	
255	255	255	
255	255	255	
255	255	255	
255	255	255	
255	255	255	
255	255	255	
255	255	255	
255	255	255	
255	255	255	
255	255	255	
255	255	255	
255	255	255	
255	255	255	
255	255	255	
255	255	255	
255	255	255	
255	255	255	
255	255	255	
255	255	255	
255	255	255	
255	255	255	
255	255	255	
255	255	255	
255	255	255	
255	255	255	
255	255	255	
255	255	255	
255	255	255	
255	255	255	
255	255	255	
255	255	255	
255	255	255	
255	255	255	
255	255	255	
255	255	255	
255	255	255	
255	255	255	
255	255	255	
255	255	255	
255	255	255	
255	255	255	
255	255	255	
255	255	255	
255	255	255	
255	255	255	
255	255	255	
255	255	255	
255	255	255	
255	255	255	
255	255	255	
255	255	255	
255	255	255	
255	255	255	
255	255	255	
255	255	255	
255	255	255	
255	255	255	
255	255	255	
255	255	255	
255	255	255	
255	255	255	
255	255	255	
255	255	255	
255	255	255	
255	255	255	
255	255	255	
255	255	255	
255	255	255	
255	255	255	
255	255	255	
255	255	255	
255	255	255	
255	255	255	
255	255	255	
255	255	255	
255	255	255	
255	255	255	
255	255	255	
255	255	255	
255	255	255	
255	255	255	
255	255	255	
255	255	255	
255	255	255	
255	255	255	
255	255	255	
255	255	255	
255	255	255	
255	255	255	
255	255	255	
255	255	255	
255	255	255	
255	255	255	
255	255	255	
255	255	255	
255	255	255	
255	255	255	
255	255	255	
255	255	255	
255	255	255	
255	255	255	
255	255	255	
255	255	255	
255	255	255	
255	255	255	
255	255	255	
255	255	255	
255	255	255	
255	255	255	
255	255	255	
255	255	255	
255	255	255	
255	255	255	
255	255	255	
255	255	255	
255	255	255	
255	255	255	
255	255	255	
255	255	255	
255	255	255	
255	255	255	
255	255	255	
255	255	255	
255	255	255	
255	255	255	
255	255	255	
255	255	255	
255	255	255	
255	255	255	
255	255	255	
255	255	255	
255	255	255	
255	255	255	
255	255	255	
255	255	255	
255	255	255	
255	255	255	
255	255	255	
255	255	255	
255	255	255	
255	255	255	
255	255	255	
255	255	255	
255	255	255	
255	255	255	
255	255	255	
255	255	255	
255	255	255	
255	255	255	
255	255	255	
255	255	255	
255	255	255	
255	255	255	
255	255	255	
255	255	255	
255	255	255	
255	255	255	
255	255	255	
255	255	255	
255	255	255	
255	255	255	
255	255	255	
255	255	255	
255	255	255	
255	255	255	
255	255	255	
255	255	255	
255	255	255	
255	255	255	
255	255	255	
255	255	255	
255	255	255	
255	255	255	
255	255	255	
255	255	255	
255	255	255	
255	255	255	
255	255	255	
255	255	255	
255	255	255	
255	255	255	
255	255	255	
255	255	255	
255	255	255	
255	255	255	
255	255	255	
255	255	255	
255	255	255	
255	255	255	
255	255	255	
255	255	255	
255	255	255	
255	255	255	
255	255	255	
255	255	255	
255	255	255	
255	255	255	
255	255	255	
255	255	255	
255	255	255	
255	255	255	
255	255	255	
255	255	255	
255	255	255	
255	255	255	
255	255	255	
255	255	255	
255	255	255	
255	255	255	
255	255	255	
255	255	255	
255	255	255	
255	255	255	
255	255	255	
255	255	255	
255	255	255	
255	255	255	
255	255	255	
255	255	255	
255	255	255	
255	255	255	
255	255	255	
255	255	255	
255	255	255	
255	255	255	
255	255	255	
255	255	255	
255	255	255	
255	255	255	
255	255	255	
255	255	255	
255	255	255	
255	255	255	
255	255	255	
255	255	255	
255	255	255	
255	255	255	
255	255	255	
255	255	255	
255	255	255	
255	255	255	
255	255	255	
255	255	255	
255	255	255	
255	255	255	
255	255	255	
255	255	255	
255	255	255	
255	255	255	
255	255	255	
255	255	255	
255	255	255	
255	255	255	
255	255	255	
255	255	255	
255	255	255	
255	255	255	
255	255	255	
255	255	255	
255	255	255	
255	255	255	
255	255	255	
255	255	255	
255	255	255	
255	255	255	
255	255	255	
255	255	255	
255	255	255	
255	255	255	
255	255	255	
255	255	255	
255	255	255	
255	255	255	
255	255	255	
255	255	255	
255	255	255	
255	255	255	
255	255	255	
255	255	255	
255	255	255	
255	255	255	
255	255	255	
255	255	255	
255	255	255	
255	255	255	
255	255	255	
255	255	255	
255	255	255	
255	255	255	
255	255	255	
255	255	255	
255	255	255	
255	255	255	
255	255	255	
255	255	255	
255	255	255	
255	255	255	
255	255	255	
255	255	255	
255	255	255	
255	255	255	
255	255	255	
255	255	255	
255	255	255	
255	255	255	
255	255	255	
255	255	255	
255	255	255	
255	255	255	
255	255	255	
255	255	255	
255	255	255	
255	255	255	
255	255	255	
255	255	255	
255	255	255	
255	255	255	
255	255	255	
255	255	255	
255	255	255	
255	255	255	
255	255	255	
255	255	255	
255	255	255	
255	255	255	
255	255	255	
255	255	255	
255	255	255	
255	255	255	
255	255	255	
255	255	255	
255	255	255	
255	255	255	
255	255	255	
255	255	255	
255	255	255	
255	255	255	
255	255	255	
255	255	255	
255	255	255	
255	255	255	
255	255	255	
255	255	255	
255	255	255	
255	255	255	
255	255	255	
255	255	255	
255	255	255	
255	255	255	
255	255	255	
255	255	255	
255	255	255	
255	255	255	
255	255	255	
255	255	255	
255	255	255	
255	255	255	
255	255	255	
255	255	255	
255	255	255	
255	255	255	
255	255	255	
255	255	255	
255	255	255	
255	255	255	
255	255	255	
255	255	255	
255	255	255	
255	255	255	
255	255	255	
255	255	255	
255	255	255	
255	255	255	
255	255	255	
255	255	255	
255	255	255	
255	255	255	
255	255	255	
255	255	255	
255	255	255	
255	255	255	
255	255	255	
255	255	255	
255	255	255	
255	255	255	
255	255	255	
255	255	255	
255	255	255	
255	255	255	
255	255	255	
255	255	255	
255	255	255	
255	255	255	
255	255	255	
255	255	255	
255	255	255	
255	255	255	
255	255	255	
255	255	255	
255	255	255	
255	255	255	
255	255	255	
255	255	255	
255	255	255	
255	255	255	
255	255	255	
255	255	255	
255	255	255	
255	255	255	
255	255	255	
255	255	255	
255	255	255	
255	255	255	
255	255	255	
255	255	255	
255	255	255	
255	255	255	
255	255	255	
255	255	255	
255	255	255	
255	255	255	
255	255	255	
255	255	255	
255	255	255	
255	255	255	
255	255	255	
255	255	255	
255	255	255	
255	255	255	
255	255	255	
255	255	255	
255	255	255	
255	255	255	
255	255	255	
255	255	255	
255	255	255	
255	255	255	
255	255	255	
255	255	255	
255	255	255	
255	255	255	
255	255	255	
255	255	255	
255	255	255	
255	255	255	
255	255	255	
255	255	255	
255	255	255	
255	255	255	
255	255	255	
255	255	255	
255	255	255	
255	255	255	
255	255	255	
255	255	255	
255	255	255	
255	255	255	
255	255	255	
255	255	255	
255	255	255	
255	255	255	
255	255	255	
255	255	255	
255	255	255	
255	255	255	
255	255	255	
255	255	255	
255	255	255	
255	255	255	
255	255	255	
255	255	255	
255	255	255	
255	255	255	
255	255	255	
255	255	255	
255	255	255	
255	255	255	
255	255	255	
255	255	255	
255	255	255	
255	255	255	
255	255	255	
255	255	255	
255	255	255	
255	255	255	
255	255	255	
255	255	255	
255	255	255	
255	255	255	
255	255	255	
255	255	255	
255	255	255	
255	255	255	
255	255	255	
255	255	255	
255	255	255	
255	255	255	
255	255	255	
255	255	255	
255	255	255	
255	255	255	
255	255	255	
255	255	255	
255	255	255	
255	255	255	
255	255	255	
255	255	255	
255	255	255	
255	255	255	
255	255	255	
255	255	255	
255	255	255	
255	255	255	
255	255	255	
255	255	255	
255	255	255	
255	255	255	
255	255	255	
255	255	255	
255	255	255	
255	255	255	
255	255	255	
255	255	255	
255	255	255	
255	255	255	
255	255	255	
255	255	255	
255	255	255	
255	255	255	
255	255	255	
255	255	255	
255	255	255	
255	255	255	
255	255	255	
255	255	255	
255	255	255	
255	255	255	
255	255	255	
255	255	255	
255	255	255	
255	255	255	
255	255	255	
255	255	255	
255	255	255	
255	255	255	
255	255	255	
255	255	255	
255	255	255	
255	255	255	
255	255	255	
255	255	255	
255	255	255	
255	255	255	
255	255	255	
255	255	255	
255	255	255	
255	255	255	
255	255	255	
255	255	255	
255	255	255	
255	255	255	
255	255	255	
255	255	255	
255	255	255	
255	255	255	
255	255	255	
255	255	255	
255	255	255	
255	255	255	
255	255	255	
255	255	255	
255	255	255	
255	255	255	
255	255	255	
255	255	255	
255	255	255	
255	255	255	
255	255	255	
255	255	255	
255	255	255	
255	255	255	
255	255	255	
255	255	255	
255	255	255	
255	255	255	
255	255	255	
255	255	255	
255	255	255	
255	255	255	
255	255	255	
255	255	255	
255	255	255	
255	255	255	
255	255	255	
255	255	255	
255	255	255	
255	255	255	
255	255	255	
255	255	255	
255	255	255	
255	255	255	
255	255	255	
255	255	255	
255	255	255	
255	255	255	
255	255	255	
255	255	255	
255	255	255	
255	255	255	
255	255	255	
255	255	255	
255	255	255	
255	255	255	
255	255	255	
255	255	255	
255	255	255	
255	255	255	
255	255	255	
255	255	255	
255	255	255	
255	255	255	
255	255	255	
255	255	255	
255	255	255	
255	255	255	
255	255	255	
255	255	255	
255	255	255	
255	255	255	
255	255	255	
255	255	255	
255	255	255	
255	255	255	
255	255	255	
255	255	255	
255	255	255	
255	255	255	
255	255	255	
255	255	255	
255	255	255	
255	255	255	
255	255	255	
255	255	255	
255	255	255	
255	255	255	
255	255	255	
255	255	255	
255	255	255	
255	255	255	
255	255	255	
255	255	255	
255	255	255	
255	255	255	
255	255	255	
255	255	255	
255	255	255	
255	255	255	
255	255	255	
255	255	255	
255	255	255	
255	255	255	
255	255	255	
255	255	255	
255	255	255	
255	255	255	
255	255	255	
255	255	255	
255	255	255	
255	255	255	
255	255	255	
255	255	255	
255	255	255	
255	255	255	
255	255	255	
255	255	255	
255	255	255	
255	255	255	
255	255	255	
255	255	255	
255	255	255	
255	255	255	
255	255	255	
255	255	255	
255	255	255	
255	255	255	
255	255	255	
255	255	255	
255	255	255	
255	255	255	
255	255	255	
255	255	255	
255	255	255	
255	255	255	
255	255	255	
255	255	255	
255	255	255	
255	255	255	
255	255	255	
255	255	255	
255	255	255	
255	255	255	
255	255	255	
255	255	255	
255	255	255	
255	255	255	
255	255	255	
255	255	255	
255	255	255	
255	255	255	
255	255	255	
255	255	255	
255	255	255	
255	255	255	
255	255	255	
255	255	255	
255	255	255	
255	255	255	
255	255	255	
255	255	255	
255	255	255	
255	255	255	
255	255	255	
255	255	255	
255	255	255	
255	255	255	
255	255	255	
255	255	255	
255	255	255	
255	255	255	
255	255	255	
255	255	255	
255	255	255	
255	255	255	
255	255	255	
255	255	255	
255	255	255	
255	255	255	
255	255	255	
255	255	255	
255	255	255	
255	255	255	
255	255	255	
255	255	255	
255	255	255	
255	255	255	
255	255	255	
255	255	255	
255	255	255	
255	255	255	
255	255	255	
255	255	255	
255	255	255	
255	255	255	
255	255	255	
255	255	255	
255	255	255	
255	255	255	
255	255	255	
255	255	255	
255	255	255	
255	255	255	
255	255	255	
255	255	255	
255	255	255	
255	255	255	
255	255	255	
255	255	255	
255	255	255	
255	255	255	
255	255	255	
255	255	255	
255	255	255	
255	255	255	
255	255	255	
255	255	255	
255	255	255	
255	255	255	
255	255	255	
255	255	255	
255	255	255	
255	255	255	
255	255	255	
255	255	255	
255	255	255	
255	255	255	
255	255	255	
255	255	255	
255	255	255	
255	255	255	
255	255	255	
255	255	255	
255	255	255	
255	255	255	
255	255	255	
255	255	255	
255	255	255	
255	255	255	
255	255	255	
255	255	255	
255	255	255	
255	255	255	
255	255	255	
255	255	255	
255	255	255	
255	255	255	
255	255	255	
255	255	255	
255	255	255	
255	255	255	
255	255	255	
255	255	255	
255	255	255	
255	255	255	
255	255	255	
255	255	255	
255	255	255	
255	255	255	
255	255	255	
255	255	255	
255	255	255	
255	255	255	
255	255	255	
255	255	255	
255	255	255	
255	255	255	
255	255	255	
255	255	255	
255	255	255	
255	255	255	
255	255	255	
255	255	255	
255	255	255	
255	255	255	
255	255	255	
255	255	255	
255	255	255	
255	255	255	
255	255	255	
255	255	255	
255	255	255	
255	255	255	
255	255	255	
255	255	255	
255	255	255	
255	255	255	
255	255	255	
255	255	255	
255	255	255	
255	255	255	
255	255	255	
255	255	255	
255	255	255	
255	255	255	
255	255	255	
255	255	255	
255	255	255	
255	255	255	
255	255	255	
255	255	255	
255	255	255	
255	255	255	
255	255	255	
255	255	255	
255	255	255	
255	255	255	
255	255	255	
255	255	255	
255	255	255	
255	255	255	
255	255	255	
255	255	255	
255	255	255	
255	255	255	
255	255	255	
255	255	255	
255	255	255	
255	255	255	
255	255	255	
255	255	255	
255	255	255	
255	255	255	
255	255	255	
255	255	255	
255	255	255	
255	255	255	
255	255	255	
255	255	255	
255	255	255	
255	255	255	
255	255	255	
255	255	255	
255	255	255	
255	255	255	
255	255	255	
255	255	255	
255	255	255	
255	255	255	
255	255	255	
255	255	255	
255	255	255	
255	255	255	
255	255	255	
255	255	255	
255	255	255	
255	255	255	
255	255	255	
255	255	255	
255	255	255	
255	255	255	
255	255	255	
255	255	255	
255	255	255	
255	255	255	
255	255	255	
255	255	255	
255	255	255	
255	255	255	
255	255	255	
255	255	255	
255	255	255	
255	255	255	
255	255	255	
255	255	255	
255	255	255	
255	255	255	
255	255	255	
255	255	255	
255	255	255	
255	255	255	
255	255	255	
255	255	255	
255	255	255	
255	255	255	
255	255	255	
255	255	255	
255	255	255	
255	255	255	
255	255	255	
255	255	255	
255	255	255	
255	255	255	
255	255	255	
255	255	255	
255	255	255	
255	255	255	
255	255	255	
255	255	255	
255	255	255	
255	255	255	
255	255	255	
255	255	255	
255	255	255	
255	255	255	
255	255	255	
255	255	255	
255	255	255	
255	255	255	
255	255	255	
255	255	255	
255	255	255	
255	255	255	
255	255	255	
255	255	255	
255	255	255	
255	255	255	
255	255	255	
255	255	255	
255	255	255	
255	255	255	
255	255	255	
255	255	255	
255	255	255	
255	255	255	
255	255	255	
255	255	255	
255	255	255	
255	255	255	
255	255	255	
255	255	255	
255	255	255	
255	255	255	
255	255	255	
255	255	255	
255	255	255	
255	255	255	
255	255	255	
255	255	255	
255	255	255	
255	255	255	
255	255	255	
255	255	255	
255	255	255	
255	255	255	
255	255	255	
255	255	255	
255	255	255	
255	255	255	
255	255	255	
255	255	255	
255	255	255	
255	255	255	
255	255	255	
255	255	255	
255	255	255	
255	255	255	
255	255	255	
255	255	255	
255	255	255	
255	255	255	
255	255	255	
255	255	255	
255	255	255	
255	255	255	
255	255	255	
255	255	255	
255	255	255	
255	255	255	
255	255	255	
255	255	255	
255	255	255	
255	255	255	
255	255	255	
255	255	255	
255	255	255	
255	255	255	
255	255	255	
255	255	255	
255	255	255	
255	255	255	
255	255	255	
255	255	255	
255	255	255	
255	255	255	
255	255	255	
255	255	255	
255	255	255	
255	255	255	
255	255	255	
255	255	255	
255	255	255	
255	255	255	
255	255	255	
255	255	255	
255	255	255	
255	255	255	
255	255	255	
255	255	255	
255	255	255	
255	255	255	
255	255	255	
255	255	255	
255	255	255	
255	255	255	
255	255	255	
255	255	255	
255	255	255	
255	255	255	
255	255	255	
255	255	255	
255	255	255	
255	255	255	
255	255	255	
255	255	255	
255	255	255	
255	255	255	
255	255	255	
255	255	255	
255	255	255	
255	255	255	
255	255	255	
255	255	255	
255	255	255	
255	255	255	
255	255	255	
255	255	255	
255	255	255	
255	255	255	
255	255	255	
255	255	255	
255	255	255	
255	255	255	
255	255	255	
255	255	255	
255	255	255	
255	255	255	
255	255	255	
255	255	255	
255	255	255	
255	255	255	
255	255	255	
255	255	255	
255	255	255	
255	255	255	
255	255	255	
255	255	255	
255	255	255	
255	255	255	
255	255	255	
255	255	255	
255	255	255	
255	255	255	
255	255	255	
255	255	255	
255	255	255	
255	255	255	
255	255	255	
255	255	255	
255	255	255	
255	255	255	
255	255	255	
255	255	255	
255	255	255	
255	255	255	
255	255	255	
255	255	255	
255	255	255	
255	255	255	
255	255	255	
255	255	255	
255	255	255	
255	255	255	
255	255	255	
255	255	255	
255	255	255	
255	255	255	
255	255	255	
255	255	255	
255	255	255	
255	255	255	
255	255	255	
255	255	255	
255	255	255	
255	255	255	
255	255	255	
255	255	255	
255	255	255	
255	255	255	
255	255	255	
255	255	255	
255	255	255	
255	255	255	
255	255	255	
255	255	255	
255	255	255	
255	255	255	
255	255	255	
255	255	255	
255	255	255	
255	255	255	
255	255	255	
255	255	255	
255	255	255	
255	255	255	
255	255	255	
255	255	255	
255	255	255	
255	255	255	
255	255	255	
255	255	255	
255	255	255	
255	255	255	
255	255	255	
255	255	255	
255	255	255	
255	255	255	
255	255	255	
255	255	255	
255	255	255	
255	255	255	
255	255	255	
255	255	255	
255	255	255	
255	255	255	
255	255	255	
255	255	255	
255	255	255	
255	255	255	
255	255	255	
255	255	255	
255	255	255	
255	255	255	
255	255	255	
255	255	255	
255	255	255	
255	255	255	
255	255	255	
255	255	255	
255	255	255	
255	255	255	
255	255	255	
255	255	255	
255	255	255	
255	255	255	
255	255	255	
255	255	255	
255	255	255	
255	255	255	
255	255	255	
255	255	255	
255	255	255	
255	255	255	
255	255	255	
255	255	255	
255	255	255	
255	255	255	
255	255	255	
255	255	255	
255	255	255	
255	255	255	
255	255	255	
255	255	255	
255	255	255	
255	255	255	
255	255	255	
255	255	255	
255	255	255	
255	255	255	
255	255	255	
255	255	255	
255	255	255	
255	255	255	
255	255	255	
255	255	255	
255	255	255	
255	255	255	
255	255	255	
255	255	255	
255	255	255	
255	255	255	
255	255	255	
255	255	255	
255	255	255	
255	255	255	
255	255	255	
255	255	255	
255	255	255	
255	255	255	
255	255	255	
255	255	255	
255	255	255	
255	255	255	
255	255	255	
255	255	255	
255	255	255	
255	255	255	
255	255	255	
255	255	255	
255	255	255	
255	255	255	
255	255	255	
255	255	255	
255	255	255	
255	255	255	
255	255	255	
255	255	255	
255	255	255	
255	255	255	
255	255	255	
255	255	255	
255	255	255	
255	255	255	
255	255	255	
255	255	255	
255	255	255	
255	255	255	
255	255	255	
255	255	255	
255	255	255	
255	255	255	
255	255	255	
255	255	255	
255	255	255	
255	255	255	
255	255	255	
255	255	255	
255	255	255	
255	255	255	
255	255	255	
255	255	255	
255	255	255	
255	255	255	
255	255	255	
255	255	255	
255	255	255	
255	255	255	
255	255	255	
255	255	255	
255	255	255	
255	255	255	
255	255	255	
255	255	255	
255	255	255	
255	255	255	
255	255	255	
255	255	255	
255	255	255	
255	255	255	
255	255	255	
255	255	255	
255	255	255	
255	255	255	
255	255	255	
255	255	255	
255	255	255	
255	255	255	
255	255	255	
255	255	255	
255	255	255	
255	255	255	
255	255	255	
255	255	255	
255	255	255	
255	255	255	
255	255	255	
255	255	255	
255	255	255	
255	255	255	
255	255	255	
255	255	255	
255	255	255	
255	255	255	
255	255	255	
255	255	255	
255	255	255	
255	255	255	
255	255	255	
255	255	255	
255	255	255	
255	255	255	
255	255	255	
255	255	255	
255	255	255	
255	255	255	
255	255	255	
255	255	255	
255	255	255	
255	255	255	
255	255	255	
255	255	255	
255	255	255	
255	255	255	
255	255	255	
255	255	255	
255	255	255	
255	255	255	
255	255	255	
255	255	255	
255	255	255	
255	255	255	
255	255	255	
255	255	255	
255	255	255	
255	255	255	
255	255	255	
255	255	255	
255	255	255	
255	255	255	
255	255	255	
255	255	255	
255	255	255	
255	255	255	
255	255	255	
255	255	255	
255	255	255	
255	255	255	
255	255	255	
255	255	255	
255	255	255	
255	255	255	
255	255	255	
255	255	255	
255	255	255	
255	255	255	
255	255	255	
255	255	255	
255	255	255	
255	255	255	
255	255	255	
255	255	255	
255	255	255	
255	255	255	
255	255	255	
255	255	255	
255	255	255	
255	255	255	
255	255	255	
255	255	255	
255	255	255	
255	255	255	
255	255	255	
255	255	255	
255	255	255	
255	255	255	
255	255	255	
255	255	255	
255	255	255	
255	255	255	
255	255	255	
255	255	255	
255	255	255	
255	255	255	
255	255	255	
255	255	255	
255	255	255	
255	255	255	
255	255	255	
255	255	255	
255	255	255	
255	255	255	
255	255	255	
255	255	255	
255	255	255	
255	255	255	
255	255	255	
255	255	255	
255	255	255	
255	255	255	
255	255	255	
255	255	255	
255	255	255	
255	255	255	
255	255	255	
255	255	255	
255	255	255	
255	255	255	
255	255	255	
255	255	255	
255	255	255	
255	255	255	
255	255	255	
255	255	255	
255	255	255	
255	255	255	
255	255	255	
255	255	255	
255	255	255	
255	255	255	
255	255	255	
255	255	255	
255	255	255	
255	255	255	
255	255	255	
255	255	255	
255	255	255	
255	255	255	
255	255	255	
255	255	255	
255	255	255	
255	255	255	
255	255	255	
255	255	255	
255	255	255	
255	255	255	
255	255	255	
255	255	255	
255	255	255	
255	255	255	
255	255	255	
255	255	255	
255	255	255	
255	255	255	
255	255	255	
255	255	255	
255	255	255	
255	255	255	
255	255	255	
255	255	255	
255	255	255	
255	255	255	
255	255	255	
255	255	255	
255	255	255	
255	255	255	
255	255	255	
255	255	255	
255	255	255	
255	255	255	
255	255	255	
255	255	255	
255	255	255	
255	255	255	
255	255	255	
255	255	255	
255	255	255	
255	255	255	
255	255	255	
255	255	255	
255	255	255	
255	255	255	
255	255	255	
255	255	255	
255	255	255	
255	255	255	
255	255	255	
255	255	255	
255	255	255	
255	255	255	
255	255	255	
255	255	255	
255	255	255	
255	255	255	
255	255	255	
255	255	255	
255	255	255	
255	255	255	
255	255	255	
255	255	255	
255	255	255	
255	255	255	
255	255	255	
255	255	255	
255	255	255	
255	255	255	
255	255	255	
255	255	255	
255	255	255	
255	255	255	
255	255	255	
255	255	255	
255	255	255	
255	255	255	
255	255	255	
255	255	255	
255	255	255	
255	255	255	
255	255	255	
255	255	255	
255	255	255	
255	255	255	
255	255	255	
255	255	255	
255	255	255	
255	255	255	
255	255	255	
255	255	255	
255	255	255	
255	255	255	
255	255	255	
255	255	255	
255	255	255	
255	255	255	
255	255	255	
255	255	255	
255	255	255	
255	255	255	
255	255	255	
255	255	255	
255	255	255	
255	255	255	
255	255	255	
255	255	255	
255	255	255	
255	255	255	
255	255	255	
255	255	255	
255	255	255	
255	255	255	
255	255	255	
255	255	255	
255	255	255	
255	255	255	
255	255	255	
255	255	255	
255	255	255	
255	255	255	
255	255	255	
255	255	255	
255	255	255	
255	255	255	
255	255	255	
255	255	255	
255	255	255	
255	255	255	
255	255	255	
255	255	255	
255	255	255	
255	255	255	
255	255	255	
255	255	255	
255	255	255	
255	255	255	
255	255	255	
255	255	255	
255	255	255	
255	255	255	
255	255	255	
255	255	255	
255	255	255	
255	255	255	
255	255	255	
255	255	255	
255	255	255	
255	255	255	
255	255	255	
255	255	255	
255	255	255	
255	255	255	
255	255	255	
255	255	255	
255	255	255	
255	255	255	
255	255	255	
255	255	255	
255	255	255	
255	255	255	
255	255	255	
255	255	255	
255	255	255	
255	255	255	
255	255	255	
255	255	255	
255	255	255	
255	255	255	
255	255	255	
255	255	255	
255	255	255	
255	255	255	
255	255	255	
255	255	255	
255	255	255	
255	255	255	
255	255	255	
255	255	255	
255	255	255	
255	255	255	
255	255	255	
255	255	255	
255	255	255	
255	255	255	
255	255	255	
255	255	255	
255	255	255	
255	255	255	
255	255	255	
255	255	255	
255	255	255	
255	255	255	
255	255	255	
255	255	255	
255	255	255	
255	255	255	
255	255	255	
255	255	255	
255	255	255	
255	255	255	
255	255	255	
255	255	255	
255	255	255	
255	255	255	
255	255	255	
255	255	255	
255	255	255	
255	255	255	
255	255	255	
255	255	255	
255	255	255	
255	255	255	
255	255	255	
255	255	255	
255	255	255	
255	255	255	
255	255	255	
255	255	255	
255	255	255	
255	255	255	
255	255	255	
255	255	255	
255	255	255	
255	255	255	
255	255	255	
255	255	255	
255	255	255	
255	255	255	
255	255	255	
255	255	255	
255	255	255	
255	255	255	
255	255	255	
255	255	255	
255	255	255	
255	255	255	
255	255	255	
255	255	255	
255	255	255	
255	255	255	
255	255	255	
255	255	255	
255	255	255	
255	255	255	
255	255	255	
255	255	255	
255	255	255	
255	255	255	
255	255	255	
255	255	255	
255	255	255	
255	255	255	
255	255	255	
255	255	255	
255	255	255	
255	255	255	
255	255	255	
255	255	255	
255	255	255	
255	255	255	
255	255	255	
255	255	255	
255	255	255	
255	255	255	
255	255	255	
255	255	255	
255	255	255	
255	255	255	
255	255	255	
255	255	255	
255	255	255	
255	255	255	
255	255	255	
255	255	255	
255	255	255	
255	255	255	
255	255	255	
255	255	255	
255	255	255	
255	255	255	
255	255	255	
255	255	255	
255	255	255	
255	255	255	
255	255	255	
255	255	255	
255	255	255	
255	255	255	
255	255	255	
255	255	255	
255	255	255	
255	255	255	
255	255	255	
255	255	255	
255	255	255	
255	255	255	
255	255	255	
255	255	255	
255	255	255	
255	255	255	
255	255	255	
255	255	255	
255	255	255	
255	255	255	
255	255	255	
255	255	255	
255	255	255	
255	255	255	
255	255	255	
255	255	255	
255	255	255	
255	255	255	
255	255	255	
255	255	255	
255	255	255	
255	255	255	
255	255	255	
255	255	255	
255	255	255	
255	255	255	
255	255	255	
255	255	255	
255	255	255	
255	255	255	
255	255	255	
255	255	255	
255	255	255	
255	255	255	
255	255	255	
255	255	255	
255	255	255	
255	255	255	
255	255	255	
255	255	255	
255	255	255	
255	255	255	
255	255	255	
255	255	255	
255	255	255	
255	255	255	
255	255	255	
255	255	255	
255	255	255	
255	255	255	
255	255	255	
255	255	255	
255	255	255	
255	255	255	
255	255	255	
255	255	255	
255	255	255	
255	255	255	
255	255	255	
255	255	255	
255	255	255	
255	255	255	
255	255	255	
255	255	255	
255	255	255	
255	255	255	
255	255	255	
255	255	255	
255	255	255	
255	255	255	
255	255	255	
255	255	255	
255	255	255	
255	255	255	
255	255	255	
255	255	255	
255	255	255	
255	255	255	
255	255	255	
255	255	255	
255	255	255	
255	255	255	
255	255	255	
255	255	255	
255	255	255	
255	255	255	
255	255	255	
255	255	255	
255	255	255	
255	255	255	
255	255	255	
255	255	255	
255	255	255	
255	255	255	
255	255	255	
255	255	255	
255	255	255	
255	255	255	
255	255	255	
255	255	255	
255	255	255	
255	255	255	
255	255	255	
255	255	255	
255	255	255	
255	255	255	
255	255	255	
255	255	255	
255	255	255	
255	255	255	
255	255	255	
255	255	255	
255	255	255	
255	255	255	
255	255	255	
255	255	255	
255	255	255	
255	255	255	
255	255	255	
255	255	255	
255	255	255	
255	255	255	
255	255	255	
255	255	255	
255	255	255	
255	255	255	
255	255	255	
255	255	255	
255	255	255	
255	255	255	
255	255	255	
255	255	255	
255	255	255	
255	255	255	
255	255	255	
255	255	255	
255	255	255	
255	255	255	
255	255	255	
255	255	255	
255	255	255	
255	255	255	
255	255	255	
255	255	255	
255	255	255	
255	255	255	
255	255	255	
255	255	255	
255	255	255	
255	255	255	
255	255	255	
255	255	255	
255	255	255	
255	255	255	
255	255	255	
255	255	255	
255	255	255	
255	255	255	
255	255	255	
255	255	255	
255	255	255	
255	255	255	
255	255	255	
255	255	255	
255	255	255	
255	255	255	
255	255	255	
255	255	255	
255	255	255	
255	255	255	
255	255	255	
255	255	255	
255	255	255	
255	255	255	
255	255	255	
255	255	255	
255	255	255	
255	255	255	
255	255	255	
255	255	255	
255	255	255	
255	255	255	
255	255	255	
255	255	255	
255	255	255	
255	255	255	
255	255	255	
255	255	255	
255	255	255	
255	255	255	
255	255	255	
255	255	255	
255	255	255	
255	255	255	
255	255	255	
255	255	255	
255	255	255	
255	255	255	
255	255	255	
255	255	255	
255	255	255	
255	255	255	
255	255	255	
255	255	255	
255	255	255	
255	255	255	
255	255	255	
255	255	255	
255	255	255	
255	255	255	
255	255	255	
255	255	255	
255	255	255	
255	255	255	
255	255	255	
255	255	255	
255	255	255	
255	255	255	
255	255	255	
255	255	255	
255	255	255	
255	255	255	
255	255	255	
255	255	255	
255	255	255	
255	255	255	
255	255	255	
255	255	255	
255	255	255	
255	255	255	
255	255	255	
255	255	255	
255	255	255	
255	255	255	
255	255	255	
255	255	255	
255	255	255	
255	255	255	
255	255	255	
255	255	255	
255	255	255	
255	255	255	
255	255	255	
255	255	255	
255	255	255	
255	255	255	
255	255	255	
255	255	255	
255	255	255	
255	255	255	
255	255	255	
255	255	255	
255	255	255	
255	255	255	
255	255	255	
255	255	255	
255	255	255	
255	255	255	
255	255	255	
255	255	255	
255	255	255	
255	255	255	
255	255	255	
255	255	255	
255	255	255	
255	255	255	
255	255	255	
255	255	255	
255	255	255	
255	255	255	
255	255	255	
255	255	255	
255	255	255	
255	255	255	
255	255	255	
255	255	255	
255	255	255	
255	255	255	
255	255	255	
255	255	255	
255	255	255	
255	255	255	
255	255	255	
255	255	255	
255	255	255	
255	255	255	
255	255	255	
255	255	255	
255	255	255	
255	255	255	
255	255	255	
255	255	255	
255	255	255	
255	255	255	
255	255	255	
255	255	255	
255	255	255	
255	255	255	
255	255	255	
255	255	255	
255	255	255	
255	255	255	
255	255	255	
255	255	255	
255	255	255	
255	255	255	
255	255	255	
255	255	255	
255	255	255	
255	255	255	
255	255	255	
255	255	255	
255	255	255	
255	255	255	
255	255	255	
255	255	255	
255	255	255	
255	255	255	
255	255	255	
255	255	255	
255	255	255	
255	255	255	
255	255	255	
255	255	255	
255	255	255	
255	255	255	
255	255	255	
255	255	255	
255	255	255	
255	255	255	
255	255	255	
255	255	255	
255	255	255	
255	255	255	
255	255	255	
255	255	255	
255	255	255	
255	255	255	
255	255	255	
255	255	255	
255	255	255	
255	255	255	
255	255	255	
255	255	255	
255	255	255	
255	255	255	
255	255	255	
255	255	255	
255	255	255	
255	255	255	
255	255	255	
255	255	255	
255	255	255	
255	255	255	
255	255	255	
255	255	255	
255	255	255	
255	255	255	
255	255	255	
255	255	255	
255	255	255	
255	255	255	
255	255	255	
255	255	255	
255	255	255	
255	255	255	
255	255	255	
255	255	255	
255	255	255	
255	255	255	
255	255	255	
255	255	255	
255	255	255	
255	255	255	
255	255	255	
255	255	255	
255	255	255	
255	255	255	
255	255	255	
255	255	255	
255	255	255	
255	255	255	
255	255	255	
255	255	255	
255	255	255	
255	255	255	
255	255	255	
255	255	255	
255	255	255	
255	255	255	
255	255	255	
255	255	255	
255	255	255	
255	255	255	
255	255	255	
255	255	255	
255	255	255	
255	255	255	
255	255	255	
255	255	255	
255	255	255	
255	255	255	
255	255	255	
255	255	255	
255	255	255	
255	255	255	
255	255	255	
255	255	255	
255	255	255	
255	255	255	
255	255	255	
255	255	255	
255	255	255	
255	255	255	
255	255	255	
255	255	255	
255	255	255	
255	255	255	
255	255	255	
255	255	255	
255	255	255	
255	255	255	
255	255	255	
255	255	255	
255	255	255	
255	255	255	
255	255	255	
255	255	255	
255	255	255	
255	255	255	
255	255	255	
255	255	255	
255	255	255	
255	255	255	
255	255	255	
255	255	255	
255	255	255	
255	255	255	
255	255	255	
255	255	255	
255	255	255	
255	255	255	
255	255	255	
255	255	255	
255	255	255	
255	255	255	
255	255	255	
255	255	255	
255	255	255	
255	255	255	
255	255	255	
255	255	255	
255	255	255	
255	255	255	
255	255	255	
255	255	255	
255	255	255	
255	255	255	
255	255	255	
255	255	255	
255	255	255	
255	255	255	
255	255	255	
255	255	255	
255	255	255	
255	255	255	
255	255	255	
255	255	255	
255	255	255	
255	255	255	
255	255	255	
255	255	255	
255	255	255	
255	255	255	
255	255	255	
255	255	255	
255	255	255	
255	255	255	
255	255	255	
255	255	255	
255	255	255	
255	255	255	
255	255	255	
255	255	255	
255	255	255	
255	255	255	
255	255	255	
255	255	255	
255	255	255	
255	255	255	
255	255	255	
255	255	255	
255	255	255	
255	255	255	
255	255	255	
255	255	255	
255	255	255	
255	255	255	
255	255	255	
255	255	255	
255	255	255	
255	255	255	
255	255	255	
255	255	255	
255	255	255	
255	255	255	
255	255	255	
255	255	255	
255	255	255	
255	255	255	
255	255	255	
255	255	255	
255	255	255	
255	255	255	
255	255	255	
255	255	255	
255	255	255	
255	255	255	
255	255	255	
255	255	255	
255	255	255	
255	255	255	
255	255	255	
255	255	255	
255	255	255	
255	255	255	
255	255	255	
255	255	255	
255	255	255	
255	255	255	
255	255	255	
255	255	255	
255	255	255	
255	255	255	
255	255	255	
255	255	255	
255	255	255	
255	255	255	
255	255	255	
255	255	255	
255	255	255	
255	255	255	
255	255	255	
255	255	255	
255	255	255	
255	255	255	
255	255	255	
255	255	255	
255	255	255	
255	255	255	
255	255	255	
255	255	255	
255	255	255	
255	255	255	
255	255	255	
255	255	255	
255	255	255	
255	255	255	
255	255	255	
255	255	255	
255	255	255	
255	255	255	
255	255	255	
255	255	255	
255	255	255	
255	255	255	
255	255	255	
255	255	255	
255	255	255	
255	255	255	
255	255	255	
255	255	255	
255	255	255	
255	255	255	
255	255	255	
255	255	255	
255	255	255	
255	255	255	
255	255	255	
255	255	255	
255	255	255	
255	255	255	
255	255	255	
255	255	255	
255	255	255	
255	255	255	
255	255	255	
255	255	255	
255	255	255	
255	255	255	
255	255	255	
255	255	255	
255	255	255	
255	255	255	
255	255	255	
255	255	255	
255	255	255	
255	255	255	
255	255	255	
255	255	255	
255	255	255	
255	255	255	
255	255	255	
255	255	255	
255	255	255	
255	255	255	
255	255	255	
255	255	255	
255	255	255	
255	255	255	
255	255	255	
255	255	255	
255	255	255	
255	255	255	
255	255	255	
255	255	255	
255	255	255	
255	255	255	
255	255	255	
255	255	255	
255	255	255	
255	255	255	
255	255	255	
255	255	255	
255	255	255	
255	255	255	
255	255	255	
255	255	255	
255	255	255	
255	255	255	
255	255	255	
255	255	255	
255	255	255	
255	255	255	
255	255	255	
255	255	255	
255	255	255	
255	255	255	
255	255	255	
255	255	255	
255	255	255	
255	255	255	
255	255	255	
255	255	255	
255	255	255	
255	255	255	
255	255	255	
255	255	255	
255	255	255	
255	255	255	
255	255	255	
255	255	255	
255	255	255	
255	255	255	
255	255	255	
255	255	255	
255	255	255	
255	255	255	
255	255	255	
255	255	255	
255	255	255	
255	255	255	
255	255	255	
255	255	255	
255	255	255	
255	255	255	
255	255	255	
255	255	255	
255	255	255	
255	255	255	
255	255	255	
255	255	255	
255	255	255	
255	255	255	
255	255	255	
255	255	255	
255	255	255	
255	255	255	
255	255	255	
255	255	255	
255	255	255	
255	255	255	
255	255	255	
255	255	255	
255	255	255	
255	255	255	
255	255	255	
255	255	255	
255	255	255	
255	255	255	
255	255	255	
255	255	255	
255	255	255	
255	255	255	
255	255	255	
255	255	255	
255	255	255	
255	255	255	
255	255	255	
255	255	255	
255	255	255	
255	255	255	
255	255	255	
255	255	255	
255	255	255	
255	255	255	
255	255	255	
255	255	255	
255	255	255	
255	255	255	
255	255	255	
255	255	255	
255	255	255	
255	255	255	
255	255	255	
255	255	255	
255	255	255	
255	255	255	
255	255	255	
255	255	255	
255	255	255	
255	255	255	
255	255	255	
255	255	255	
255	255	255	
255	255	255	
255	255	255	
255	255	255	
255	255	255	
255	255	255	
255	255	255	
255	255	255	
255	255	255	
255	255	255	
255	255	255	
255	255	255	
255	255	255	
255	255	255	
255	255	255	
255	255	255	
255	255	255	
255	255	255	
255	255	255	
255	255	255	
255	255	255	
255	255	255	
255	255	255	
255	255	255	
255	255	255	
255	255	255	
255	255	255	
255	255	255	
255	255	255	
255	255	255	
255	255	255	
255	255	255	
255	255	255	
255	255	255	
255	255	255	
255	255	255	
255	255	255	
255	255	255	
255	255	255	
255	255	255	
255	255	255	
255	255	255	
255	255	255	
255	255	255	
255	255	255	
255	255	255	
255	255	255	
255	255	255	
255	255	255	
255	255	255	
255	255	255	
255	255	255	
255	255	255	
255	255	255	
255	255	255	
255	255	255	
255	255	255	
255	255	255	
255	255	255	
255	255	255	
255	255	255	
255	255	255	
255	255	255	
255	255	255	
255	255	255	
255	255	255	
255	255	255	
255	255	255	
255	255	255	
255	255	255	
255	255	255	
255	255	255	
255	255	255	
255	255	255	
255	255	255	
255	255	255	
255	255	255	
255	255	255	
255	255	255	
255	255	255	
255	255	255	
255	255	255	
255	255	255	
255	255	255	
255	255	255	
255	255	255	
255	255	255	
255	255	255	
255	255	255	
255	255	255	
255	255	255	
255	255	255	
255	255	255	
255	255	255	
255	255	255	
255	255	255	
255	255	255	
255	255	255	
255	255	255	
255	255	255	
255	255	255	
255	255	255	
255	255	255	
255	255	255	
255	255	255	
255	255	255	
255	255	255	
255	255	255	
255	255	255	
255	255	255	
255	255	255	
255	255	255	
255	255	255	
255	255	255	
255	255	255	
255	255	255	
255	255	255	
255	255	255	
255	255	255	
255	255	255	
255	255	255	
255	255	255	
255	255	255	
255	255	255	
255	255	255	
255	255	255	
255	255	255	
255	255	255	
255	255	255	
255	255	255	
255	255	255	
255	255	255	
255	255	255	
255	255	255	
255	255	255	
255	255	255	
255	255	255	
255	255	255	
255	255	255	
255	255	255	
255	255	255	
255	255	255	
255	255	255	
255	255	255	
255	255	255	
255	255	255	
255	255	255	
255	255	255	
255	255	255	
255	255	255	
255	255	255	
255	255	255	
255	255	255	
255	255	255	
255	255	255	
255	255	255	
255	255	255	
255	255	255	
255	255	255	
255	255	255	
255	255	255	
255	255	255	
255	255	255	
255	255	255	
255	255	255	
255	255	255	
255	255	255	
255	255	255	
255	255	255	
255	255	255	
255	255	255	
255	255	255	
255	255	255	
255	255	255	
255	255	255	
255	255	255	
255	255	255	
255	255	255	
255	255	255	
255	255	255	
255	255	255	
255	255	255	
255	255	255	
255	255	255	
255	255	255	
255	255	255	
255	255	255	
255	255	255	
255	255	255	
255	255	255	
255	255	255	
255	255	255	
255	255	255	
255	255	255	
255	255	255	
255	255	255	
255	255	255	
255	255	255	
255	255	255	
255	255	255	
255	255	255	
255	255	255	
255	255	255	
255	255	255	
255	255	255	
255	255	255	
255	255	255	
255	255	255	
255	255	255	
255	255	255	
255	255	255	
255	255	255	
255	255	255	
255	255	255	
255	255	255	
255	255	255	
255	255	255	
255	255	255	
255	255	255	
255	255	255	
255	255	255	
255	255	255	
255	255	255	
255	255	255	
255	255	255	
255	255	255	
255	255	255	
255	255	255	
255	255	255	
255	255	255	
255	255	255	
255	255	255	
255	255	255	
255	255	255	
255	255	255	
255	255	255	
255	255	255	
255	255	255	
255	255	255	
255	255	255	
255	255	255	
255	255	255	
255	255	255	
255	255	255	
255	255	255	
255	255	255	
255	255	255	
255	255	255	
255	255	255	
255	255	255	
255	255	255	
255	255	255	
255	255	255	
255	255	255	
255	255	255	
255	255	255	
255	255	255	
255	255	255	
255	255	255	
255	255	255	
255	255	255	
255	255	255	
255	255	255	
255	255	255	
255	255	255	
255	255	255	
255	255	255	
255	255	255	
255	255	255	
255	255	255	
255	255	255	
255	255	255	
255	255	255	
255	255	255	
255	255	255	
255	255	255	
255	255	255	
255	255	255	
255	255	255	
255	255	255	
255	255	255	
255	255	255	
255	255	255	
255	255	255	
255	255	255	
255	255	255	
255	255	255	
255	255	255	
255	255	255	
255	255	255	
255	255	255	
255	255	255	
255	255	255	
255	255	255	
255	255	255	
255	255	255	
255	255	255	
255	255	255	
255	255	255	
255	255	255	
255	255	255	
255	255	255	
255	255	255	
255	255	255	
255	255	255	
255	255	255	
255	255	255	
255	255	255	
255	255	255	
255	255	255	
255	255	255	
255	255	255	
255	255	255	
255	255	255	
255	255	255	
255	255	255	
255	255	255	
255	255	255	
255	255	255	
255	255	255	
255	255	255	
255	255	255	
255	255	255	
255	255	255	
255	255	255	
255	255	255	
255	255	255	
255	255	255	
255	255	255	
255	255	255	
255	255	255	
255	255	255	
255	255	255	
255	255	255	
255	255	255	
255	255	255	
255	255	255	
255	255	255	
255	255	255	
255	255	255	
255	255	255	
255	255	255	
255	255	255	
255	255	255	
255	255	255	
255	255	255	
255	255	255	
255	255	255	
255	255	255	
255	255	255	
255	255	255	
255	255	255	
255	255	255	
255	255	255	
255	255	255	
255	255	255	
255	255	255	
255	255	255	
255	255	255	
255	255	255	
255	255	255	
255	255	255	
255	255	255	
255	255	255	
255	255	255	
255	255	255	
255	255	255	
255	255	255	
255	255	255	
255	255	255	
255	255	255	
255	255	255	
255	255	255	
255	255	255	
255	255	255	
255	255	255	
255	255	255	
255	255	255	
255	255	255	
255	255	255	
255	255	255	
255	255	255	
255	255	255	
255	255	255	
255	255	255	
255	255	255	
255	255	255	
255	255	255	
255	255	255	
255	255	255	
255	255	255	
255	255	255	
255	255	255	
255	255	255	
255	255	255	
255	255	255	
255	255	255	
255	255	255	
255	255	255	
255	255	255	
255	255	255	
255	255	255	
255	255	255	
255	255	255	
255	255	255	
255	255	255	
255	255	255	
255	255	255	
255	255	255	
255	255	255	
255	255	255	
255	255	255	
255	255	255	
255	255	255	
255	255	255	
255	255	255	
255	255	255	
255	255	255	
255	255	255	
255	255	255	
255	255	255	
255	255	255	
255	255	255	
255	255	255	
255	255	255	
255	255	255	
255	255	255	
255	255	255	
255	255	255	
255	255	255	
255	255	255	
255	255	255	
255	255	255	
255	255	255	
255	255	255	
255	255	255	
255	255	255	
255	255	255	
255	255	255	
255	255	255	
255	255	255	
255	255	255	
255	255	255	
255	255	255	
255	255	255	
255	255	255	
255	255	255	
255	255	255	
255	255	255	
255	255	255	
255	255	255	
255	255	255	
255	255	255	
255	255	255	
255	255	255	
255	255	255	
255	255	255	
255	255	255	
255	255	255	
255	255	255	
255	255	255	
255	255	255	
255	255	255	
255	255	255	
255	255	255	
255	255	255	
255	255	255	
255	255	255	
255	255	255	
255	255	255	
255	255	255	
255	255	255	
255	255	255	
255	255	255	
255	255	255	
255	255	255	
255	255	255	
255	255	255	
255	255	255	
255	255	255	
255	255	255	
255	255	255	
255	255	255	
255	255	255	
255	255	255	
255	255	255	
255	255	255	
255	255	255	
255	255	255	
255	255	255	
255	255	255	
255	255	255	
255	255	255	
255	255	255	
255	255	255	
255	255	255	
255	255	255	
255	255	255	
255	255	255	
255	255	255	
255	255	255	
255	255	255	
255	255	255	
255	255	255	
255	255	255	
255	255	255	
255	255	255	
255	255	255	
255	255	255	
255	255	255	
255	255	255	
255	255	255	
255	255	255	
255	255	255	
255	255	255	
255	255	255	
255	255	255	
255	255	255	
255	255	255	
255	255	255	
255	255	255	
255	255	255	
255	255	255	
255	255	255	
255	255	255	
255	255	255	
255	255	255	
255	255	255	
255	255	255	
255	255	255	
255	255	255	
255	255	255	
255	255	255	
255	255	255	
255	255	255	
255	255	255	
255	255	255	
255	255	255	
255	255	255	
255	255	255	
255	255	255	
255	255	255	
255	255	255	
255	255	255	
255	255	255	
255	255	255	
255	255	255	
255	255	255	
255	255	255	
255	255	255	
255	255	255	
255	255	255	
255	255	255	
255	255	255	
255	255	255	
255	255	255	
255	255	255	
255	255	255	
255	255	255	
255	255	255	
255	255	255	
255	255	255	
255	255	255	
255	255	255	
255	255	255	
255	255	255	
255	255	255	
255	255	255	
255	255	255	
255	255	255	
255	255	255	
255	255	255	
255	255	255	
255	255	255	
255	255	255	
255	255	255	
255	255	255	
255	255	255	
255	255	255	
255	255	255	
255	255	255	
255	255	255	
255	255	255	
255	255	255	
255	255	255	
255	255	255	
255	255	255	
255	255	255	
255	255	255	
255	255	255	
255	255	255	
255	255	255	
255	255	255	
255	255	255	
255	255	255	
255	255	255	
255	255	255	
255	255	255	
255	255	255	
255	255	255	
255	255	255	
255	255	255	
255	255	255	
255	255	255	
255	255	255	
255	255	255	
255	255	255	
255	255	255	
255	255	255	
255	255	255	
255	255	255	
255	255	255	
255	255	255	
255	255	255	
255	255	255	
255	255	255	
255	255	255	
255	255	255	
255	255	255	
255	255	255	
255	255	255	
255	255	255	
255	255	255	
255	255	255	
255	255	255	
255	255	255	
255	255	255	
255	255	255	
255	255	255	
255	255	255	
255	255	255	
255	255	255	
255	255	255	
255	255	255	
255	255	255	
255	255	255	
255	255	255	
255	255	255	
255	255	255	
255	255	255	
255	255	255	
255	255	255	
255	255	255	
255	255	255	
255	255	255	
255	255	255	
255	255	255	
255	255	255	
255	255	255	
255	255	255	
255	255	255	
255	255	255	
255	255	255	
255	255	255	
255	255	255	
255	255	255	
255	255	255	
255	255	255	
255	255	255	
255	255	255	
255	255	255	
255	255	255	
255	255	255	
255	255	255	
255	255	255	
255	255	255	
255	255	255	
255	255	255	
255	255	255	
255	255	255	
255	255	255	
255	255	255	
255	255	255	
255	255	255	
255	255	255	
255	255	255	
255	255	255	
255	255	255	
255	255	255	
255	255	255	
255	255	255	
255	255	255	
255	255	255	
255	255	255	
255	255	255	
255	255	255	
255	255	255	
255	255	255	
255	255	255	
255	255	255	
255	255	255	
255	255	255	
255	255	255	
255	255	255	
255	255	255	
255	255	255	
255	255	255	
255	255	255	
255	255	255	
255	255	255	
255	255	255	
255	255	255	
255	255	255	
255	255	255	
255	255	255	
255	255	255	
255	255	255	
255	255	255	
255	255	255	
255	255	255	
255	255	255	
255	255	255	
255	255	255	
255	255	255	
255	255	255	
255	255	255	
255	255	255	
255	255	255	
255	255	255	
255	255	255	
255	255	255	
255	255	255	
255	255	255	
255	255	255	
255	255	255	
255	255	255	
255	255	255	
255	255	255	
255	255	255	
255	255	255	
255	255	255	
255	255	255	
255	255	255	
255	255	255	
255	255	255	
255	255	255	
255	255	255	
255	255	255	
255	255	255	
255	255	255	
255	255	255	
255	255	255	
255	255	255	
255	255	255	
255	255	255	
255	255	255	
255	255	255	
255	255	255	
255	255	255	
255	255	255	
255	255	255	
255	255	255	
255	255	255	
255	255	255	
255	255	255	
255	255	255	
255	255	255	
255	255	255	
255	255	255	
255	255	255	
255	255	255	
255	255	255	
255	255	255	
255	255	255	
255	255	255	
255	255	255	
255	255	255	
255	255	255	
255	255	255	
255	255	255	
255	255	255	
255	255	255	
255	255	255	
255	255	255	
255	255	255	
255	255	255	
255	255	255	
255	255	255	
255	255	255	
255	255	255	
255	255	255	
255	255	255	
255	255	255	
255	255	255	
255	255	255	
255	255	255	
255	255	255	
255	255	255	
255	255	255	
255	255	255	
255	255	255	
255	255	255	
255	255	255	
255	255	255	
255	255	255	
255	255	255	
255	255	255	
255	255	255	
255	255	255	
255	255	255	
255	255	255	
255	255	255	
255	255	255	
255	255	255	
255	255	255	
255	255	255	
255	255	255	
255	255	255	
255	255	255	
255	255	255	
255	255	255	
255	255	255	
255	255	255	
255	255	255	
255	255	255	
255	255	255	
255	255	255	
255	255	255	
255	255	255	
255	255	255	
255	255	255	
255	255	255	
255	255	255	
255	255	255	
255	255	255	
255	255	255	
255	255	255	
255	255	255	
255	255	255	
255	255	255	
255	255	255	
255	255	255	
255	255	255	
255	255	255	
255	255	255	
255	255	255	
255	255	255	
255	255	255	
255	255	255	
255	255	255	
255	255	255	
255	255	255	
255	255	255	
255	255	255	
255	255	255	
255	255	255	
255	255	255	
255	255	255	
255	255	255	
255	255	255	
255	255	255	
255	255	255	
255	255	255	
255	255	255	
255	255	255	
255	255	255	
255	255	255	
255	255	255	
255	255	255	
255	255	255	
255	255	255	
255	255	255	
255	255	255	
255	255	255	
255	255	255	
255	255	255	
255	255	255	
255	255	255	
255	255	255	
255	255	255	
255	255	255	
255	255	255	
255	255	255	
255	255	255	
255	255	255	
255	255	255	
255	255	255	
255	255	255	
255	255	255	
255	255	255	
255	255	255	
255	255	255	
255	255	255	
255	255	255	
255	255	255	
255	255	255	
255	255	255	
255	255	255	
255	255	255	
255	255	255	
255	255	255	
255	255	255	
255	255	255	
255	255	255	
255	255	255	
255	255	255	
255	255	255	
255	255	255	
255	255	255	
255	255	255	
255	255	255	
255	255	255	
255	255	255	
255	255	255	
255	255	255	
255	255	255	
255	255	255	
255	255	255	
255	255	255	
255	255	255	
255	255	255	
255	255	255	
255	255	255	
255	255	255	
255	255	255	
255	255	255	
255	255	255	
255	255	255	
255	255	255	
255	255	255	
255	255	255	
255	255	255	
255	255	255	
255	255	255	
255	255	255	
255	255	255	
255	255	255	
255	255	255	
255	255	255	
255	255	255	
255	255	255	
255	255	255	
255	255	255	
255	255	255	
255	255	255	
255	255	255	
255	255	255	
255	255	255	
255	255	255	
255	255	255	
255	255	255	
255	255	255	
255	255	255	
255	255	255	
255	255	255	
255	255	255	
255	255	255	
255	255	255	
255	255	255	
255	255	255	
255	255	255	
255	255	255	
255	255	255	
255	255	255	
255	255	255	
255	255	255	
255	255	255	
255	255	255	
255	255	255	
255	255	255	
255	255	255	
255	255	255	
255	255	255	
255	255	255	
255	255	255	
255	255	255	
255	255	255	
255	255	255	
255	255	255	
255	255	255	
255	255	255	
255	255	255	
255	255	255	
255	255	255	
255	255	255	
255	255	255	
255	255	255	
255	255	255	
255	255	255	
255	255	255	
255	255	255	
255	255	255	
255	255	255	
255	255	255	
255	255	255	
255	255	255	
255	255	255	
255	255	255	
255	255	255	
255	255	255	
255	255	255	
255	255	255	
255	255	255	
255	255	255	
255	255	255	
255	255	255	
255	255	255	
255	255	255	
255	255	255	
255	255	255	
255	255	255	
255	255	255	
255	255	255	
255	255	255	
255	255	255	
255	255	255	
255	255	255	
255	255	255	
255	255	255	
255	255	255	
255	255	255	
255	255	255	
255	255	255	
255	255	255	
255	255	255	
255	255	255	
255	255	255	
255	255	255	
255	255	255	
255	255	255	
255	255	255	
255	255	255	
255	255	255	
255	255	255	
255	255	255	
255	255	255	
255	255	255	
255	255	255	
255	255	255	
255	255	255	
255	255	255	
255	255	255	
255	255	255	
255	255	255	
255	255	255	
255	255	255	
255	255	255	
255	255	255	
255	255	255	
255	255	255	
255	255	255	
255	255	255	
255	255	255	
255	255	255	
255	255	255	
255	255	255	
255	255	255	
255	255	255	
255	255	255	
255	255	255	
255	255	255	
255	255	255	
255	255	255	
255	255	255	
255	255	255	
255	255	255	
255	255	255	
255	255	255	
255	255	255	
255	255	255	
255	255	255	
255	255	255	
255	255	255	
255	255	255	
255	255	255	
255	255	255	
255	255	255	
255	255	255	
255	255	255	
255	255	255	
255	255	255	
255	255	255	
255	255	255	
255	255	255	
255	255	255	
255	255	255	
255	255	255	
255	255	255	
255	255	255	
255	255	255	
255	255	255	
255	255	255	
255	255	255	
255	255	255	
255	255	255	
255	255	255	
255	255	255	
255	255	255	
255	255	255	
255	255	255	
255	255	255	
255	255	255	
255	255	255	
255	255	255	
255	255	255	
255	255	255	
255	255	255	
255	255	255	
255	255	255	
255	255	255	
255	255	255	
255	255	255	
255	255	255	
255	255	255	
255	255	255	
255	255	255	
255	255	255	
255	255	255	
255	255	255	
255	255	255	
255	255	255	
255	255	255	
255	255	255	
255	255	255	
255	255	255	
255	255	255	
255	255	255	
255	255	255	
255	255	255	
255	255	255	
255	255	255	
255	255	255	
255	255	255	
255	255	255	
255	255	255	
255	255	255	
255	255	255	
255	255	255	
255	255	255	
255	255	255	
255	255	255	
255	255	255	
255	255	255	
255	255	255	
255	255	255	
255	255	255	
255	255	255	
255	255	255	
255	255	255	
255	255	255	
255	255	255	
255	255	255	
255	255	255	
255	255	255	
255	255	255	
255	255	255	
255	255	255	
255	255	255	
255	255	255	
255	255	255	
255	255	255	
255	255	255	
255	255	255	
255	255	255	
255	255	255	
255	255	255	
255	255	255	
255	255	255	
255	255	255	
255	255	255	
255	255	255	
255	255	255	
255	255	255	
255	255	255	
255	255	255	
255	255	255	
255	255	255	
255	255	255	
255	255	255	
255	255	255	
255	255	255	
255	255	255	
255	255	255	
255	255	255	
255	255	255	
255	255	255	
255	255	255	
255	255	255	
255	255	255	
255	255	255	
255	255	255	
255	255	255	
255	255	255	
255	255	255	
255	255	255	
255	255	255	
255	255	255	
255	255	255	
255	255	255	
255	255	255	
255	255	255	
255	255	255	
255	255	255	
255	255	255	
255	255	255	
255	255	255	
255	255	255	
255	255	255	
255	255	255	
255	255	255	
255	255	255	
255	255	255	
255	255	255	
255	255	255	
255	255	255	
255	255	255	
255	255	255	
255	255	255	
255	255	255	
255	255	255	
255	255	255	
255	255	255	
255	255	255	
255	255	255	
255	255	255	
255	255	255	
255	255	255	
255	255	255	
255	255	255	
255	255	255	
255	255	255	
255	255	255	
255	255	255	
255	255	255	
255	255	255	
255	255	255	
255	255	255	
255	255	255	
255	255	255	
255	255	255	
255	255	255	
255	255	255	
255	255	255	
255	255	255	
255	255	255	
255	255	255	
255	255	255	
255	255	255	
255	255	255	
255	255	255	
255	255	255	
255	255	255	
255	255	255	
255	255	255	
255	255	255	
255	255	255	
255	255	255	
255	255	255	
255	255	255	
255	255	255	
255	255	255	
255	255	255	
255	255	255	
255	255	255	
255	255	255	
255	255	255	
255	255	255	
255	255	255	
255	255	255	
255	255	255	
255	255	255	
255	255	255	
255	255	255	
255	255	255	
255	255	255	
255	255	255	
255	255	255	
255	255	255	
255	255	255	
255	255	255	
255	255	255	
255	255	255	
255	255	255	
255	255	255	
255	255	255	
255	255	255	
255	255	255	
255	255	255	
255	255	255	
255	255	255	
255	255	255	
255	255	255	
255	255	255	
255	255	255	
255	255	255	
255	255	255	
255	255	255	
255	255	255	
255	255	255	
255	255	255	
255	255	255	
255	255	255	
255	255	255	
255	255	255	
255	255	255	
255	255	255	
255	255	255	
255	255	255	
255	255	255	
255	255	255	
255	255	255	
255	255	255	
255	255	255	
255	255	255	
255	255	255	
255	255	255	
255	255	255	
255	255	255	
255	255	255	
255	255	255	
255	255	255	
255	255	255	
255	255	255	
255	255	255	
255	255	255	
255	255	255	
255	255	255	
255	255	255	
255	255	255	
255	255	255	
255	255	255	
255	255	255	
255	255	255	
255	255	255	
255	255	255	
255	255	255	
255	255	255	
255	255	255	
255	255	255	
255	255	255	
255	255	255	
255	255	255	
255	255	255	
255	255	255	
255	255	255	
255	255	255	
255	255	255	
255	255	255	
255	255	255	
255	255	255	
255	255	255	
255	255	255	
255	255	255	
255	255	255	
255	255	255	
255	255	255	
255	255	255	
255	255	255	
255	255	255	
255	255	255	
255	255	255	
255	255	255	
255	255	255	
255	255	255	
255	255	255	
255	255	255	
255	255	255	
255	255	255	
255	255	255	
255	255	255	
255	255	255	
255	255	255	
255	255	255	
255	255	255	
255	255	255	
255	255	255	
255	255	255	
255	255	255	
255	255	255	
255	255	255	
255	255	255	
255	255	255	
255	255	255	
255	255	255	
255	255	255	
255	255	255	
255	255	255	
255	255	255	
255	255	255	
255	255	255	
255	255	255	
255	255	255	
255	255	255	
255	255	255	
255	255	255	
255	255	255	
255	255	255	
255	255	255	
255	255	255	
255	255	255	
255	255	255	
255	255	255	
255	255	255	
255	255	255	
255	255	255	
255	255	255	
255	255	255	
255	255	255	
255	255	255	
255	255	255	
255	255	255	
255	255	255	
255	255	255	
255	255	255	
255	255	255	
255	255	255	
255	255	255	
255	255	255	
255	255	255	
255	255	255	
255	255	255	
255	255	255	
255	255	255	
255	255	255	
255	255	255	
255	255	255	
255	255	255	
255	255	255	
255	255	255	
255	255	255	
255	255	255	
255	255	255	
255	255	255	
255	255	255	
255	255	255	
255	255	255	
255	255	255	
255	255	255	
255	255	255	
255	255	255	
255	255	255	
255	255	255	
255	255	255	
255	255	255	
255	255	255	
255	255	255	
255	255	255	
255	255	255	
255	255	255	
255	255	255	
255	255	255	
255	255	255	
255	255	255	
255	255	255	
255	255	255	
255	255	255	
255	255	255	
255	255	255	
255	255	255	
255	255	255	
255	255	255	
255	255	255	
255	255	255	
255	255	255	
255	255	255	
255	255	255	
255	255	255	
255	255	255	
255	255	255	
255	255	255	
255	255	255	
255	255	255	
255	255	255	
255	255	255	
255	255	255	
255	255	255	
255	255	255	
255	255	255	
255	255	255	
255	255	255	
255	255	255	
255	255	255	
255	255	255	
255	255	255	
255	255	255	
255	255	255	
255	255	255	
255	255	255	
255	255	255	
255	255	255	
255	255	255	
255	255	255	
255	255	255	
255	255	255	
255	255	255	
255	255	255	
255	255	255	
255	255	255	
255	255	255	
255	255	255	
255	255	255	
255	255	255	
255	255	255	
255	255	255	
255	255	255	
255	255	255	
255	255	255	
255	255	255	
255	255	255	
255	255	255	
255	255	255	
255	255	255	
255	255	255	
255	255	255	
255	255	255	
255	255	255	
255	255	255	
255	255	255	
255	255	255	
255	255	255	
255	255	255	
255	255	255	
255	255	255	
255	255	255	
255	255	255	
255	255	255	
255	255	255	
255	255	255	
255	255	255	
255	255	255	
255	255	255	
255	255	255	
255	255	255	
255	255	255	
255	255	255	
255	255	255	
255	255	255	
255	255	255	
255	255	255	
255	255	255	
255	255	255	
255	255	255	
255	255	255	
255	255	255	
255	255	255	
255	255	255	
255	255	255	
255	255	255	
255	255	255	
255	255	255	
255	255	255	
255	255	255	
255	255	255	
255	255	255	
255	255	255	
255	255	255	
255	255	255	
255	255	255	
255	255	255	
255	255	255	
255	255	255	
255	255	255	
255	255	255	
255	255	255	
255	255	255	
255	255	255	
255	255	255	
255	255	255	
255	255	255	
255	255	255	
255	255	255	
255	255	255	
255	255	255	
255	255	255	
255	255	255	
255	255	255	
255	255	255	
255	255	255	
255	255	255	
255	255	255	
255	255	255	
255	255	255	
255	255	255	
255	255	255	
255	255	255	
255	255	255	
255	255	255	
255	255	255	
255	255	255	
255	255	255	
255	255	255	
255	255	255	
255	255	255	
255	255	255	
255	255	255	
255	255	255	
255	255	255	
255	255	255	
255	255	255	
255	255	255	
255	255	255	
255	255	255	
255	255	255	
255	255	255	
255	255	255	
255	255	255	
255	255	255	
255	255	255	
255	255	255	
255	255	255	
255	255	255	
255	255	255	
255	255	255	
255	255	255	
255	255	255	
255	255	255	
255	255	255	
255	255	255	
255	255	255	
255	255	255	
255	255	255	
255	255	255	
255	255	255	
255	255	255	
255	255	255	
255	255	255	
255	255	255	
255	255	255	
255	255	255	
255	255	255	
255	255	255	
255	255	255	
255	255	255	
255	255	255	
255	255	255	
255	255	255	
255	255	255	
255	255	255	
255	255	255	
255	255	255	
255	255	255	
255	255	255	
255	255	255	
255	255	255	
255	255	255	
255	255	255	
255	255	255	
255	255	255	
255	255	255	
255	255	255	
255	255	255	
255	255	255	
255	255	255	
255	255	255	
255	255	255	
255	255	255	
255	255	255	
255	255	255	
255	255	255	
255	255	255	
255	255	255	
255	255	255	
255	255	255	
255	255	255	
255	255	255	
255	255	255	
255	255	255	
255	255	255	
255	255	255	
255	255	255	
255	255	255	
255	255	255	
255	255	255	
255	255	255	
255	255	255	
255	255	255	
255	255	255	
255	255	255	
255	255	255	
255	255	255	
255	255	255	
255	255	255	
255	255	255	
255	255	255	
255	255	255	
255	255	255	
255	255	255	
255	255	255	
255	255	255	
255	255	255	
255	255	255	
255	255	255	
255	255	255	
255	255	255	
255	255	255	
255	255	255	
255	255	255	
255	255	255	
255	255	255	
255	255	255	
255	255	255	
255	255	255	
255	255	255	
255	255	255	
255	255	255	
255	255	255	
255	255	255	
255	255	255	
255	255	255	
255	255	255	
255	255	255	
255	255	255	
255	255	255	
255	255	255	
255	255	255	
255	255	255	
255	255	255	
255	255	255	
255	255	255	
255	255	255	
255	255	255	
255	255	255	
255	255	255	
255	255	255	
255	255	255	
255	255	255	
255	255	255	
255	255	255	
255	255	255	
255	255	255	
255	255	255	
255	255	255	
255	255	255	
255	255	255	
255	255	255	
255	255	255	
255	255	255	
255	255	255	
255	255	255	
255	255	255	
255	255	255	
255	255	255	
255	255	255	
255	255	255	
255	255	255	
255	255	255	
255	255	255	
255	255	255	
255	255	255	
255	255	255	
255	255	255	
255	255	255	
255	255	255	
255	255	255	
255	255	255	
255	255	255	
255	255	255	
255	255	255	
255	255	255	
255	255	255	
255	255	255	
255	255	255	
255	255	255	
255	255	255	
255	255	255	
255	255	255	
255	255	255	
255	255	255	
255	255	255	
255	255	255	
255	255	255	
255	255	255	
255	255	255	
255	255	255	
255	255	255	
255	255	255	
255	255	255	
255	255	255	
255	255	255	
255	255	255	
255	255	255	
255	255	255	
255	255	255	
255	255	255	
255	255	255	
255	255	255	
255	255	255	
255	255	255	
255	255	255	
255	255	255	
255	255	255	
255	255	255	
255	255	255	
255	255	255	
255	255	255	
255	255	255	
255	255	255	
255	255	255	
255	255	255	
255	255	255	
255	255	255	
255	255	255	
255	255	255	
255	255	255	
255	255	255	
255	255	255	
255	255	255	
255	255	255	
255	255	255	
255	255	255	
255	255	255	
255	255	255	
255	255	255	
255	255	255	
255	255	255	
255	255	255	
255	255	255	
255	255	255	
255	255	255	
255	255	255	
255	255	255	
255	255	255	
255	255	255	
255	255	255	
255	255	255	
255	255	255	
255	255	255	
255	255	255	
255	255	255	
255	255	255	
255	255	255	
255	255	255	
255	255	255	
255	255	255	
255	255	255	
255	255	255	
255	255	255	
255	255	255	
255	255	255	
255	255	255	
255	255	255	
255	255	255	
255	255	255	
255	255	255	
255	255	255	
255	255	255	
255	255	255	
255	255	255	
255	255	255	
255	255	255	
255	255	255	
255	255	255	
255	255	255	
255	255	255	
255	255	255	
255	255	255	
255	255	255	
255	255	255	
255	255	255	
255	255	255	
255	255	255	
255	255	255	
255	255	255	
255	255	255	
255	255	255	
255	255	255	
255	255	255	
255	255	255	
255	255	255	
255	255	255	
255	255	255	
255	255	255	
255	255	255	
255	255	255	
255	255	255	
255	255	255	
255	255	255	
255	255	255	
255	255	255	
255	255	255	
255	255	255	
255	255	255	
255	255	255	
255	255	255	
255	255	255	
255	255	255	
255	255	255	
255	255	255	
255	255	255	
255	255	255	
255	255	255	
255	255	255	
255	255	255	
255	255	255	
255	255	255	
255	255	255	
255	255	255	
255	255	255	
255	255	255	
255	255	255	
255	255	255	
255	255	255	
255	255	255	
255	255	255	
255	255	255	
255	255	255	
255	255	255	
255	255	255	
255	255	255	
255	255	255	
255	255	255	
255	255	255	
255	255	255	
255	255	255	
255	255	255	
255	255	255	
255	255	255	
255	255	255	
255	255	255	
255	255	255	
255	255	255	
255	255	255	
255	255	255	
255	255	255	
255	255	255	
255	255	255	
255	255	255	
255	255	255	
255	255	255	
255	255	255	
255	255	255	
255	255	255	
255	255	255	
255	255	255	
255	255	255	
255	255	255	
255	255	255	
255	255	255	
255	255	255	
255	255	255	
255	255	255	
255	255	255	
255	255	255	
255	255	255	
255	255	255	
255	255	255	
255	255	255	
255	255	255	
255	255	255	
255	255	255	
255	255	255	
255	255	255	
255	255	255	
255	255	255	
255	255	255	
255	255	255	
255	255	255	
255	255	255	
255	255	255	
255	255	255	
255	255	255	
255	255	255	
255	255	255	
255	255	255	
255	255	255	
255	255	255	
255	255	255	
255	255	255	
255	255	255	
255	255	255	
255	255	255	
255	255	255	
255	255	255	
255	255	255	
255	255	255	
255	255	255	
255	255	255	
255	255	255	
255	255	255	
255	255	255	
255	255	255	
255	255	255	
255	255	255	
255	255	255	
255	255	255	
255	255	255	
255	255	255	
255	255	255	
255	255	255	
255	255	255	
255	255	255	
255	255	255	
255	255	255	
255	255	255	
255	255	255	
255	255	255	
255	255	255	
255	255	255	
255	255	255	
255	255	255	
255	255	255	
255	255	255	
255	255	255	
255	255	255	
255	255	255	
255	255	255	
255	255	255	
255	255	255	
255	255	255	
255	255	255	
255	255	255	
255	255	255	
255	255	255	
255	255	255	
255	255	255	
255	255	255	
255	255	255	
255	255	255	
255	255	255	
255	255	255	
255	255	255	
255	255	255	
255	255	255	
255	255	255	
255	255	255	
255	255	255	
255	255	255	
255	255	255	
255	255	255	
255	255	255	
255	255	255	
255	255	255	
255	255	255	
255	255	255	
255	255	255	
255	255	255	
255	255	255	
255	255	255	
255	255	255	
255	255	255	
255	255	255	
255	255	255	
255	255	255	
255	255	255	
255	255	255	
255	255	255	
255	255	255	
255	255	255	
255	255	255	
255	255	255	
255	255	255	
255	255	255	
255	255	255	
255	255	255	
255	255	255	
255	255	255	
255	255	255	
255	255	255	
255	255	255	
255	255	255	
255	255	255	
255	255	255	
255	255	255	
255	255	255	
255	255	255	
255	255	255	
255	255	255	
255	255	255	
255	255	255	
255	255	255	
255	255	255	
255	255	255	
255	255	255	
255	255	255	
255	255	255	
255	255	255	
255	255	255	
255	255	255	
255	255	255	
255	255	255	
255	255	255	
255	255	255	
255	255	255	
255	255	255	
255	255	255	
255	255	255	
255	255	255	
255	255	255	
255	255	255	
255	255	255	
255	255	255	
255	255	255	
255	255	255	
255	255	255	
255	255	255	
255	255	255	
255	255	255	
255	255	255	
255	255	255	
255	255	255	
255	255	255	
255	255	255	
255	255	255	
255	255	255	
255	255	255	
255	255	255	
255	255	255	
255	255	255	
255	255	255	
255	255	255	
255	255	255	
255	255	255	
255	255	255	
255	255	255	
255	255	255	
255	255	255	
255	255	255	
255	255	255	
255	255	255	
255	255	255	
255	255	255	
255	255	255	
255	255	255	
255	255	255	
255	255	255	
255	255	255	
255	255	255	
255	255	255	
255	255	255	
255	255	255	
255	255	255	
255	255	255	
255	255	255	
255	255	255	
255	255	255	
255	255	255	
255	255	255	
255	255	255	
255	255	255	
255	255	255	
255	255	255	
255	255	255	
255	255	255	
255	255	255	
255	255	255	
255	255	255	
255	255	255	
255	255	255	
255	255	255	
255	255	255	
255	255	255	
255	255	255	
255	255	255	
255	255	255	
255	255	255	
255	255	255	
255	255	255	
255	255	255	
255	255	255	
255	255	255	
255	255	255	
255	255	255	
255	255	255	
255	255	255	
255	255	255	
255	255	255	
255	255	255	
255	255	255	
255	255	255	
255	255	255	
255	255	255	
255	255	255	
255	255	255	
255	255	255	
255	255	255	
255	255	255	
255	255	255	
255	255	255	
255	255	255	
255	255	255	
255	255	255	
255	255	255	
255	255	255	
255	255	255	
255	255	255	
255	255	255	
255	255	255	
255	255	255	
255	255	255	
255	255	255	
255	255	255	
255	255	255	
255	255	255	
255	255	255	
255	255	255	
255	255	255	
255	255	255	
255	255	255	
255	255	255	
255	255	255	
255	255	255	
255	255	255	
255	255	255	
255	255	255	
255	255	255	
255	255	255	
255	255	255	
255	255	255	
255	255	255	
255	255	255	
255	255	255	
255	255	255	
255	255	255	
255	255	255	
255	255	255	
255	255	255	
255	255	255	
255	255	255	
255	255	255	
255	255	255	
255	255	255	
255	255	255	
255	255	255	
255	255	255	
255	255	255	
255	255	255	
255	255	255	
255	255	255	
255	255	255	
255	255	255	
255	255	255	
255	255	255	
255	255	255	
255	255	255	
255	255	255	
255	255	255	
255	255	255	
255	255	255	
255	255	255	
255	255	255	
255	255	255	
255	255	255	
255	255	255	
255	255	255	
255	255	255	
255	255	255	
255	255	255	
255	255	255	
255	255	255	
255	255	255	
255	255	255	
255	255	255	
255	255	255	
255	255	255	
255	255	255	
255	255	255	
255	255	255	
255	255	255	
255	255	255	
255	255	255	
255	255	255	
255	255	255	
255	255	255	
255	255	255	
255	255	255	
255	255	255	
255	255	255	
255	255	255	
255	255	255	
255	255	255	
255	255	255	
255	255	255	
255	255	255	
255	255	255	
255	255	255	
255	255	255	
255	255	255	
255	255	255	
255	255	255	
255	255	255	
255	255	255	
255	255	255	
255	255	255	
255	255	255	
255	255	255	
255	255	255	
255	255	255	
255	255	255	
255	255	255	
255	255	255	
255	255	255	
255	255	255	
255	255	255	
255	255	255	
255	255	255	
255	255	255	
255	255	255	
255	255	255	
255	255	255	
255	255	255	
255	255	255	
255	255	255	
255	255	255	
255	255	255	
255	255	255	
255	255	255	
255	255	255	
255	255	255	
255	255	255	
255	255	255	
255	255	255	
255	255	255	
255	255	255	
255	255	255	
255	255	255	
255	255	255	
255	255	255	
255	255	255	
255	255	255	
255	255	255	
255	255	255	
255	255	255	
255	255	255	
255	255	255	
255	255	255	
255	255	255	
255	255	255	
255	255	255	
255	255	255	
255	255	255	
255	255	255	
255	255	255	
255	255	255	
255	255	255	
255	255	255	
255	255	255	
255	255	255	
255	255	255	
255	255	255	
255	255	255	
255	255	255	
255	255	255	
255	255	255	
255	255	255	
255	255	255	
255	255	255	
255	255	255	
255	255	255	
255	255	255	
255	255	255	
255	255	255	
255	255	255	
255	255	255	
255	255	255	
255	255	255	
255	255	255	
255	255	255	
255	255	255	
255	255	255	
255	255	255	
255	255	255	
255	255	255	
255	255	255	
255	255	255	
255	255	255	
255	255	255	
255	255	255	
255	255	255	
255	255	255	
255	255	255	
255	255	255	
255	255	255	
255	255	255	
255	255	255	
255	255	255	
255	255	255	
255	255	255	
255	255	255	
255	255	255	
255	255	255	
255	255	255	
255	255	255	
255	255	255	
255	255	255	
255	255	255	
255	255	255	
255	255	255	
255	255	255	
255	255	255	
255	255	255	
255	255	255	
255	255	255	
255	255	255	
255	255	255	
255	255	255	
255	255	255	
255	255	255	
255	255	255	
255	255	255	
255	255	255	
255	255	255	
255	255	255	
255	255	255	
255	255	255	
255	255	255	
255	255	255	
255	255	255	
255	255	255	
255	255	255	
255	255	255	
255	255	255	
255	255	255	
255	255	255	
255	255	255	
255	255	255	
255	255	255	
255	255	255	
255	255	255	
255	255	255	
255	255	255	
255	255	255	
255	255	255	
255	255	255	
255	255	255	
255	255	255	
255	255	255	
255	255	255	
255	255	255	
255	255	255	
255	255	255	
255	255	255	
255	255	255	
255	255	255	
255	255	255	
255	255	255	
255	255	255	
255	255	255	
255	255	255	
255	255	255	
255	255	255	
255	255	255	
255	255	255	
255	255	255	
255	255	255	
255	255	255	
255	255	255	
255	255	255	
255	255	255	
255	255	255	
255	255	255	
255	255	255	
255	255	255	
255	255	255	
255	255	255	
255	255	255	
255	255	255	
255	255	255	
255	255	255	
255	255	255	
255	255	255	
255	255	255	
255	255	255	
255	255	255	
255	255	255	
255	255	255	
255	255	255	
255	255	255	
255	255	255	
255	255	255	
255	255	255	
255	255	255	
255	255	255	
255	255	255	
255	255	255	
255	255	255	
255	255	255	
255	255	255	
255	255	255	
255	255	255	
255	255	255	
255	255	255	
255	255	255	
255	255	255	
255	255	255	
255	255	255	
255	255	255	
255	255	255	
255	255	255	
255	255	255	
255	255	255	
255	255	255	
255	255	255	
255	255	255	
255	255	255	
255	255	255	
255	255	255	
255	255	255	
255	255	255	
255	255	255	
255	255	255	
255	255	255	
255	255	255	
255	255	255	
255	255	255	
255	255	255	
255	255	255	
255	255	255	
255	255	255	
255	255	255	
255	255	255	
255	255	255	
255	255	255	
255	255	255	
255	255	255	
255	255	255	
255	255	255	
255	255	255	
255	255	255	
255	255	255	
255	255	255	
255	255	255	
255	255	255	
255	255	255	
255	255	255	
255	255	255	
255	255	255	
255	255	255	
255	255	255	
255	255	255	
255	255	255	
255	255	255	
255	255	255	
255	255	255	
255	255	255	
255	255	255	
255	255	255	
255	255	255	
255	255	255	
255	255	255	
255	255	255	
255	255	255	
255	255	255	
255	255	255	
255	255	255	
255	255	255	
255	255	255	
255	255	255	
255	255	255	
255	255	255	
255	255	255	
255	255	255	
255	255	255	
255	255	255	
255	255	255	
255	255	255	
255	255	255	
255	255	255	
255	255	255	
255	255	255	
255	255	255	
255	255	255	
255	255	255	
255	255	255	
255	255	255	
255	255	255	
255	255	255	
255	255	255	
255	255	255	
255	255	255	
255	255	255	
255	255	255	
255	255	255	
255	255	255	
255	255	255	
255	255	255	
255	255	255	
255	255	255	
255	255	255	
255	255	255	
255	255	255	
255	255	255	
255	255	255	
255	255	255	
255	255	255	
255	255	255	
255	255	255	
255	255	255	
255	255	255	
255	255	255	
255	255	255	
255	255	255	
255	255	255	
255	255	255	
255	255	255	
255	255	255	
255	255	255	
255	255	255	
255	255	255	
255	255	255	
255	255	255	
255	255	255	
255	255	255	
255	255	255	
255	255	255	
255	255	255	
255	255	255	
255	255	255	
255	255	255	
255	255	255	
255	255	255	
255	255	255	
255	255	255	
255	255	255	
255	255	255	
255	255	255	
255	255	255	
255	255	255	
255	255	255	
255	255	255	
255	255	255	
255	255	255	
255	255	255	
255	255	255	
255	255	255	
255	255	255	
255	255	255	
255	255	255	
255	255	255	
255	255	255	
255	255	255	
255	255	255	
255	255	255	
255	255	255	
255	255	255	
255	255	255	
255	255	255	
255	255	255	
255	255	255	
255	255	255	
255	255	255	
255	255	255	
255	255	255	
255	255	255	
255	255	255	
255	255	255	
255	255	255	
255	255	255	
255	255	255	
255	255	255	
255	255	255	
255	255	255	
255	255	255	
255	255	255	
255	255	255	
255	255	255	
255	255	255	
255	255	255	
255	255	255	
255	255	255	
255	255	255	
255	255	255	
255	255	255	
255	255	255	
255	255	255	
255	255	255	
255	255	255	
255	255	255	
255	255	255	
255	255	255	
255	255	255	
255	255	255	
255	255	255	
255	255	255	
255	255	255	
255	255	255	
255	255	255	
255	255	255	
255	255	255	
255	255	255	
255	255	255	
255	255	255	
255	255	255	
255	255	255	
255	255	255	
255	255	255	
255	255	255	
255	255	255	
255	255	255	
255	255	255	
255	255	255	
255	255	255	
255	255	255	
255	255	255	
255	255	255	
255	255	255	
255	255	255	
255	255	255	
255	255	255	
255	255	255	
255	255	255	
255	255	255	
255	255	255	
255	255	255	
255	255	255	
255	255	255	
255	255	255	
255	255	255	
255	255	255	
255	255	255	
255	255	255	
255	255	255	
255	255	255	
255	255	255	
255	255	255	
255	255	255	
255	255	255	
255	255	255	
255	255	255	
255	255	255	
255	255	255	
255	255	255	
255	255	255	
255	255	255	
255	255	255	
255	255	255	
255	255	255	
255	255	255	
255	255	255	
255	255	255	
255	255	255	
255	255	255	
255	255	255	
255	255	255	
255	255	255	
255	255	255	
255	255	255	
255	255	255	
255	255	255	
255	255	255	
255	255	255	
255	255	255	
255	255	255	
255	255	255	
255	255	255	
255	255	255	
255	255	255	
255	255	255	
255	255	255	
255	255	255	
255	255	255	
255	255	255	
255	255	255	
255	255	255	
255	255	255	
255	255	255	
255	255	255	
255	255	255	
255	255	255	
255	255	255	
255	255	255	
255	255	255	
255	255	255	
255	255	255	
255	255	255	
255	255	255	
255	255	255	
255	255	255	
255	255	255	
255	255	255	
255	255	255	
255	255	255	
255	255	255	
255	255	255	
255	255	255	
255	255	255	
255	255	255	
255	255	255	
255	255	255	
255	255	255	
255	255	255	
255	255	255	
255	255	255	
255	255	255	
255	255	255	
255	255	255	
255	255	255	
255	255	255	
255	255	255	
255	255	255	
255	255	255	
255	255	255	
255	255	255	
255	255	255	
255	255	255	
255	255	255	
255	255	255	
255	255	255	
255	255	255	
255	255	255	
255	255	255	
255	255	255	
255	255	255	
255	255	255	
255	255	255	
255	255	255	
255	255	255	
255	255	255	
255	255	255	
255	255	255	
255	255	255	
255	255	255	
255	255	255	
255	255	255	
255	255	255	
255	255	255	
255	255	255	
255	255	255	
255	255	255	
255	255	255	
255	255	255	
255	255	255	
255	255	255	
255	255	255	
255	255	255	
255	255	255	
255	255	255	
255	255	255	
255	255	255	
255	255	255	
255	255	255	
255	255	255	
255	255	255	
255	255	255	
255	255	255	
255	255	255	
255	255	255	
255	255	255	
255	255	255	
255	255	255	
255	255	255	
255	255	255	
255	255	255	
255	255	255	
255	255	255	
255	255	255	
255	255	255	
255	255	255	
255	255	255	
255	255	255	
255	255	255	
255	255	255	
255	255	255	
255	255	255	
255	255	255	
255	255	255	
255	255	255	
255	255	255	
255	255	255	
255	255	255	
255	255	255	
255	255	255	
255	255	255	
255	255	255	
255	255	255	
255	255	255	
255	255	255	
255	255	255	
255	255	255	
255	255	255	
255	255	255	
255	255	255	
255	255	255	
255	255	255	
255	255	255	
255	255	255	
255	255	255	
255	255	255	
255	255	255	
255	255	255	
255	255	255	
255	255	255	
255	255	255	
255	255	255	
255	255	255	
255	255	255	
255	255	255	
255	255	255	
255	255	255	
255	255	255	
255	255	255	
255	255	255	
255	255	255	
255	255	255	
255	255	255	
255	255	255	
255	255	255	
255	255	255	
255	255	255	
255	255	255	
255	255	255	
255	255	255	
255	255	255	
255	255	255	
255	255	255	
255	255	255	
255	255	255	
255	255	255	
255	255	255	
255	255	255	
255	255	255	
255	255	255	
255	255	255	
255	255	255	
255	255	255	
255	255	255	
255	255	255	
255	255	255	
255	255	255	
255	255	255	
255	255	255	
255	255	255	
255	255	255	
255	255	255	
255	255	255	
255	255	255	
255	255	255	
255	255	255	
255	255	255	
255	255	255	
255	255	255	
255	255	255	
255	255	255	
255	255	255	
255	255	255	
255	255	255	
255	255	255	
255	255	255	
255	255	255	
255	255	255	
255	255	255	
255	255	255	
255	255	255	
255	255	255	
255	255	255	
255	255	255	
255	255	255	
255	255	255	
255	255	255	
255	255	255	
255	255	255	
255	255	255	
255	255	255	
255	255	255	
255	255	255	
255	255	255	
255	255	255	
255	255	255	
255	255	255	
255	255	255	
255	255	255	
255	255	255	
255	255	255	
255	255	255	
255	255	255	
255	255	255	
255	255	255	
255	255	255	
255	255	255	
255	255	255	
255	255	255	
255	255	255	
255	255	255	
255	255	255	
255	255	255	
255	255	255	
255	255	255	
255	255	255	
255	255	255	
255	255	255	
255	255	255	
255	255	255	
255	255	255	
255	255	255	
255	255	255	
255	255	255	
255	255	255	
255	255	255	
255	255	255	
255	255	255	
255	255	255	
255	255	255	
255	255	255	
255	255	255	
255	255	255	
255	255	255	
255	255	255	
255	255	255	
255	255	255	
255	255	255	
255	255	255	
255	255	255	
255	255	255	
255	255	255	
255	255	255	
255	255	255	
255	255	255	
255	255	255	
255	255	255	
255	255	255	
255	255	255	
255	255	255	
255	255	255	
255	255	255	
255	255	255	
255	255	255	
255	255	255	
255	255	255	
255	255	255	
255	255	255	
255	255	255	
255	255	255	
255	255	255	
255	255	255	
255	255	255	
255	255	255	
255	255	255	
255	255	255	
255	255	255	
255	255	255	
255	255	255	
255	255	255	
255	255	255	
255	255	255	
255	255	255	
255	255	255	
255	255	255	
255	255	255	
255	255	255	
255	255	255	
255	255	255	
255	255	255	
255	255	255	
255	255	255	
255	255	255	
255	255	255	
255	255	255	
255	255	255	
255	255	255	
255	255	255	
255	255	255	
255	255	255	
255	255	255	
255	255	255	
255	255	255	
255	255	255	
255	255	255	
255	255	255	
255	255	255	
255	255	255	
255	255	255	
255	255	255	
255	255	255	
255	255	255	
255	255	255	
255	255	255	
255	255	255	
255	255	255	
255	255	255	
255	255	255	
255	255	255	
255	255	255	
255	255	255	
255	255	255	
255	255	255	
255	255	255	
255	255	255	
255	255	255	
255	255	255	
255	255	255	
255	255	255	
255	255	255	
255	255	255	
255	255	255	
255	255	255	
255	255	255	
255	255	255	
255	255	255	
255	255	255	
255	255	255	
255	255	255	
255	255	255	
255	255	255	
255	255	255	
255	255	255	
255	255	255	
255	255	255	
255	255	255	
255	255	255	
255	255	255	
255	255	255	
255	255	255	
255	255	255	
255	255	255	
255	255	255	
255	255	255	
255	255	255	
255	255	255	
255	255	255	
255	255	255	
255	255	255	
255	255	255	
255	255	255	
255	255	255	
255	255	255	
255	255	255	
255	255	255	
255	255	255	
255	255	255	
255	255	255	
255	255	255	
255	255	255	
255	255	255	
255	255	255	
255	255	255	
255	255	255	
255	255	255	
255	255	255	
255	255	255	
255	255	255	
255	255	255	
255	255	255	
255	255	255	
255	255	255	
255	255	255	
255	255	255	
255	255	255	
255	255	255	
255	255	255	
255	255	255	
255	255	255	
255	255	255	
255	255	255	
255	255	255	
255	255	255	
255	255	255	
255	255	255	
255	255	255	
255	255	255	
255	255	255	
255	255	255	
255	255	255	
255	255	255	
255	255	255	
255	255	255	
255	255	255	
255	255	255	
255	255	255	
255	255	255	
255	255	255	
255	255	255	
255	255	255	
255	255	255	
255	255	255	
255	255	255	
255	255	255	
255	255	255	
255	255	255	
255	255	255	
255	255	255	
255	255	255	
255	255	255	
255	255	255	
255	255	255	
255	255	255	
255	255	255	
255	255	255	
255	255	255	
255	255	255	
255	255	255	
255	255	255	
255	255	255	
255	255	255	
255	255	255	
255	255	255	
255	255	255	
255	255	255	
255	255	255	
255	255	255	
255	255	255	
255	255	255	
255	255	255	
255	255	255	
255	255	255	
255	255	255	
255	255	255	
255	255	255	
255	255	255	
255	255	255	
255	255	255	
255	255	255	
255	255	255	
255	255	255	
255	255	255	
255	255	255	
255	255	255	
255	255	255	
255	255	255	
255	255	255	
255	255	255	
255	255	255	
255	255	255	
255	255	255	
255	255	255	
255	255	255	
255	255	255	
255	255	255	
255	255	255	
255	255	255	
255	255	255	
255	255	255	
255	255	255	
255	255	255	
255	255	255	
255	255	255	
255	255	255	
255	255	255	
255	255	255	
255	255	255	
255	255	255	
255	255	255	
255	255	255	
255	255	255	
255	255	255	
255	255	255	
255	255	255	
255	255	255	
255	255	255	
255	255	255	
255	255	255	
255	255	255	
255	255	255	
255	255	255	
255	255	255	
255	255	255	
255	255	255	
255	255	255	
255	255	255	
255	255	255	
255	255	255	
255	255	255	
255	255	255	
255	255	255	
255	255	255	
255	255	255	
255	255	255	
255	255	255	
255	255	255	
255	255	255	
255	255	255	
255	255	255	
255	255	255	
255	255	255	
255	255	255	
255	255	255	
255	255	255	
255	255	255	
255	255	255	
255	255	255	
255	255	255	
255	255	255	
255	255	255	
255	255	255	
255	255	255	
255	255	255	
255	255	255	
255	255	255	
255	255	255	
255	255	255	
255	255	255	
255	255	255	
255	255	255	
255	255	255	
255	255	255	
255	255	255	
255	255	255	
255	255	255	
255	255	255	
255	255	255	
255	255	255	
255	255	255	
255	255	255	
255	255	255	
255	255	255	
255	255	255	
255	255	255	
255	255	255	
255	255	255	
255	255	255	
255	255	255	
255	255	255	
255	255	255	
255	255	255	
255	255	255	
255	255	255	
255	255	255	
255	255	255	
255	255	255	
255	255	255	
255	255	255	
255	255	255	
255	255	255	
255	255	255	
255	255	255	
255	255	255	
255	255	255	
255	255	255	
255	255	255	
255	255	255	
255	255	255	
255	255	255	
255	255	255	
255	255	255	
255	255	255	
255	255	255	
255	255	255	
255	255	255	
255	255	255	
255	255	255	
255	255	255	
255	255	255	
255	255	255	
255	255	255	
255	255	255	
255	255	255	
255	255	255	
255	255	255	
255	255	255	
255	255	255	
255	255	255	
255	255	255	
255	255	255	
255	255	255	
255	255	255	
255	255	255	
255	255	255	
255	255	255	
255	255	255	
255	255	255	
255	255	255	
255	255	255	
255	255	255	
255	255	255	
255	255	255	
255	255	255	
255	255	255	
255	255	255	
255	255	255	
255	255	255	
255	255	255	
255	255	255	
255	255	255	
255	255	255	
255	255	255	
255	255	255	
255	255	255	
255	255	255	
255	255	255	
255	255	255	
255	255	255	
255	255	255	
255	255	255	
255	255	255	
255	255	255	
255	255	255	
255	255	255	
255	255	255	
255	255	255	
255	255	255	
255	255	255	
255	255	255	
255	255	255	
255	255	255	
255	255	255	
255	255	255	
255	255	255	
255	255	255	
255	255	255	
255	255	255	
255	255	255	
255	255	255	
255	255	255	
255	255	255	
255	255	255	
255	255	255	
255	255	255	
255	255	255	
255	255	255	
255	255	255	
255	255	255	
255	255	255	
255	255	255	
255	255	255	
255	255	255	
255	255	255	
255	255	255	
255	255	255	
255	255	255	
255	255	255	
255	255	255	
255	255	255	
255	255	255	
255	255	255	
255	255	255	
255	255	255	
255	255	255	
255	255	255	
255	255	255	
255	255	255	
255	255	255	
255	255	255	
255	255	255	
255	255	255	
255	255	255	
255	255	255	
255	255	255	
255	255	255	
255	255	255	
255	255	255	
255	255	255	
255	255	255	
255	255	255	
255	255	255	
255	255	255	
255	255	255	
255	255	255	
255	255	255	
255	255	255	
255	255	255	
255	255	255	
255	255	255	
255	255	255	
255	255	255	
255	255	255	
255	255	255	
255	255	255	
255	255	255	
255	255	255	
255	255	255	
255	255	255	
255	255	255	
255	255	255	
255	255	255	
255	255	255	
255	255	255	
255	255	255	
255	255	255	
255	255	255	
255	255	255	
255	255	255	
255	255	255	
255	255	255	
255	255	255	
255	255	255	
255	255	255	
255	255	255	
255	255	255	
255	255	255	
255	255	255	
255	255	255	
255	255	255	
255	255	255	
255	255	255	
255	255	255	
255	255	255	
255	255	255	
255	255	255	
255	255	255	
255	255	255	
255	255	255	
255	255	255	
255	255	255	
255	255	255	
255	255	255	
255	255	255	
255	255	255	
255	255	255	
255	255	255	
255	255	255	
255	255	255	
255	255	255	
255	255	255	
255	255	255	
255	255	255	
255	255	255	
255	255	255	
255	255	255	
255	255	255	
255	255	255	
255	255	255	
255	255	255	
255	255	255	
255	255	255	
255	255	255	
255	255	255	
255	255	255	
255	255	255	
255	255	255	
255	255	255	
255	255	255	
255	255	255	
255	255	255	
255	255	255	
255	255	255	
255	255	255	
255	255	255	
255	255	255	
255	255	255	
255	255	255	
255	255	255	
255	255	255	
255	255	255	
255	255	255	
255	255	255	
255	255	255	
255	255	255	
255	255	255	
255	255	255	
255	255	255	
255	255	255	
255	255	255	
255	255	255	
255	255	255	
255	255	255	
255	255	255	
255	255	255	
255	255	255	
255	255	255	
255	255	255	
255	255	255	
255	255	255	
255	255	255	
255	255	255	
255	255	255	
255	255	255	
255	255	255	
255	255	255	
255	255	255	
255	255	255	
255	255	255	
255	255	255	
255	255	255	
255	255	255	
255	255	255	
255	255	255	
255	255	255	
255	255	255	
255	255	255	
255	255	255	
255	255	255	
255	255	255	
255	255	255	
255	255	255	
255	255	255	
255	255	255	
255	255	255	
255	255	255	
255	255	255	
255	255	255	
255	255	255	
255	255	255	
255	255	255	
255	255	255	
255	255	255	
255	255	255	
255	255	255	
255	255	255	
255	255	255	
255	255	255	
255	255	255	
255	255	255	
255	255	255	
255	255	255	
255	255	255	
255	255	255	
255	255	255	
255	255	255	
255	255	255	
255	255	255	
255	255	255	
255	255	255	
255	255	255	
255	255	255	
255	255	255	
255	255	255	
255	255	255	
255	255	255	
255	255	255	
255	255	255	
255	255	255	
255	255	255	
255	255	255	
255	255	255	
255	255	255	
255	255	255	
255	255	255	
255	255	255	
255	255	255	
255	255	255	
255	255	255	
255	255	255	
255	255	255	
255	255	255	
255	255	255	
255	255	255	
255	255	255	
255	255	255	
255	255	255	
255	255	255	
255	255	255	
255	255	255	
255	255	255	
255	255	255	
255	255	255	
255	255	255	
255	255	255	
255	255	255	
255	255	255	
255	255	255	
255	255	255	
255	255	255	
255	255	255	
255	255	255	
255	255	255	
255	255	255	
255	255	255	
255	255	255	
255	255	255	
255	255	255	
255	255	255	
255	255	255	
255	255	255	
255	255	255	
255	255	255	
255	255	255	
255	255	255	
255	255	255	
255	255	255	
255	255	255	
255	255	255	
255	255	255	
255	255	255	
255	255	255	
255	255	255	
255	255	255	
255	255	255	
255	255	255	
255	255	255	
255	255	255	
255	255	255	
255	255	255	
255	255	255	
255	255	255	
255	255	255	
255	255	255	
255	255	255	
255	255	255	
255	255	255	
255	255	255	
255	255	255	
255	255	255	
255	255	255	
255	255	255	
255	255	255	
255	255	255	
255	255	255	
255	255	255	
255	255	255	
255	255	255	
255	255	255	
255	255	255	
255	255	255	
255	255	255	
255	255	255	
255	255	255	
255	255	255	
255	255	255	
255	255	255	
255	255	255	
255	255	255	
255	255	255	
255	255	255	
255	255	255	
255	255	255	
255	255	255	
255	255	255	
255	255	255	
255	255	255	
255	255	255	
255	255	255	
255	255	255	
255	255	255	
255	255	255	
255	255	255	
255	255	255	
255	255	255	
255	255	255	
255	255	255	
255	255	255	
255	255	255	
255	255	255	
255	255	255	
255	255	255	
255	255	255	
255	255	255	
255	255	255	
255	255	255	
255	255	255	
255	255	255	
255	255	255	
255	255	255	
255	255	255	
255	255	255	
255	255	255	
255	255	255	
255	255	255	
255	255	255	
255	255	255	
255	255	255	
255	255	255	
255	255	255	
255	255	255	
255	255	255	
255	255	255	
255	255	255	
255	255	255	
255	255	255	
255	255	255	
255	255	255	
255	255	255	
255	255	255	
255	255	255	
255	255	255	
255	255	255	
255	255	255	
255	255	255	
255	255	255	
255	255	255	
255	255	255	
255	255	255	
255	255	255	
255	255	255	
255	255	255	
255	255	255	
255	255	255	
255	255	255	
255	255	255	
255	255	255	
255	255	255	
255	255	255	
255	255	255	
255	255	255	
255	255	255	
255	255	255	
255	255	255	
255	255	255	
255	255	255	
255	255	255	
255	255	255	
255	255	255	
255	255	255	
255	255	255	
255	255	255	
255	255	255	
255	255	255	
255	255	255	
255	255	255	
255	255	255	
255	255	255	
255	255	255	
255	255	255	
255	255	255	
255	255	255	
255	255	255	
255	255	255	
255	255	255	
255	255	255	
255	255	255	
255	255	255	
255	255	255	
255	255	255	
255	255	255	
255	255	255	
255	255	255	
255	255	255	
255	255	255	
255	255	255	
255	255	255	
255	255	255	
255	255	255	
255	255	255	
255	255	255	
255	255	255	
255	255	255	
255	255	255	
255	255	255	
255	255	255	
255	255	255	
255	255	255	
255	255	255	
255	255	255	
255	255	255	
255	255	255	
255	255	255	
255	255	255	
255	255	255	
255	255	255	
255	255	255	
255	255	255	
255	255	255	
255	255	255	
255	255	255	
255	255	255	
255	255	255	
255	255	255	
255	255	255	
255	255	255	
255	255	255	
255	255	255	
255	255	255	
255	255	255	
255	255	255	
255	255	255	
255	255	255	
255	255	255	
255	255	255	
255	255	255	
255	255	255	
255	255	255	
255	255	255	
255	255	255	
255	255	255	
255	255	255	
255	255	255	
255	255	255	
255	255	255	
255	255	255	
255	255	255	
255	255	255	
255	255	255	
255	255	255	
255	255	255	
255	255	255	
255	255	255	
255	255	255	
255	255	255	
255	255	255	
255	255	255	
255	255	255	
255	255	255	
255	255	255	
255	255	255	
255	255	255	
255	255	255	
255	255	255	
255	255	255	
255	255	255	
255	255	255	
255	255	255	
255	255	255	
255	255	255	
255	255	255	
255	255	255	
255	255	255	
255	255	255	
255	255	255	
255	255	255	
255	255	255	
255	255	255	
255	255	255	
255	255	255	
255	255	255	
255	255	255	
255	255	255	
255	255	255	
255	255	255	
255	255	255	
255	255	255	
255	255	255	
255	255	255	
255	255	255	
255	255	255	
255	255	255	
255	255	255	
255	255	255	
255	255	255	
255	255	255	
255	255	255	
255	255	255	
255	255	255	
255	255	255	
255	255	255	
255	255	255	
255	255	255	
255	255	255	
255	255	255	
255	255	255	
255	255	255	
255	255	255	
255	255	255	
255	255	255	
255	255	255	
255	255	255	
255	255	255	
255	255	255	
255	255	255	
255	255	255	
255	255	255	
255	255	255	
255	255	255	
255	255	255	
255	255	255	
255	255	255	
255	255	255	
255	255	255	
255	255	255	
255	255	255	
255	255	255	
255	255	255	
255	255	255	
255	255	255	
255	255	255	
255	255	255	
255	255	255	
255	255	255	
255	255	255	
255	255	255	
255	255	255	
255	255	255	
255	255	255	
255	255	255	
255	255	255	
255	255	255	
255	255	255	
255	255	255	
255	255	255	
255	255	255	
255	255	255	
255	255	255	
